<?xml version = "1.0" encoding = "UTF-8"?>
<map version="1.2" tiledversion="1.2.4" orientation="orthogonal" renderorder="right-down" width="20" height="15" tilewidth="16" tileheight="16" infinite="0" nextlayerid="5" nextobjectid="1">
 <properties>
  <property name="tileset_id" type="int" value="19"/>
 </properties>
 <tileset firstgid="1" source="../autotiles/blank.tsx"/>
 <tileset firstgid="48" source="../autotiles/black.tsx"/>
 <tileset firstgid="96" source="../autotiles/tower1.tsx"/>
 <tileset firstgid="144" source="../autotiles/tower2.tsx"/>
 <tileset firstgid="192" source="../autotiles/blank4.tsx"/>
 <tileset firstgid="240" source="../autotiles/blank5.tsx"/>
 <tileset firstgid="288" source="../autotiles/blank6.tsx"/>
 <tileset firstgid="336" source="../autotiles/blank7.tsx"/>
 <tileset firstgid="384" source="../tilesets/tower.tsx"/>
 <layer id="1" name="Tile Layer 1" width="20" height="15">
 <data encoding="csv">
48,48,48,48,48,48,48,48,48,48,48,48,48,48,48,48,48,48,48,48,48,48,48,48,48,48,48,48,48,48,48,48,48,48,48,48,48,48,48,48,48,48,48,48,48,48,48,48,48,48,48,48,48,48,48,48,48,48,48,48,48,48,48,48,48,48,48,48,48,48,48,48,48,48,48,48,48,48,48,48,48,48,48,48,48,48,48,48,48,48,48,48,48,48,48,48,48,48,48,48,48,48,48,48,48,48,48,48,48,48,48,48,48,48,48,48,48,48,48,48,48,48,48,48,48,48,48,48,48,48,48,48,48,48,48,48,48,48,48,48,48,48,48,48,48,48,48,48,48,48,48,48,48,48,48,48,48,48,48,48,48,48,48,48,48,48,48,48,48,48,48,48,48,48,48,48,48,48,48,48,48,48,48,48,48,48,48,48,48,48,48,48,48,48,48,48,48,48,48,48,48,48,48,48,48,48,48,48,48,48,48,48,48,48,48,48,48,48,48,48,48,48,48,48,48,48,48,48,48,48,48,48,48,48,48,48,48,48,48,48,48,48,48,48,48,48,48,48,48,48,48,48,48,48,48,48,48,48,48,48,48,48,48,48,48,48,48,48,48,48,48,48,48,48,48,48,48,48,48,48,48,48,48,48,48,48,48,48,48,48,48,48,48,48,48,48,48,48,48,48
 </data>
 </layer>
 <layer id="2" name="Tile Layer 2" width="20" height="15">
 <data encoding="csv">
0,0,0,0,0,0,0,0,0,0,0,0,0,0,0,0,0,0,0,0,0,0,0,0,0,0,0,0,0,0,0,0,0,0,0,0,0,0,0,0,0,0,0,0,0,0,784,785,786,787,788,789,790,791,0,0,0,0,0,0,0,0,0,0,0,0,792,793,794,795,796,797,798,799,0,0,0,0,0,0,0,0,0,0,0,0,800,801,802,803,804,805,806,807,0,0,0,0,0,0,0,0,0,0,0,0,808,809,810,811,812,813,814,815,0,0,0,0,0,0,0,0,0,0,0,0,816,817,818,819,820,821,822,823,0,0,0,0,0,0,0,0,0,0,0,0,824,825,826,827,828,829,830,831,0,0,0,0,0,0,0,0,0,0,0,0,832,833,834,835,836,837,838,844,0,0,0,0,0,0,0,0,0,0,0,0,840,841,842,843,844,845,844,847,0,0,0,0,0,0,0,0,0,0,0,0,840,841,842,843,844,845,846,847,0,0,0,0,0,0,0,0,0,0,0,0,840,841,842,843,844,845,846,847,0,0,0,0,0,0,0,0,0,0,0,0,840,841,842,843,844,845,846,847,0,0,0,0,0,0,0,0,0,0,0,0,840,841,842,843,844,845,846,847,0,0,0,0,0,0,0,0,0,0,0,0,840,841,842,843,844,845,846,847,0,0,0,0,0,0
 </data>
 </layer>
 <layer id="3" name="Tile Layer 3" width="20" height="15">
 <data encoding="csv">
0,0,0,0,0,0,0,0,0,0,0,0,0,0,0,0,0,0,0,0,0,0,0,0,0,0,0,0,0,0,0,0,0,0,0,0,0,0,0,0,0,0,0,0,0,0,0,0,0,0,0,0,0,0,0,0,0,0,0,0,0,0,0,0,0,0,0,0,0,698,0,0,699,0,0,0,0,0,0,0,0,0,0,0,0,0,0,698,0,706,0,0,707,0,0,0,0,0,0,0,0,0,0,0,0,0,0,706,0,714,0,0,715,0,0,0,0,0,0,0,0,0,0,0,0,0,0,714,0,0,0,0,0,0,0,0,0,0,0,0,0,0,0,0,0,0,0,0,0,0,0,0,0,0,0,0,0,0,0,0,0,0,0,0,0,0,0,0,0,0,0,0,0,0,0,0,0,0,0,0,0,0,0,0,0,0,648,648,648,648,648,648,648,648,648,0,0,0,0,0,0,0,0,0,0,0,656,656,656,656,656,656,656,656,656,0,0,0,0,0,0,0,0,0,0,0,664,664,664,664,664,664,664,664,664,0,0,0,0,0,0,0,0,0,0,0,672,672,672,672,672,672,672,672,672,0,0,0,0,0,0,0,0,0,0,0,680,680,680,680,680,680,680,680,680,0,0,0,0,0,0,0,0,0,0,0,688,688,688,688,688,688,688,688,688,0,0,0,0,0
 </data>
 </layer>
</map>
