<?xml version = "1.0" encoding = "UTF-8"?>
<map version="1.2" tiledversion="1.2.4" orientation="orthogonal" renderorder="right-down" width="20" height="15" tilewidth="16" tileheight="16" infinite="0" nextlayerid="5" nextobjectid="1">
 <properties>
  <property name="tileset_id" type="int" value="19"/>
 </properties>
 <tileset firstgid="1" source="../autotiles/blank.tsx"/>
 <tileset firstgid="48" source="../autotiles/black.tsx"/>
 <tileset firstgid="96" source="../autotiles/tower1.tsx"/>
 <tileset firstgid="144" source="../autotiles/tower2.tsx"/>
 <tileset firstgid="192" source="../autotiles/blank4.tsx"/>
 <tileset firstgid="240" source="../autotiles/blank5.tsx"/>
 <tileset firstgid="288" source="../autotiles/blank6.tsx"/>
 <tileset firstgid="336" source="../autotiles/blank7.tsx"/>
 <tileset firstgid="384" source="../tilesets/tower.tsx"/>
 <layer id="1" name="Tile Layer 1" width="20" height="15">
 <data encoding="csv">
48,48,48,48,48,48,48,48,48,52,76,56,48,48,48,52,76,76,56,48,48,48,48,48,48,48,48,48,48,72,612,64,48,48,48,72,178,180,64,48,48,48,48,48,48,48,48,48,48,50,68,49,48,48,48,72,184,182,64,48,48,48,48,48,48,48,48,48,48,48,48,48,48,48,48,50,68,68,53,76,48,48,52,76,56,48,48,48,48,48,48,48,48,48,48,48,48,48,72,612,48,48,72,142,64,48,48,48,48,48,48,48,48,48,48,48,48,48,50,68,48,48,50,68,49,48,48,48,48,48,48,48,48,48,48,48,48,48,48,48,48,48,48,48,48,48,48,48,48,48,48,48,48,48,48,48,48,52,76,56,52,76,56,48,48,48,48,48,48,48,48,48,48,48,48,48,48,72,190,64,72,612,64,48,48,48,48,48,48,48,48,48,48,48,48,48,48,50,68,49,50,68,49,48,48,48,48,48,48,48,48,48,48,48,48,48,48,48,48,48,48,48,52,76,56,48,48,48,48,48,48,48,48,48,48,52,76,56,48,48,48,48,72,190,64,48,48,48,48,48,48,48,48,48,48,72,612,64,48,48,48,48,50,68,49,48,48,48,48,48,48,48,48,48,48,50,68,49,48,48,48,48,48,48,48,48,48,48,48,48,48,48,48,48,48,48,48,48,48,48
 </data>
 </layer>
 <layer id="2" name="Tile Layer 2" width="20" height="15">
 <data encoding="csv">
636,636,636,636,636,636,636,636,636,636,636,636,636,636,636,636,636,636,636,636,636,636,636,636,636,636,636,636,636,636,636,636,636,636,636,636,636,636,636,636,636,636,636,636,636,636,636,636,636,636,636,636,636,636,636,636,636,636,636,636,636,636,636,636,636,636,848,849,850,851,852,853,854,855,636,636,636,636,636,636,636,636,636,636,636,636,856,857,858,859,860,861,862,863,636,636,636,636,636,636,636,636,636,636,636,636,864,865,866,867,868,869,870,871,636,636,636,636,636,636,636,636,636,636,636,636,872,873,874,875,876,877,878,879,636,636,636,636,636,636,636,636,636,636,636,636,880,881,882,883,884,885,886,887,636,636,636,636,636,636,636,636,636,636,636,636,888,889,890,891,892,893,894,895,636,636,636,636,636,636,636,636,636,636,636,636,896,897,898,899,900,901,902,903,636,636,636,636,636,636,636,636,636,636,636,636,904,905,906,907,908,909,910,911,636,636,636,636,636,636,636,636,636,636,636,636,904,905,906,907,908,909,910,911,636,636,636,636,636,636,636,636,636,636,636,636,904,905,906,907,908,909,910,911,636,636,636,636,636,636,636,636,636,636,636,636,904,905,906,907,908,909,910,911,636,636,636,636,636,636,636,636,636,636,636,636,904,905,906,907,908,909,910,911,636,636,636,636,636,636
 </data>
 </layer>
 <layer id="3" name="Tile Layer 3" width="20" height="15">
 <data encoding="csv">
0,0,0,0,0,0,0,0,0,0,0,0,0,0,0,0,0,0,0,0,0,0,0,0,0,0,0,0,0,0,0,0,0,0,0,0,0,0,0,0,0,0,0,0,0,0,0,0,0,0,0,0,0,0,0,0,0,0,0,0,0,0,0,0,0,0,0,0,0,0,0,0,0,0,0,0,0,0,0,0,0,0,0,0,0,0,0,698,0,0,699,0,0,0,0,0,0,0,0,0,0,0,0,0,0,0,0,706,0,0,707,0,699,0,0,0,0,0,0,0,0,0,0,0,0,0,0,714,0,0,715,0,707,0,0,0,0,0,0,0,0,0,0,0,0,0,0,0,0,0,0,0,715,0,0,0,0,0,0,0,0,0,0,0,0,0,0,0,0,0,0,0,0,0,0,0,0,0,0,0,0,0,0,0,0,0,0,0,0,0,0,0,0,0,0,0,0,0,0,0,0,0,0,0,0,0,648,648,648,648,648,648,648,648,0,0,0,0,0,0,0,0,0,0,0,0,656,656,656,656,656,656,656,656,0,0,0,0,0,0,0,0,0,0,0,0,664,664,664,664,664,664,664,664,0,0,0,0,0,0,0,0,0,0,0,0,672,672,672,672,672,672,672,672,0,0,0,0,0,0,0,0,0,0,0,0,680,680,680,680,680,680,680,680,0,0,0,0,0,0
 </data>
 </layer>
</map>
