<?xml version = "1.0" encoding = "UTF-8"?>
<map version="1.2" tiledversion="1.2.4" orientation="orthogonal" renderorder="right-down" width="20" height="15" tilewidth="16" tileheight="16" infinite="0" nextlayerid="5" nextobjectid="1">
 <properties>
  <property name="tileset_id" type="int" value="19"/>
 </properties>
 <tileset firstgid="1" source="../autotiles/blank.tsx"/>
 <tileset firstgid="48" source="../autotiles/black.tsx"/>
 <tileset firstgid="96" source="../autotiles/tower1.tsx"/>
 <tileset firstgid="144" source="../autotiles/tower2.tsx"/>
 <tileset firstgid="192" source="../autotiles/blank4.tsx"/>
 <tileset firstgid="240" source="../autotiles/blank5.tsx"/>
 <tileset firstgid="288" source="../autotiles/blank6.tsx"/>
 <tileset firstgid="336" source="../autotiles/blank7.tsx"/>
 <tileset firstgid="384" source="../tilesets/tower.tsx"/>
 <layer id="1" name="Tile Layer 1" width="20" height="15">
 <data encoding="csv">
48,48,48,48,48,48,48,48,48,48,48,48,48,48,48,48,48,48,48,48,48,48,48,48,48,48,48,48,48,48,48,48,48,48,48,48,48,48,48,48,48,48,48,48,48,48,48,48,48,48,48,48,48,48,48,48,48,48,48,48,48,48,48,48,48,48,48,48,48,48,48,48,48,48,48,48,48,48,48,48,48,48,48,48,48,48,48,48,48,48,48,48,48,48,48,48,48,48,48,48,48,48,48,48,48,48,48,48,48,48,48,48,48,48,48,48,48,48,48,48,48,48,48,48,48,48,48,48,48,48,48,48,48,48,48,48,48,48,48,48,48,48,48,48,48,48,48,48,48,48,48,48,48,48,48,48,48,48,48,48,48,48,48,48,48,48,48,48,48,48,48,48,48,48,48,48,48,48,48,48,48,48,48,48,48,48,48,48,48,48,48,48,48,48,48,48,48,48,48,48,48,48,48,48,48,48,48,48,48,48,48,48,48,48,48,48,48,48,48,48,48,48,48,48,48,48,48,48,48,48,48,48,48,48,48,48,48,48,48,48,48,48,48,48,48,48,48,48,48,48,48,48,48,48,48,48,48,48,48,48,48,48,48,48,48,48,48,48,48,48,48,48,48,48,48,48,48,48,48,48,48,48,48,48,48,48,48,48,48,48,48,48,48,48,48,48,48,48,48,48
 </data>
 </layer>
 <layer id="2" name="Tile Layer 2" width="20" height="15">
 <data encoding="csv">
0,0,0,0,0,0,0,0,0,0,0,0,0,0,0,0,0,0,0,0,0,0,0,0,0,0,0,0,0,0,0,0,0,0,0,0,0,0,0,0,0,0,0,0,0,0,0,0,0,0,0,0,0,0,0,0,0,0,0,0,0,0,0,0,0,676,676,676,676,676,676,676,676,676,676,0,0,0,0,0,0,0,0,0,0,684,684,684,684,684,684,684,684,684,684,0,0,0,0,0,0,0,0,0,0,692,692,692,692,692,692,692,692,692,692,0,0,0,0,0,0,0,0,0,0,700,700,700,700,700,700,700,700,700,700,0,0,0,0,0,0,0,0,0,0,708,708,708,708,708,708,708,708,708,708,0,0,0,0,0,0,0,0,0,0,716,716,716,716,716,716,716,716,716,716,0,0,0,0,0,0,0,0,0,0,716,716,716,716,716,716,716,716,716,716,0,0,0,0,0,0,0,0,0,0,716,716,716,716,716,716,716,716,716,716,0,0,0,0,0,0,0,0,0,0,716,716,716,716,716,716,716,716,716,716,0,0,0,0,0,0,0,0,0,0,716,716,716,716,716,716,716,716,716,716,0,0,0,0,0,0,0,0,0,0,716,716,716,716,716,716,716,716,716,716,0,0,0,0,0,0,0,0,0,0,716,716,716,716,716,716,716,716,716,716,0,0,0,0,0
 </data>
 </layer>
 <layer id="3" name="Tile Layer 3" width="20" height="15">
 <data encoding="csv">
0,0,0,0,0,0,0,0,0,0,0,0,0,0,0,0,0,0,0,0,0,0,0,0,0,0,0,0,0,0,0,0,0,0,0,0,0,0,0,0,0,0,0,0,0,0,0,0,0,0,0,0,0,0,0,0,0,0,0,0,0,0,0,0,0,0,0,0,0,0,0,0,0,0,0,0,0,0,0,0,0,0,0,0,0,0,682,0,0,0,0,0,0,682,0,0,0,0,0,0,0,0,0,0,0,0,690,0,0,0,0,0,0,690,0,0,0,0,0,0,0,0,0,0,0,0,0,0,0,0,0,0,0,0,0,0,0,0,0,0,0,0,0,0,0,0,0,0,0,0,0,0,0,0,0,0,0,0,0,0,0,0,0,0,0,648,648,648,648,648,648,648,648,648,648,0,0,0,0,0,0,0,0,0,0,656,656,656,656,656,656,656,656,656,656,0,0,0,0,0,0,0,0,0,0,664,664,664,664,664,664,664,664,664,664,0,0,0,0,0,0,0,0,0,0,672,672,672,672,672,672,672,672,672,672,0,0,0,0,0,0,0,0,0,0,680,680,680,680,680,680,680,680,680,680,0,0,0,0,0,0,0,0,0,0,688,688,688,688,688,688,688,688,688,688,0,0,0,0,0,0,0,0,0,0,696,696,696,696,696,696,696,696,696,696,0,0,0,0,0
 </data>
 </layer>
</map>
