<?xml version = "1.0" encoding = "UTF-8"?>
<map version="1.2" tiledversion="1.2.4" orientation="orthogonal" renderorder="right-down" width="20" height="15" tilewidth="16" tileheight="16" infinite="0" nextlayerid="5" nextobjectid="1">
 <properties>
  <property name="tileset_id" type="int" value="19"/>
 </properties>
 <tileset firstgid="1" source="../autotiles/blank.tsx"/>
 <tileset firstgid="48" source="../autotiles/black.tsx"/>
 <tileset firstgid="96" source="../autotiles/tower1.tsx"/>
 <tileset firstgid="144" source="../autotiles/tower2.tsx"/>
 <tileset firstgid="192" source="../autotiles/blank4.tsx"/>
 <tileset firstgid="240" source="../autotiles/blank5.tsx"/>
 <tileset firstgid="288" source="../autotiles/blank6.tsx"/>
 <tileset firstgid="336" source="../autotiles/blank7.tsx"/>
 <tileset firstgid="384" source="../tilesets/tower.tsx"/>
 <layer id="1" name="Tile Layer 1" width="20" height="15">
 <data encoding="csv">
48,48,48,72,140,64,48,48,48,48,48,48,48,48,48,48,52,76,56,48,48,48,48,50,68,49,48,48,48,48,48,48,48,48,48,48,72,612,88,56,48,48,48,48,48,48,48,48,48,48,48,48,48,48,48,48,50,84,612,64,48,52,76,56,48,48,48,48,48,48,48,48,48,48,48,48,52,78,70,49,48,72,612,64,48,48,48,48,48,48,48,48,48,48,48,48,72,190,64,48,52,78,70,49,48,48,48,48,48,48,48,48,48,48,48,48,50,68,49,48,72,96,64,48,48,48,48,48,48,48,48,48,48,48,48,48,48,48,48,48,54,81,77,56,48,48,48,48,48,48,48,48,48,48,48,48,48,52,76,56,72,627,629,64,48,48,48,48,48,48,48,48,48,48,48,48,48,72,612,64,72,643,645,64,48,48,48,48,48,48,48,48,48,48,48,48,52,78,81,77,50,68,68,49,48,48,48,48,48,48,48,48,48,48,52,76,73,144,144,144,48,48,48,48,48,48,48,48,48,48,52,76,56,48,72,612,67,93,144,144,48,48,48,48,48,52,76,56,48,48,72,190,64,48,50,68,74,148,94,152,48,48,48,48,48,72,612,64,48,48,50,68,49,48,48,48,72,168,142,82,48,48,48,48,48,50,68,49,48,48,48,48,48,48,48,48,50,68,68,49
 </data>
 </layer>
 <layer id="2" name="Tile Layer 2" width="20" height="15">
 <data encoding="csv">
0,0,0,0,0,0,0,0,0,0,0,0,0,0,0,0,0,0,0,0,0,0,0,0,0,0,0,0,0,0,0,0,0,0,0,0,0,0,0,0,0,0,0,0,0,0,0,0,0,0,0,0,0,0,0,0,0,0,0,0,0,0,0,0,0,676,676,676,676,676,676,676,676,676,676,0,0,0,0,0,0,0,0,0,0,684,684,684,684,684,684,684,684,684,684,0,0,0,0,0,0,0,0,0,0,692,692,692,692,692,692,692,692,692,692,0,0,0,0,0,0,0,0,0,0,700,700,700,700,700,700,700,700,700,700,0,0,0,0,0,0,0,0,0,0,708,708,708,708,708,708,708,708,708,708,0,0,0,0,0,0,0,0,0,0,716,716,716,716,716,716,716,716,716,716,0,0,0,0,0,0,0,0,0,0,716,716,716,716,716,716,716,716,716,716,0,0,0,0,0,0,0,0,0,0,716,716,716,716,716,716,716,716,716,716,0,0,0,0,0,0,0,0,0,0,716,716,716,716,716,716,716,716,716,716,0,0,0,0,0,0,0,0,0,0,716,716,716,716,716,716,716,716,716,716,0,0,0,0,0,0,0,0,0,0,716,716,716,716,716,716,716,716,716,716,0,0,0,0,0,0,0,0,0,0,716,716,716,716,716,716,716,716,716,716,0,0,0,0,0
 </data>
 </layer>
 <layer id="3" name="Tile Layer 3" width="20" height="15">
 <data encoding="csv">
0,0,0,0,0,0,0,0,0,0,0,0,0,0,0,0,0,0,0,0,0,0,0,0,0,0,0,0,0,0,0,0,0,0,0,0,0,0,0,0,0,0,0,0,0,0,0,0,0,0,0,0,0,0,0,0,0,0,0,0,0,0,0,0,0,0,0,0,0,0,0,0,0,0,0,0,0,0,0,0,0,0,0,0,0,0,682,0,0,0,0,0,0,682,0,0,0,0,0,0,0,0,0,0,0,0,690,0,0,0,0,0,0,690,0,0,0,0,0,0,0,0,0,0,0,0,0,0,0,0,0,0,0,0,0,0,0,0,0,0,0,0,0,0,0,0,0,0,0,0,0,0,0,0,0,0,0,0,0,0,0,0,0,0,0,648,648,648,648,648,648,648,648,648,648,0,0,0,0,0,0,0,0,0,0,656,656,656,656,656,656,656,656,656,656,0,0,0,0,0,0,0,0,0,0,664,664,664,664,664,664,664,664,664,664,0,0,0,0,0,0,0,0,0,0,672,672,672,672,672,672,672,672,672,672,0,0,0,0,0,0,0,0,0,0,680,680,680,680,680,680,680,680,680,680,0,0,0,0,0,0,0,0,0,0,688,688,688,688,688,688,688,688,688,688,0,0,0,0,0,0,0,0,0,0,696,696,696,696,696,696,696,696,696,696,0,0,0,0,0
 </data>
 </layer>
</map>
