<?xml version = "1.0" encoding = "UTF-8"?>
<map version="1.2" tiledversion="1.2.4" orientation="orthogonal" renderorder="right-down" width="20" height="15" tilewidth="16" tileheight="16" infinite="0" nextlayerid="5" nextobjectid="1">
 <properties>
  <property name="tileset_id" type="int" value="19"/>
 </properties>
 <tileset firstgid="1" source="../autotiles/blank.tsx"/>
 <tileset firstgid="48" source="../autotiles/black.tsx"/>
 <tileset firstgid="96" source="../autotiles/tower1.tsx"/>
 <tileset firstgid="144" source="../autotiles/tower2.tsx"/>
 <tileset firstgid="192" source="../autotiles/blank4.tsx"/>
 <tileset firstgid="240" source="../autotiles/blank5.tsx"/>
 <tileset firstgid="288" source="../autotiles/blank6.tsx"/>
 <tileset firstgid="336" source="../autotiles/blank7.tsx"/>
 <tileset firstgid="384" source="../tilesets/tower.tsx"/>
 <layer id="1" name="Tile Layer 1" width="20" height="15">
 <data encoding="csv">
48,48,48,48,48,48,48,48,48,48,48,48,48,48,48,48,48,48,48,48,48,48,48,48,48,48,48,48,48,48,48,48,48,48,48,48,48,48,48,48,48,48,48,48,48,48,48,48,48,48,48,48,48,48,48,48,48,48,48,48,48,48,48,48,48,48,48,48,48,48,48,48,48,48,48,48,48,48,48,48,48,48,48,48,48,48,48,48,48,48,48,48,48,48,48,48,48,48,48,48,48,48,48,48,48,48,48,48,48,48,48,48,48,48,48,48,48,48,48,48,48,48,48,48,48,48,48,48,48,48,48,48,48,48,48,48,48,48,48,48,48,48,48,48,48,48,48,48,48,48,48,48,48,48,48,48,48,48,48,48,48,48,48,48,48,48,48,48,48,48,48,48,48,48,48,48,48,48,48,48,48,48,48,48,48,48,48,48,48,48,48,48,48,48,48,48,48,48,48,48,48,48,48,48,48,48,48,48,48,48,48,48,48,48,48,48,48,48,48,48,48,48,48,48,48,48,48,48,48,48,48,48,48,48,48,48,48,48,48,48,48,48,48,48,48,48,48,48,48,48,48,48,48,48,48,48,48,48,48,48,48,48,48,48,48,48,48,48,48,48,48,48,48,48,48,48,48,48,48,48,48,48,48,48,48,48,48,48,48,48,48,48,48,48,48,48,48,48,48,48
 </data>
 </layer>
 <layer id="2" name="Tile Layer 2" width="20" height="15">
 <data encoding="csv">
0,0,0,0,0,0,0,0,0,0,0,0,0,0,0,0,0,0,0,0,0,0,0,0,0,0,0,0,0,0,0,0,0,0,0,0,0,0,0,0,0,0,0,0,0,720,721,722,723,724,725,726,727,0,0,0,0,0,0,0,0,0,0,0,0,728,729,730,731,732,733,734,735,670,671,0,0,0,0,0,0,0,0,0,0,736,737,738,739,740,741,742,743,678,679,0,0,0,0,0,0,0,0,0,0,744,745,746,747,748,749,750,751,686,687,0,0,0,0,0,0,0,0,0,0,752,753,754,755,756,757,758,759,694,695,0,0,0,0,0,0,0,0,0,0,760,761,762,763,764,765,766,767,702,703,0,0,0,0,0,0,0,0,0,0,768,769,770,771,772,773,774,775,710,711,0,0,0,0,0,0,0,0,0,0,776,777,778,779,780,781,782,783,718,719,0,0,0,0,0,0,0,0,0,0,776,777,778,779,780,781,781,783,718,719,0,0,0,0,0,0,0,0,0,0,776,777,778,779,780,781,781,783,718,719,0,0,0,0,0,0,0,0,0,0,776,777,778,779,780,781,781,783,718,719,0,0,0,0,0,0,0,0,0,0,776,777,778,779,780,781,781,783,718,719,0,0,0,0,0,0,0,0,0,0,776,777,778,779,780,781,781,783,718,719,0,0,0,0,0
 </data>
 </layer>
 <layer id="3" name="Tile Layer 3" width="20" height="15">
 <data encoding="csv">
0,0,0,0,0,0,0,0,0,0,0,0,0,0,0,0,0,0,0,0,0,0,0,0,0,0,0,0,0,0,0,0,0,0,0,0,0,0,0,0,0,0,0,0,0,0,0,0,0,0,0,0,0,0,0,0,0,0,0,0,0,0,0,0,0,0,0,0,698,0,0,699,0,0,0,0,0,0,0,0,0,0,0,0,0,0,698,0,706,0,0,707,0,699,0,0,0,0,0,0,0,0,0,0,0,0,706,0,714,0,0,715,0,707,0,0,0,0,0,0,0,0,0,0,0,0,714,0,0,0,0,0,0,715,0,0,0,0,0,0,0,0,0,0,0,0,0,0,0,0,0,0,0,0,0,0,0,0,0,0,0,0,0,0,0,0,0,0,0,0,0,0,0,0,0,0,0,0,0,0,0,0,0,0,0,648,648,648,648,648,648,648,648,648,648,648,0,0,0,0,0,0,0,0,0,656,656,656,656,656,656,656,656,656,656,656,0,0,0,0,0,0,0,0,0,664,664,664,664,664,664,664,664,664,664,664,0,0,0,0,0,0,0,0,0,672,672,672,672,672,672,672,672,672,672,672,0,0,0,0,0,0,0,0,0,680,680,680,680,680,680,680,680,680,680,680,0,0,0,0,0,0,0,0,0,688,688,688,688,688,688,688,688,688,688,688,0,0,0,0
 </data>
 </layer>
</map>
