<?xml version = "1.0" encoding = "UTF-8"?>
<map version="1.2" tiledversion="1.2.4" orientation="orthogonal" renderorder="right-down" width="20" height="15" tilewidth="16" tileheight="16" infinite="0" nextlayerid="5" nextobjectid="1">
 <properties>
  <property name="tileset_id" type="int" value="19"/>
 </properties>
 <tileset firstgid="1" source="../autotiles/blank.tsx"/>
 <tileset firstgid="48" source="../autotiles/black.tsx"/>
 <tileset firstgid="96" source="../autotiles/tower1.tsx"/>
 <tileset firstgid="144" source="../autotiles/tower2.tsx"/>
 <tileset firstgid="192" source="../autotiles/blank4.tsx"/>
 <tileset firstgid="240" source="../autotiles/blank5.tsx"/>
 <tileset firstgid="288" source="../autotiles/blank6.tsx"/>
 <tileset firstgid="336" source="../autotiles/blank7.tsx"/>
 <tileset firstgid="384" source="../tilesets/tower.tsx"/>
 <layer id="1" name="Tile Layer 1" width="20" height="15">
 <data encoding="csv">
48,48,48,48,48,48,48,48,48,48,48,48,48,48,48,48,48,48,48,48,48,48,48,48,48,48,48,48,48,48,48,48,48,48,48,48,48,48,48,48,48,48,48,48,48,48,48,48,48,48,48,48,48,48,48,48,48,48,48,48,48,48,48,48,48,48,48,48,48,48,48,48,48,48,48,48,48,48,48,48,48,48,48,48,48,48,48,48,48,48,48,48,48,48,48,48,48,48,48,48,48,48,48,48,48,48,48,48,48,48,48,48,48,48,48,48,48,48,48,48,48,48,48,48,48,48,48,48,48,48,48,48,48,48,48,48,48,48,48,48,48,48,48,48,48,48,48,48,48,48,48,48,48,48,48,48,48,48,48,48,48,48,48,48,48,48,48,48,48,48,48,48,48,48,48,48,48,48,48,48,48,48,48,48,48,48,48,48,48,48,48,48,48,48,48,48,48,48,48,48,48,48,48,48,48,48,48,48,48,48,48,48,48,48,48,48,48,48,48,48,48,48,48,48,48,48,48,48,48,48,48,48,48,48,48,48,48,48,48,48,48,48,48,48,48,48,48,48,48,48,48,48,48,48,48,48,48,48,48,48,48,48,48,48,48,48,48,48,48,48,48,48,48,48,48,48,48,48,48,48,48,48,48,48,48,48,48,48,48,48,48,48,48,48,48,48,48,48,48,48
 </data>
 </layer>
 <layer id="2" name="Tile Layer 2" width="20" height="15">
 <data encoding="csv">
0,0,0,0,0,0,0,0,0,0,0,0,0,0,0,0,0,0,0,0,0,0,0,720,721,722,723,724,725,726,0,0,0,0,0,0,0,0,0,0,0,0,0,728,729,730,731,732,733,734,851,852,853,854,855,0,0,0,0,0,0,0,0,736,737,738,739,740,741,742,859,860,861,862,863,0,0,0,0,0,0,0,0,744,745,746,747,748,749,750,867,868,869,870,871,0,0,0,0,0,0,0,0,752,753,754,755,756,757,758,875,876,877,878,879,0,0,0,0,0,0,0,0,760,761,762,763,764,765,766,883,884,885,886,887,0,0,0,0,0,0,0,0,768,769,770,771,772,773,774,891,892,893,894,895,0,0,0,0,0,0,0,0,776,777,778,779,780,781,782,899,900,901,902,903,0,0,0,0,0,0,0,0,776,777,778,779,780,781,781,907,908,909,910,911,0,0,0,0,0,0,0,0,776,777,778,779,780,781,781,907,908,909,910,911,0,0,0,0,0,0,0,0,776,777,778,779,780,781,781,907,908,909,910,911,0,0,0,0,0,0,0,0,776,777,778,779,780,781,781,907,908,909,910,911,0,0,0,0,0,0,0,0,776,777,778,779,780,781,781,907,908,909,910,911,0,0,0,0,0,0,0,0,776,777,778,779,780,781,781,907,908,909,910,911,0,0,0,0,0
 </data>
 </layer>
 <layer id="3" name="Tile Layer 3" width="20" height="15">
 <data encoding="csv">
0,0,0,0,0,0,0,0,0,0,0,0,0,0,0,0,0,0,0,0,0,0,0,0,0,0,0,0,0,0,0,0,0,0,0,0,0,0,0,0,0,0,0,0,0,0,698,0,0,699,0,0,0,0,0,0,0,0,0,0,0,0,0,0,698,0,706,0,0,707,0,699,0,0,0,0,0,0,0,0,0,0,0,0,706,0,714,0,0,715,0,707,0,699,0,0,0,0,0,0,0,0,0,0,714,0,0,0,0,0,0,715,0,707,0,0,0,0,0,0,0,0,0,0,0,0,0,0,0,0,0,0,0,715,0,0,0,0,0,0,0,0,0,0,0,0,0,0,0,0,0,0,0,0,0,0,0,0,0,0,0,0,0,648,648,648,648,648,648,648,0,0,0,0,0,0,0,0,0,0,0,0,0,656,656,656,656,656,656,656,648,648,648,648,648,0,0,0,0,0,0,0,0,664,664,664,664,664,664,664,656,656,656,656,656,0,0,0,0,0,0,0,0,672,672,672,672,672,672,672,664,664,664,664,664,0,0,0,0,0,0,0,0,680,680,680,680,680,680,680,672,672,672,672,672,0,0,0,0,0,0,0,0,688,688,688,688,688,688,688,680,680,680,680,680,0,0,0,0,0,0,0,0,704,704,704,704,704,704,704,688,688,688,688,688,0,0,0,0,0
 </data>
 </layer>
</map>
