<?xml version = "1.0" encoding = "UTF-8"?>
<map version="1.2" tiledversion="1.2.4" orientation="orthogonal" renderorder="right-down" width="20" height="20" tilewidth="16" tileheight="16" infinite="0" nextlayerid="5" nextobjectid="1">
 <properties>
  <property name="tileset_id" type="int" value="13"/>
 </properties>
 <tileset firstgid="1" source="../autotiles/blank.tsx"/>
 <tileset firstgid="48" source="../autotiles/red_water_clean.tsx"/>
 <tileset firstgid="96" source="../autotiles/factory_pool.tsx"/>
 <tileset firstgid="144" source="../autotiles/red_walkway.tsx"/>
 <tileset firstgid="192" source="../autotiles/blank4.tsx"/>
 <tileset firstgid="240" source="../autotiles/blank5.tsx"/>
 <tileset firstgid="288" source="../autotiles/blank6.tsx"/>
 <tileset firstgid="336" source="../autotiles/blank7.tsx"/>
 <tileset firstgid="384" source="../tilesets/red_factory.tsx"/>
 <layer id="1" name="Tile Layer 1" width="20" height="20">
 <data encoding="csv">
0,0,0,0,0,0,0,0,0,0,0,0,0,0,0,0,0,0,0,0,0,0,0,0,0,0,0,807,807,807,807,807,807,807,0,0,0,0,0,0,0,0,0,0,0,0,807,558,558,558,558,558,558,558,807,0,0,0,0,0,0,0,0,0,0,807,558,566,807,807,566,807,807,566,558,807,0,0,0,0,0,0,0,0,0,558,566,807,558,558,566,558,558,807,566,558,0,0,0,0,0,0,0,0,0,566,0,558,566,0,807,0,566,558,0,566,0,0,0,0,0,0,0,0,0,566,0,566,0,807,558,807,807,566,0,566,0,0,0,0,0,0,0,0,0,566,0,566,0,558,566,558,558,566,0,566,0,0,0,0,0,0,0,0,0,566,0,566,807,0,566,0,807,566,0,566,0,0,0,0,0,0,0,0,0,566,807,566,558,807,807,807,558,566,807,566,0,0,0,0,0,0,0,0,0,566,558,807,566,558,558,558,566,807,558,566,0,0,0,0,0,0,0,0,0,0,566,558,807,807,807,807,807,566,566,0,0,0,0,0,0,0,0,0,0,0,0,566,558,558,558,558,558,566,0,0,0,0,0,0,0,0,0,0,0,0,0,0,0,566,566,566,0,0,0,0,0,0,0,0,0,0,0,0,0,0,0,0,0,566,566,566,0,0,0,0,0,0,0,0,0,0,0,0,0,0,0,0,0,0,0,0,0,0,0,0,0,0,0,0,0,0,0,0,0,0,0,0,0,0,0,0,0,0,0,0,0,0,0,0,0,0,0,0,0,0,0,0,0,0,0,0,0,0,0,0,0,0,0,0,0,0,0,0,0,0,0,0,0,0,0,0,0,0,0,0,0,0,0,0,0,0,0,0,0,0,0,0,0,0,0,0,0,0,0,0,0,0,0,0
 </data>
 </layer>
 <layer id="2" name="Tile Layer 2" width="20" height="20">
 <data encoding="csv">
0,0,0,0,0,0,0,0,0,0,0,0,0,0,0,0,0,0,0,0,0,0,0,0,0,0,0,0,0,0,0,0,0,0,0,0,0,0,0,0,0,0,0,0,0,0,0,0,806,806,0,806,806,0,0,0,0,0,0,0,0,0,0,0,0,0,0,806,814,814,0,814,814,806,0,0,0,0,0,0,0,0,0,0,0,0,806,814,0,806,806,806,0,814,806,0,0,0,0,0,0,0,0,0,0,0,814,0,806,814,814,814,806,0,814,0,0,0,0,0,0,0,0,0,0,0,0,0,814,0,0,0,814,0,0,0,0,0,0,0,0,0,0,0,0,0,0,0,0,806,0,806,806,0,0,0,0,0,0,0,0,0,0,0,0,0,0,0,0,814,806,814,814,0,0,0,0,0,0,0,0,0,0,0,0,0,0,806,0,0,814,0,0,806,0,0,0,0,0,0,0,0,0,0,0,806,0,814,806,806,806,806,806,814,0,806,0,0,0,0,0,0,0,0,0,814,806,0,814,814,814,814,814,0,806,814,0,0,0,0,0,0,0,0,0,0,814,806,806,0,0,0,806,806,814,0,0,0,0,0,0,0,0,0,0,0,0,814,814,0,0,0,814,814,0,0,0,0,0,0,0,0,0,0,0,0,0,0,0,806,806,806,0,0,0,0,0,0,0,0,0,0,0,0,0,0,0,0,0,814,814,814,0,0,0,0,0,0,0,0,0,0,0,0,0,0,0,0,0,0,0,0,0,0,0,0,0,0,0,0,0,0,0,0,0,0,0,0,0,0,0,0,0,0,0,0,0,0,0,0,0,0,0,0,0,0,0,0,0,0,0,0,0,0,0,0,0,0,0,0,0,0,0,0,0,0,0,0,0,0,0,0,0,0,0,0,0,0,0,0
 </data>
 </layer>
 <layer id="3" name="Tile Layer 3" width="20" height="20">
 <data encoding="csv">
0,0,0,0,0,0,0,0,0,0,0,0,0,0,0,0,0,0,0,0,0,0,0,0,0,0,371,369,369,369,369,369,369,369,373,0,0,0,0,0,0,0,0,0,0,371,375,0,0,0,0,0,0,0,377,373,0,0,0,0,0,0,0,0,371,375,0,0,379,381,0,379,381,0,0,377,373,0,0,0,0,0,0,0,368,0,0,382,0,0,0,0,0,382,0,0,368,0,0,0,0,0,0,0,368,0,378,0,0,371,369,373,0,0,378,0,368,0,0,0,0,0,0,0,368,0,368,0,371,375,0,377,381,0,368,0,368,0,0,0,0,0,0,0,368,0,368,0,368,0,0,0,0,0,368,0,368,0,0,0,0,0,0,0,368,0,368,0,377,373,0,371,381,0,368,0,368,0,0,0,0,0,0,0,368,0,380,0,0,377,369,375,0,0,380,0,368,0,0,0,0,0,0,0,368,0,0,382,0,0,0,0,0,382,0,0,368,0,0,0,0,0,0,0,377,373,0,0,379,369,369,369,381,0,0,371,375,0,0,0,0,0,0,0,0,377,373,0,0,0,0,0,0,0,371,375,0,0,0,0,0,0,0,0,0,0,377,358,372,0,0,0,370,357,375,0,0,0,0,0,0,0,0,0,0,0,0,376,361,0,0,0,354,374,0,0,0,0,0,0,0,0,0,0,0,0,0,0,353,357,369,358,362,0,0,0,0,0,0,0,0,0,0,0,0,0,0,0,376,361,0,354,374,0,0,0,0,0,0,0,0,0,0,0,0,0,0,0,0,377,369,375,0,0,0,0,0,0,0,0,0,0,0,0,0,0,0,0,0,0,0,0,0,0,0,0,0,0,0,0,0,0,0,0,0,0,0,0,0,0,0,0,0,0,0,0,0,0,0,0
 </data>
 </layer>
</map>
