<?xml version = "1.0" encoding = "UTF-8"?>
<map version="1.2" tiledversion="1.2.4" orientation="orthogonal" renderorder="right-down" width="40" height="40" tilewidth="16" tileheight="16" infinite="0" nextlayerid="5" nextobjectid="1">
 <properties>
  <property name="tileset_id" type="int" value="9"/>
 </properties>
 <tileset firstgid="1" source="../autotiles/blank.tsx"/>
 <tileset firstgid="48" source="../autotiles/red_start_carpet.tsx"/>
 <tileset firstgid="96" source="../autotiles/red_start_counter.tsx"/>
 <tileset firstgid="144" source="../autotiles/start_interior.tsx"/>
 <tileset firstgid="192" source="../autotiles/blank4.tsx"/>
 <tileset firstgid="240" source="../autotiles/blank5.tsx"/>
 <tileset firstgid="288" source="../autotiles/blank6.tsx"/>
 <tileset firstgid="336" source="../autotiles/blank7.tsx"/>
 <tileset firstgid="384" source="../tilesets/red_start.tsx"/>
 <layer id="1" name="Tile Layer 1" width="40" height="40">
 <data encoding="csv">
409,410,411,409,410,411,409,410,411,409,410,411,409,410,411,409,410,411,409,410,394,395,393,394,395,393,394,395,393,394,385,386,387,385,386,387,385,386,385,386,385,386,387,385,83,81,85,386,83,81,85,387,83,81,85,385,386,387,482,482,482,403,401,402,403,401,402,403,401,402,393,394,395,393,394,395,393,394,393,394,393,402,395,393,80,395,80,394,80,393,80,395,80,394,80,393,394,395,482,482,482,411,409,410,411,409,410,411,409,410,401,402,403,401,402,403,401,402,401,402,401,402,403,401,89,81,87,402,89,81,87,403,89,81,87,401,402,403,482,482,482,387,385,386,387,385,386,387,385,386,409,410,411,409,410,411,409,410,409,410,409,410,411,409,410,411,409,410,411,409,410,409,409,410,411,480,480,480,481,481,481,483,483,483,485,485,485,395,393,394,385,386,387,385,386,387,385,386,385,386,385,386,387,385,83,81,85,386,83,81,85,409,83,81,85,480,480,480,481,481,481,483,483,483,485,485,485,403,401,402,393,394,395,393,394,395,393,394,393,394,393,394,395,393,80,395,80,394,80,393,80,409,80,410,80,480,480,480,481,481,481,483,483,483,485,485,485,411,409,410,401,402,403,401,402,403,401,402,401,402,401,402,403,401,89,81,87,402,89,81,87,409,89,81,87,401,402,403,401,402,386,387,385,386,387,385,386,387,385,386,409,410,411,409,410,411,409,410,409,410,409,410,411,409,410,411,409,410,411,409,410,393,409,410,411,409,410,411,409,410,394,395,393,394,395,393,394,395,393,394,385,386,387,385,386,387,385,386,385,386,385,386,387,385,386,387,385,395,395,395,395,387,480,481,482,483,484,481,480,481,482,403,401,402,403,401,402,403,401,402,393,394,395,393,394,395,393,394,393,394,393,394,395,393,394,395,395,395,395,395,395,395,482,483,484,480,481,482,483,484,480,411,409,410,411,409,410,411,409,410,401,402,403,401,402,403,401,402,401,402,401,402,403,401,402,403,401,402,403,401,402,403,484,480,481,482,483,484,480,481,482,387,385,412,387,385,386,387,385,386,409,410,411,409,410,411,409,410,409,410,409,410,411,409,410,411,409,410,411,409,410,411,480,481,482,480,481,482,483,484,480,395,393,412,395,393,394,395,393,394,385,386,387,385,386,387,385,386,385,386,385,386,387,385,386,387,385,386,387,385,386,387,482,483,480,483,484,481,482,385,484,403,401,402,403,401,402,403,401,402,393,394,395,393,394,395,393,394,393,394,393,394,395,393,394,395,393,394,395,393,394,395,484,480,481,482,483,484,480,481,482,411,409,410,411,409,410,411,409,410,401,402,403,401,402,403,401,402,401,402,387,385,386,387,385,386,387,385,386,387,385,386,480,481,482,480,481,482,483,484,480,387,385,386,387,385,386,387,385,386,409,410,411,409,410,411,409,410,409,410,395,393,394,395,393,394,395,393,394,395,393,394,395,393,394,395,393,394,395,393,394,395,393,394,395,393,394,395,393,394,385,386,387,385,386,387,385,386,385,386,403,401,402,403,401,402,403,401,402,403,401,402,403,401,402,403,401,402,403,401,402,403,401,402,403,401,402,403,401,402,393,394,395,393,394,395,393,394,393,394,411,409,410,411,409,410,411,409,410,411,409,410,411,409,410,411,409,410,411,409,410,411,409,410,411,409,410,411,409,410,401,402,403,401,402,403,401,402,401,402,387,385,386,387,385,386,387,385,386,387,385,386,387,385,386,387,385,386,387,385,386,0,0,0,0,0,386,387,385,386,409,410,411,409,410,411,409,410,409,410,385,386,387,385,386,387,385,386,387,385,386,387,385,386,387,385,386,387,385,386,387,0,0,0,0,0,387,385,386,387,385,386,387,385,386,387,385,386,387,385,393,394,395,393,394,395,393,394,395,393,394,395,393,394,395,393,394,395,393,394,395,0,0,0,0,0,395,393,394,395,393,394,395,393,394,395,393,394,395,393,401,402,403,401,402,403,401,402,403,401,402,403,401,402,403,401,402,403,401,402,403,0,0,0,0,0,403,401,402,403,401,402,403,401,402,403,401,402,403,401,409,410,411,409,410,411,409,410,411,409,410,411,409,410,411,409,410,411,409,410,411,0,0,0,0,0,411,409,410,411,409,410,411,409,410,411,409,410,411,409,385,386,387,385,386,387,385,386,387,385,386,387,385,386,387,385,386,387,385,386,387,385,386,387,385,386,387,385,386,387,385,386,387,385,386,387,385,386,387,385,393,394,395,393,394,395,393,394,395,393,394,395,393,394,395,393,394,395,393,394,395,393,394,395,393,394,395,393,394,395,393,394,395,393,394,395,393,394,395,393,401,402,403,401,402,403,401,402,403,401,402,403,401,402,403,401,402,403,401,402,403,401,402,403,401,402,403,401,402,403,401,402,403,401,402,403,401,402,403,401,409,410,411,409,410,411,409,410,411,409,410,411,409,410,411,409,410,411,409,410,411,409,410,411,409,410,411,409,410,411,409,410,411,409,410,411,409,410,411,409,385,386,387,385,386,387,385,386,387,385,386,387,385,386,387,385,386,387,385,386,387,385,386,387,385,386,387,385,386,387,385,386,387,385,386,387,385,386,387,385,393,394,395,393,394,395,393,394,395,393,394,395,393,394,395,393,394,395,393,394,395,393,394,395,393,394,395,393,394,395,393,394,395,393,394,395,393,394,395,393,401,402,403,401,402,403,401,402,403,401,402,403,401,402,403,401,402,403,401,402,403,401,402,403,401,402,403,401,402,403,401,402,403,401,402,403,401,402,403,401,409,410,411,409,410,411,409,410,411,409,410,411,409,410,411,409,410,411,409,410,411,409,410,411,409,410,411,409,410,411,409,410,411,409,410,411,409,410,411,409,385,386,387,385,386,387,385,386,387,385,386,387,385,386,387,385,386,387,385,386,387,385,386,387,385,386,387,385,386,387,385,386,387,385,386,387,385,386,387,385,393,394,395,393,394,395,393,394,395,393,394,395,393,394,395,393,394,395,393,394,395,393,394,395,393,394,395,393,394,395,393,394,395,393,394,395,393,394,395,393,401,402,403,401,402,403,401,402,403,401,402,403,401,402,403,401,402,403,401,402,403,401,402,403,401,402,403,401,402,403,401,402,403,401,402,403,401,402,403,401,409,410,411,409,410,411,409,410,411,409,410,411,409,410,411,409,410,411,409,410,411,409,410,411,409,410,411,409,410,411,409,410,411,409,410,411,409,410,411,409,385,386,387,385,386,387,385,386,387,385,386,387,385,386,387,385,386,387,385,386,387,385,386,387,385,386,387,385,386,387,385,386,387,385,386,387,385,386,387,385,393,394,395,393,394,395,393,394,395,393,394,395,393,394,395,393,394,395,393,394,395,393,394,395,393,394,395,393,394,395,393,394,395,393,394,395,393,394,395,393,401,402,403,401,402,403,401,402,403,401,402,403,401,402,403,401,402,403,401,402,403,401,402,403,401,402,403,401,402,403,401,402,403,401,402,403,401,402,403,401,409,410,411,409,410,411,409,410,411,409,410,411,409,410,411,409,410,411,409,410,411,409,410,411,409,410,411,409,410,411,409,410,411,409,410,411,409,410,411,409
 </data>
 </layer>
 <layer id="2" name="Tile Layer 2" width="40" height="40">
 <data encoding="csv">
0,0,0,0,0,0,0,0,0,0,0,0,0,0,0,0,0,0,0,0,0,0,0,0,0,0,0,0,0,0,0,0,0,0,0,0,0,0,0,0,0,0,0,0,0,0,0,0,0,0,0,0,0,0,0,0,462,463,0,0,0,0,0,0,0,0,0,0,0,0,0,0,0,0,0,0,0,0,0,0,0,0,0,0,0,0,0,0,0,0,0,0,0,0,0,0,0,0,0,0,0,0,0,0,0,0,0,0,0,0,0,0,0,0,0,0,0,0,0,0,0,0,0,0,0,0,0,0,0,0,0,0,0,0,0,0,0,0,0,0,0,0,0,0,0,0,0,0,0,0,0,0,0,0,0,0,0,0,0,0,0,0,0,0,0,0,0,0,0,0,0,0,0,0,0,0,0,0,0,0,0,0,0,0,0,0,0,0,0,0,0,0,0,0,0,0,0,0,0,0,0,0,0,0,0,0,0,0,0,0,0,0,0,0,0,0,0,0,0,0,0,0,0,0,0,0,0,0,0,0,0,0,0,0,0,0,0,0,0,0,0,0,0,0,0,0,0,0,0,0,0,0,0,0,0,0,0,0,0,0,0,0,0,0,0,0,0,0,0,0,0,0,0,0,0,0,0,0,0,0,0,0,0,0,0,0,0,0,0,0,0,0,0,0,0,0,0,0,0,0,0,0,0,0,0,0,0,0,0,0,0,0,0,0,0,0,0,0,0,0,0,0,0,0,0,0,0,0,0,0,0,0,0,0,0,0,0,0,0,0,0,0,0,0,0,0,0,0,0,0,0,0,0,0,0,0,0,0,0,0,0,0,0,0,0,0,0,0,0,0,0,0,0,0,0,0,0,0,0,0,0,0,0,0,0,0,0,0,0,0,0,0,0,0,0,0,0,0,0,0,0,0,0,0,0,0,0,0,0,0,0,0,0,0,0,0,0,0,0,0,0,0,0,0,0,0,0,0,0,0,0,0,0,0,0,0,0,0,0,0,0,0,0,0,0,0,0,0,0,0,0,0,0,0,0,0,0,0,0,0,0,0,0,0,0,0,0,0,0,0,0,0,0,0,0,0,0,0,0,0,0,0,0,0,0,0,0,0,0,0,0,0,0,0,0,0,0,0,0,0,0,0,0,0,0,0,0,0,0,0,0,0,0,0,0,0,0,0,0,0,0,0,0,0,0,0,0,0,0,0,0,0,0,0,0,0,0,0,0,0,0,0,0,0,0,0,0,0,0,0,0,0,0,0,0,0,0,0,0,0,0,0,0,0,0,0,0,0,0,0,0,0,0,0,0,0,0,0,0,0,0,0,0,0,0,0,0,0,0,0,0,0,0,0,0,0,0,0,0,0,0,0,0,0,0,0,0,0,0,0,0,0,0,0,0,0,0,0,0,0,0,0,0,0,0,0,0,0,0,0,0,0,0,0,0,0,0,0,0,0,0,0,0,0,0,0,0,0,0,0,0,0,0,0,0,0,0,0,0,0,0,0,0,0,0,0,0,0,0,0,0,0,0,0,0,0,0,0,0,0,0,0,0,0,0,0,0,0,0,0,0,0,0,0,0,0,0,0,0,0,0,0,0,0,0,0,0,0,0,0,0,0,0,0,0,0,0,0,0,0,0,0,0,0,0,0,0,0,0,0,0,0,0,0,0,0,0,0,0,0,0,0,0,0,0,0,0,0,0,0,0,0,0,0,0,0,0,0,0,0,0,0,0,0,0,0,0,0,0,0,0,0,0,0,0,0,0,0,0,0,0,0,0,0,0,0,0,0,0,0,0,0,0,0,0,0,0,0,0,0,0,0,0,0,0,0,0,0,0,0,0,0,0,0,0,0,0,0,0,0,0,0,0,0,0,0,0,0,0,0,0,0,0,0,0,0,0,0,0,0,0,0,0,0,0,0,0,0,0,0,0,0,0,0,0,0,0,0,0,0,0,0,0,0,0,0,0,0,0,0,0,0,0,0,0,0,0,0,0,0,0,0,0,0,0,0,0,0,0,0,0,0,0,0,0,0,0,0,0,0,0,0,0,0,0,0,0,0,0,0,0,0,0,0,0,0,0,0,0,0,0,0,0,0,0,0,0,0,0,0,0,0,0,0,0,0,0,0,0,0,0,0,0,0,0,0,0,0,0,0,0,0,0,0,0,0,0,0,0,0,0,0,0,0,0,0,0,0,0,0,0,0,0,0,0,0,0,0,0,0,0,0,0,0,0,0,0,0,0,0,0,0,0,0,0,0,0,0,0,0,0,0,0,0,0,0,0,0,0,0,0,0,0,0,0,0,0,0,0,0,0,0,0,0,0,0,0,0,0,0,0,0,0,0,0,0,0,0,0,0,0,0,0,0,0,0,0,0,0,0,0,0,0,0,0,0,0,0,0,0,0,0,0,0,0,0,0,0,0,0,0,0,0,0,0,0,0,0,0,0,0,0,0,0,0,0,0,0,0,0,0,0,0,0,0,0,0,0,0,0,0,0,0,0,0,0,0,0,0,0,0,0,0,0,0,0,0,0,0,0,0,0,0,0,0,0,0,0,0,0,0,0,0,0,0,0,0,0,0,0,0,0,0,0,0,0,0,0,0,0,0,0,0,0,0,0,0,0,0,0,0,0,0,0,0,0,0,0,0,0,0,0,0,0,0,0,0,0,0,0,0,0,0,0,0,0,0,0,0,0,0,0,0,0,0,0,0,0,0,0,0,0,0,0,0,0,0,0,0,0,0,0,0,0,0,0,0,0,0,0,0,0,0,0,0,0,0,0,0,0,0,0,0,0,0,0,0,0,0,0,0,0,0,0,0,0,0,0,0,0,0,0,0,0,0,0,0,0,0,0,0,0,0,0,0,0,0,0,0,0,0,0,0,0,0,0,0,0,0,0,0,0,0,0,0,0,0,0,0,0,0,0,0,0,0,0,0,0,0,0,0,0,0,0,0,0,0,0,0,0,0,0,0,0,0,0,0,0,0,0,0,0,0,0,0,0,0,0,0,0,0,0,0,0,0,0,0,0,0,0,0,0,0,0,0,0,0,0,0,0,0,0,0,0,0,0,0,0,0,0,0,0,0,0,0,0,0,0,0,0,0,0,0,0,0,0,0,0,0,0,0,0,0,0,0,0,0,0,0,0,0,0,0,0,0,0,0,0,0,0,0,0,0,0,0,0,0,0,0,0,0,0,0,0,0,0,0,0,0,0,0,0,0,0,0,0,0,0,0,0,0,0,0,0,0,0,0,0,0,0,0,0,0,0,0,0,0,0,0,0,0,0,0,0,0,0,0,0,0,0,0,0,0,0,0,0,0,0,0,0,0,0,0,0,0,0,0,0,0,0,0,0,0,0,0,0,0,0,0,0,0,0,0,0,0,0,0,0,0,0,0,0,0,0,0,0,0,0,0,0,0,0,0,0,0,0,0,0,0,0,0,0,0,0,0,0,0,0,0,0,0,0,0,0,0,0,0,0,0,0,0,0,0,0,0,0,0,0,0,0,0,0,0,0,0,0,0,0,0,0,0,0,0,0,0,0,0,0,0,0,0,0,0,0,0,0,0,0,0,0,0,0,0,0,0,0,0,0,0,0,0,0,0,0,0,0,0,0,0,0
 </data>
 </layer>
 <layer id="3" name="Tile Layer 3" width="40" height="40">
 <data encoding="csv">
0,0,0,0,0,0,0,0,0,0,0,0,0,0,0,0,0,0,0,0,0,0,0,0,0,0,0,0,0,0,0,0,0,0,0,0,0,0,0,0,0,0,0,0,0,0,0,0,0,0,0,0,0,0,0,0,0,0,0,0,0,0,0,0,0,0,0,0,0,0,0,0,0,0,0,0,0,0,0,0,0,0,0,0,0,0,0,0,0,0,0,0,0,0,0,0,0,0,0,0,0,0,0,0,0,0,0,0,0,0,0,0,0,0,0,0,0,0,0,0,0,0,0,0,0,0,0,0,0,0,0,0,0,0,0,0,0,0,0,0,0,0,0,0,0,0,0,0,0,0,0,0,0,0,0,0,0,0,0,0,0,0,0,0,0,0,0,0,0,0,0,0,0,0,0,0,0,0,0,0,0,0,0,0,0,0,0,0,0,0,0,0,0,0,0,0,0,0,0,0,0,0,0,0,0,0,0,0,0,0,0,0,0,0,0,0,0,0,0,0,0,0,0,0,0,0,0,0,0,0,0,0,0,0,0,0,0,0,0,0,0,0,0,0,0,0,0,0,0,0,0,0,0,0,0,0,0,0,0,0,0,0,0,0,0,0,0,0,0,0,0,0,0,0,0,0,0,0,0,0,0,0,0,0,0,0,0,0,0,0,0,0,0,0,0,0,0,0,0,0,0,0,0,0,0,0,0,0,0,0,0,0,0,0,0,0,0,0,0,0,0,0,0,0,0,0,0,0,0,0,0,0,0,0,0,0,0,0,0,0,0,0,0,0,0,0,0,0,0,0,0,0,0,0,0,0,0,0,0,0,0,0,0,0,0,0,0,0,0,0,0,0,0,0,0,0,0,0,0,0,0,0,0,0,0,0,0,0,0,0,0,0,0,0,0,0,0,0,0,0,0,0,0,0,0,0,0,0,0,0,0,0,0,0,0,0,0,0,0,0,0,0,0,0,0,0,0,0,0,0,0,0,0,0,0,0,0,0,0,0,0,0,0,0,0,0,0,0,0,0,0,0,0,0,0,0,0,0,0,0,0,0,0,0,0,0,0,0,0,0,0,0,0,0,0,0,0,0,0,0,0,0,0,0,0,0,0,0,0,0,0,0,0,0,0,0,0,0,0,0,0,0,0,0,0,0,0,0,0,0,0,0,0,0,0,0,0,0,0,0,0,0,0,0,0,0,0,0,0,0,0,0,0,0,0,0,0,0,0,0,0,0,0,0,0,0,0,0,0,0,0,0,0,0,0,0,0,0,0,0,0,0,0,0,0,0,0,0,0,0,0,0,0,0,0,0,0,0,0,0,0,0,0,0,0,0,0,0,0,0,0,0,0,0,0,0,0,0,0,0,0,0,0,0,0,0,0,0,0,0,0,0,0,0,0,0,0,0,0,0,0,0,0,0,0,0,0,0,0,0,0,0,0,0,0,0,0,0,0,0,0,0,0,0,0,0,0,0,0,0,0,0,0,0,0,0,0,0,0,0,0,0,0,0,0,0,0,0,0,0,0,0,0,0,0,0,0,0,0,0,0,0,0,0,0,0,0,0,0,0,0,0,0,0,0,0,0,0,0,0,0,0,0,0,0,0,0,0,0,0,0,0,0,0,0,0,0,0,0,0,0,0,0,0,0,0,0,0,0,0,0,0,0,0,0,0,0,0,0,0,0,0,0,0,0,0,0,0,0,0,0,0,0,0,0,0,0,0,0,0,0,0,0,0,0,0,0,0,0,0,0,0,0,0,0,0,0,0,0,0,0,0,0,0,0,0,0,0,0,0,0,0,0,0,0,0,0,0,0,0,0,0,0,0,0,0,0,0,0,0,0,0,0,0,0,0,0,0,0,0,0,0,0,0,0,0,0,0,0,0,0,0,0,0,0,0,0,0,0,0,0,0,0,0,0,0,0,0,0,0,0,0,0,0,0,0,0,0,0,0,0,0,0,0,0,0,0,0,0,0,0,0,0,0,0,0,0,0,0,0,0,0,0,0,0,0,0,0,0,0,0,0,0,0,0,0,0,0,0,0,0,0,0,0,0,0,0,0,0,0,0,0,0,0,0,0,0,0,0,0,0,0,0,0,0,0,0,0,0,0,0,0,0,0,0,0,0,0,0,0,0,0,0,0,0,0,0,0,0,0,0,0,0,0,0,0,0,0,0,0,0,0,0,0,0,0,0,0,0,0,0,0,0,0,0,0,0,0,0,0,0,0,0,0,0,0,0,0,0,0,0,0,0,0,0,0,0,0,0,0,0,0,0,0,0,0,0,0,0,0,0,0,0,0,0,0,0,0,0,0,0,0,0,0,0,0,0,0,0,0,0,0,0,0,0,0,0,0,0,0,0,0,0,0,0,0,0,0,0,0,0,0,0,0,0,0,0,0,0,0,0,0,0,0,0,0,0,0,0,0,0,0,0,0,0,0,0,0,0,0,0,0,0,0,0,0,0,0,0,0,0,0,0,0,0,0,0,0,0,0,0,0,0,0,0,0,0,0,0,0,0,0,0,0,0,0,0,0,0,0,0,0,0,0,0,0,0,0,0,0,0,0,0,0,0,0,0,0,0,0,0,0,0,0,0,0,0,0,0,0,0,0,0,0,0,0,0,0,0,0,0,0,0,0,0,0,0,0,0,0,0,0,0,0,0,0,0,0,0,0,0,0,0,0,0,0,0,0,0,0,0,0,0,0,0,0,0,0,0,0,0,0,0,0,0,0,0,0,0,0,0,0,0,0,0,0,0,0,0,0,0,0,0,0,0,0,0,0,0,0,0,0,0,0,0,0,0,0,0,0,0,0,0,0,0,0,0,0,0,0,0,0,0,0,0,0,0,0,0,0,0,0,0,0,0,0,0,0,0,0,0,0,0,0,0,0,0,0,0,0,0,0,0,0,0,0,0,0,0,0,0,0,0,0,0,0,0,0,0,0,0,0,0,0,0,0,0,0,0,0,0,0,0,0,0,0,0,0,0,0,0,0,0,0,0,0,0,0,0,0,0,0,0,0,0,0,0,0,0,0,0,0,0,0,0,0,0,0,0,0,0,0,0,0,0,0,0,0,0,0,0,0,0,0,0,0,0,0,0,0,0,0,0,0,0,0,0,0,0,0,0,0,0,0,0,0,0,0,0,0,0,0,0,0,0,0,0,0,0,0,0,0,0,0,0,0,0,0,0,0,0,0,0,0,0,0,0,0,0,0,0,0,0,0,0,0,0,0,0,0,0,0,0,0,0,0,0,0,0,0,0,0,0,0,0,0,0,0,0,0,0,0,0,0,0,0,0,0,0,0,0,0,0,0,0,0,0,0,0,0,0,0,0,0,0,0,0,0,0,0,0,0,0,0,0,0,0,0,0,0,0,0,0,0,0,0,0,0,0,0,0,0,0,0,0,0,0,0,0,0,0,0,0,0,0,0,0,0,0,0,0,0,0,0,0,0,0,0,0,0,0,0,0,0,0,0,0,0,0,0,0,0,0,0,0,0,0,0,0,0,0,0,0,0,0,0,0,0,0,0,0,0,0,0,0,0,0,0,0,0,0,0,0,0,0,0,0,0,0,0,0,0,0,0,0,0,0,0,0,0,0,0,0,0,0,0,0,0,0,0
 </data>
 </layer>
</map>
