<?xml version = "1.0" encoding = "UTF-8"?>
<map version="1.2" tiledversion="1.2.4" orientation="orthogonal" renderorder="right-down" width="20" height="15" tilewidth="16" tileheight="16" infinite="0" nextlayerid="5" nextobjectid="1">
 <properties>
  <property name="tileset_id" type="int" value="9"/>
 </properties>
 <tileset firstgid="1" source="../autotiles/blank.tsx"/>
 <tileset firstgid="48" source="../autotiles/red_start_carpet.tsx"/>
 <tileset firstgid="96" source="../autotiles/red_start_counter.tsx"/>
 <tileset firstgid="144" source="../autotiles/start_interior.tsx"/>
 <tileset firstgid="192" source="../autotiles/blank4.tsx"/>
 <tileset firstgid="240" source="../autotiles/blank5.tsx"/>
 <tileset firstgid="288" source="../autotiles/blank6.tsx"/>
 <tileset firstgid="336" source="../autotiles/blank7.tsx"/>
 <tileset firstgid="384" source="../tilesets/red_start.tsx"/>
 <layer id="1" name="Tile Layer 1" width="20" height="15">
 <data encoding="csv">
385,386,387,385,386,387,385,386,387,385,386,387,385,386,387,385,386,387,385,386,393,394,395,393,394,395,393,394,395,393,394,395,393,394,395,393,394,395,393,394,401,402,403,401,402,403,401,402,403,401,402,403,401,402,403,401,402,403,401,402,409,410,411,409,410,411,409,410,411,409,410,411,409,410,411,409,410,411,409,410,385,386,387,385,386,387,385,386,387,385,386,387,385,386,387,385,386,387,385,386,393,394,395,393,394,395,393,394,395,393,394,395,393,394,395,393,394,395,393,394,401,402,403,401,402,403,401,402,403,401,402,403,401,402,403,401,402,403,401,402,409,410,411,409,410,411,409,410,411,409,410,411,409,410,411,409,410,411,409,410,385,386,387,385,386,387,385,386,387,385,386,387,385,386,387,385,386,387,385,386,393,394,395,393,394,395,393,394,395,393,394,395,393,394,395,393,394,395,393,394,401,402,403,401,402,403,401,402,403,401,402,403,401,402,403,401,402,403,401,402,409,410,411,409,410,411,409,410,411,409,410,411,409,410,411,409,410,411,409,410,385,386,387,385,386,387,385,386,387,385,386,387,385,386,387,385,386,387,385,386,393,394,395,393,394,395,393,394,395,393,394,395,393,394,395,393,394,395,393,394,401,402,403,401,402,403,401,402,403,401,402,403,401,402,403,401,402,403,401,402
 </data>
 </layer>
 <layer id="2" name="Tile Layer 2" width="20" height="15">
 <data encoding="csv">
0,0,0,0,0,0,0,0,0,0,0,0,0,0,0,0,0,0,0,0,0,0,0,0,0,0,0,0,0,0,0,0,0,0,0,0,0,0,0,0,0,0,0,0,0,0,0,0,0,0,0,0,0,0,0,0,0,0,0,0,0,0,0,0,0,0,0,0,0,0,0,0,0,0,0,0,0,0,0,0,0,0,0,0,0,0,0,0,0,0,0,0,0,0,0,0,0,0,0,0,0,0,0,0,0,0,0,0,0,0,0,0,0,0,0,0,0,0,0,0,0,0,0,0,0,0,0,0,0,0,0,0,0,0,0,0,0,0,0,0,0,0,0,0,0,0,0,0,0,0,0,0,0,0,0,0,0,0,0,0,0,0,0,0,0,0,0,0,0,0,0,0,0,0,0,0,0,0,0,0,0,0,0,0,0,0,0,0,0,0,0,0,0,0,0,0,0,0,0,0,0,0,0,0,0,0,0,0,0,0,0,0,0,0,0,0,0,0,0,0,0,0,0,0,0,0,0,0,0,0,0,0,0,0,0,0,0,0,0,0,0,0,0,0,0,0,0,0,0,0,0,0,0,0,0,0,0,0,0,0,0,0,0,0,0,0,0,0,0,0,0,0,0,0,0,0,0,0,0,0,0,0,0,0,0,0,0,0,0,0,0,0,0,0,0,0,0,0,0,0
 </data>
 </layer>
 <layer id="3" name="Tile Layer 3" width="20" height="15">
 <data encoding="csv">
0,0,0,0,0,0,0,0,0,0,0,0,0,0,0,0,0,0,0,0,0,0,0,0,0,0,0,0,0,0,0,0,0,0,0,0,0,0,0,0,0,0,0,0,0,0,0,0,0,0,0,0,0,0,0,0,0,0,0,0,0,0,0,0,0,0,0,0,0,0,0,0,0,0,0,0,0,0,0,0,0,0,0,0,0,0,0,0,0,0,0,0,0,0,0,0,0,0,0,0,0,0,0,0,0,0,0,0,0,0,0,0,0,0,0,0,0,0,0,0,0,0,0,0,0,0,0,0,0,0,0,0,0,0,0,0,0,0,0,0,0,0,0,0,0,0,0,0,0,0,0,0,0,0,0,0,0,0,0,0,0,0,0,0,0,0,0,0,0,0,0,0,0,0,0,0,0,0,0,0,0,0,0,0,0,0,0,0,0,0,0,0,0,0,0,0,0,0,0,0,0,0,0,0,0,0,0,0,0,0,0,0,0,0,0,0,0,0,0,0,0,0,0,0,0,0,0,0,0,0,0,0,0,0,0,0,0,0,0,0,0,0,0,0,0,0,0,0,0,0,0,0,0,0,0,0,0,0,0,0,0,0,0,0,0,0,0,0,0,0,0,0,0,0,0,0,0,0,0,0,0,0,0,0,0,0,0,0,0,0,0,0,0,0,0,0,0,0,0,0
 </data>
 </layer>
</map>
