<?xml version = "1.0" encoding = "UTF-8"?>
<map version="1.2" tiledversion="1.2.4" orientation="orthogonal" renderorder="right-down" width="21" height="50" tilewidth="16" tileheight="16" infinite="0" nextlayerid="5" nextobjectid="1">
 <properties>
  <property name="tileset_id" type="int" value="25"/>
 </properties>
 <tileset firstgid="1" source="../autotiles/blank.tsx"/>
 <tileset firstgid="48" source="../autotiles/black.tsx"/>
 <tileset firstgid="96" source="../autotiles/x2.tsx"/>
 <tileset firstgid="144" source="../autotiles/blank3.tsx"/>
 <tileset firstgid="192" source="../autotiles/blank4.tsx"/>
 <tileset firstgid="240" source="../autotiles/purple_carpet.tsx"/>
 <tileset firstgid="288" source="../autotiles/purple_wall.tsx"/>
 <tileset firstgid="336" source="../autotiles/blank7.tsx"/>
 <tileset firstgid="384" source="../tilesets/finale.tsx"/>
 <layer id="1" name="Tile Layer 1" width="21" height="50">
 <data encoding="csv">
653,653,653,653,653,653,653,653,653,653,653,653,653,653,653,653,653,653,653,653,653,653,653,653,653,653,653,653,653,653,653,653,653,653,653,653,653,653,653,653,653,653,653,653,653,653,653,653,653,653,653,653,653,653,653,653,653,653,653,653,653,653,653,653,653,653,653,653,653,653,653,653,653,653,653,653,653,653,653,653,653,653,653,653,653,653,653,653,653,653,653,653,653,653,653,653,653,653,653,653,653,653,653,653,653,653,653,653,653,653,653,653,653,653,653,653,653,653,653,653,653,653,653,653,653,653,653,653,653,653,653,653,653,653,653,653,653,653,653,653,653,653,653,653,653,653,653,653,653,653,653,653,653,653,653,653,653,653,653,653,653,653,653,653,653,653,653,653,653,653,653,653,653,653,653,653,653,653,653,653,653,653,653,653,653,653,653,653,653,653,653,653,653,653,653,653,653,653,653,461,653,653,653,653,653,653,653,653,653,653,653,653,653,653,653,653,653,653,653,653,461,653,653,653,653,653,653,653,653,653,653,653,653,653,653,653,653,653,653,653,653,461,653,653,653,653,653,653,653,653,653,653,653,653,653,653,653,653,653,653,653,653,461,653,653,501,502,502,502,502,503,653,653,502,502,502,502,502,502,502,502,502,503,461,653,653,461,653,653,653,653,469,653,653,653,653,653,653,653,653,653,653,653,469,461,653,653,461,653,653,653,653,469,653,653,470,470,470,470,470,470,653,409,409,409,409,409,409,409,653,653,653,653,469,653,653,653,653,653,653,653,653,653,409,409,409,409,409,409,409,653,653,653,653,469,653,653,653,653,653,653,653,653,653,409,409,409,409,409,409,409,653,653,653,653,469,653,653,653,653,653,653,653,653,653,409,409,409,409,409,409,409,653,653,653,653,469,653,653,653,653,653,653,653,653,282,409,409,409,409,409,409,409,282,653,653,653,653,653,653,653,653,653,653,653,653,257,260,260,260,260,260,260,260,266,653,653,653,653,653,653,478,478,478,478,478,478,256,240,240,240,240,240,240,240,264,653,653,653,653,653,653,653,653,653,653,653,653,280,268,268,248,240,244,268,268,278,653,653,653,653,653,653,653,653,653,653,653,653,653,653,653,256,240,264,653,653,653,653,653,653,653,653,653,653,653,653,653,653,653,653,653,653,256,240,264,653,653,653,653,653,653,653,653,653,653,653,653,653,653,653,653,653,653,256,240,264,653,653,653,653,653,653,653,653,653,653,653,653,653,653,653,653,653,653,256,240,264,653,653,653,653,653,653,653,653,653,653,653,653,653,653,653,653,653,653,256,240,264,653,653,653,653,653,653,653,653,653,653,653,653,653,653,653,653,653,653,256,240,264,653,653,653,653,653,653,653,653,653,653,653,653,653,653,653,653,653,653,256,240,264,653,653,653,653,653,653,653,653,653,653,653,653,653,653,653,653,653,653,256,240,264,653,653,653,653,653,653,653,653,653,653,653,653,653,653,653,653,653,653,256,240,264,653,653,653,653,653,653,653,653,653,653,653,653,653,653,653,653,653,653,256,240,264,653,653,653,653,653,653,653,653,653,653,653,653,653,653,653,653,653,653,256,240,264,653,653,653,653,653,653,653,653,653,653,653,653,653,653,653,653,653,653,256,240,264,653,653,653,653,653,653,653,653,653,653,653,653,653,653,653,653,653,653,256,240,264,653,653,653,653,653,653,653,653,653,653,653,653,653,653,653,653,653,653,256,240,264,653,653,653,653,653,653,653,653,653,653,653,653,653,653,653,653,653,653,256,240,264,653,653,653,653,653,653,653,653,653,653,653,653,653,653,653,653,653,653,256,240,264,653,653,653,653,653,653,653,653,653,653,653,653,653,653,653,653,653,653,256,240,264,653,653,653,653,653,653,653,653,653,653,653,653,653,653,653,653,653,653,256,240,264,653,653,653,653,653,653,653,653,653,653,653,653,653,653,653,653,653,653,256,240,264,653,653,653,653,653,653,653,653,653,653,653,653,653,653,653,653,653,653,256,240,264,653,653,653,653,653,653,653,653,653,653,653,653,653,653,653,653,653,653,256,240,264,653,653,653,653,653,653,653,653,653,653,653,653,653,653,653,653,653,653,256,240,264,653,653,653,653,653,653,653,653,653,653,653,653,653,653,653,653,653,653,256,240,264,653,653,653,653,653,653,653,653,653,653,653,653,653,653,653,653,653,653,256,240,264,653,653,653,653,653,653,653,653,653,653,653,653,653,653,653,653,653,653,256,240,264,653,653,653,653,653,653,653,653,653,653,653,653,653,653,653,653,653,653,256,240,264,653,653,653,653,653,653,653,653,653,653,653,653,653,653,653,653,653,653,256,240,264,653,653,653,653,653,653,653,653,653
 </data>
 </layer>
 <layer id="2" name="Tile Layer 2" width="21" height="50">
 <data encoding="csv">
0,0,0,0,0,0,0,0,0,0,0,0,0,0,0,0,0,0,0,0,0,0,0,0,0,0,0,0,0,0,0,0,0,0,0,0,0,0,0,0,0,0,0,0,0,0,0,0,0,0,0,0,0,0,0,0,0,0,0,0,0,0,0,0,0,0,0,0,0,0,0,0,0,0,0,0,0,0,0,0,0,0,0,0,0,0,0,0,0,0,0,0,0,0,0,0,0,0,0,0,0,0,0,0,0,0,0,0,0,0,0,0,0,0,0,0,0,0,0,0,0,0,0,0,0,0,0,0,0,0,0,0,0,0,0,0,0,0,0,0,0,0,0,0,0,0,0,0,0,0,0,0,0,0,0,0,0,0,0,0,0,0,0,413,0,0,0,0,0,0,0,0,0,0,0,0,0,0,0,0,0,0,0,0,413,0,0,0,0,0,0,413,0,0,0,413,0,0,0,0,421,0,0,0,0,413,0,0,0,0,0,0,413,0,0,0,413,0,421,0,0,421,0,0,0,0,413,0,0,0,0,0,0,413,0,0,0,413,0,421,0,0,421,0,0,0,0,413,0,0,0,0,0,0,413,0,0,0,413,0,421,0,0,421,0,0,0,0,413,0,0,0,0,0,0,413,0,0,0,413,0,421,0,0,421,0,0,0,0,413,0,0,0,0,0,0,413,0,0,0,413,384,421,386,386,421,387,388,0,0,413,0,0,0,0,0,0,413,0,0,0,408,411,411,411,411,411,411,411,408,438,439,0,0,0,0,0,0,413,0,0,0,408,82,68,68,68,68,68,84,408,438,438,438,438,438,438,398,398,398,398,398,398,408,64,48,48,48,48,48,72,408,0,0,0,0,0,0,0,0,0,0,0,0,408,64,48,48,48,48,48,72,408,0,0,0,0,0,0,0,0,0,0,445,446,408,88,76,76,76,76,76,86,404,446,446,446,447,0,0,0,0,0,0,405,0,480,482,483,481,481,482,482,483,484,0,0,0,413,0,0,0,0,0,0,405,0,0,0,0,0,0,0,0,0,0,0,0,0,413,0,0,0,0,0,0,405,0,0,0,0,0,0,0,0,0,0,0,0,0,413,0,0,0,0,0,0,405,0,488,489,489,0,0,0,489,489,490,0,0,0,413,0,0,0,0,0,0,405,0,496,489,489,0,0,0,489,489,498,0,0,0,413,0,0,0,0,0,0,405,0,504,489,489,0,0,0,489,489,506,0,0,0,413,0,0,0,0,0,0,405,0,512,489,497,0,0,0,497,497,514,0,0,0,0,0,0,0,0,0,0,0,0,520,521,521,0,0,0,521,521,522,0,0,0,0,0,0,0,0,0,0,0,0,528,529,529,0,0,0,529,529,530,0,0,0,0,0,0,0,0,0,0,0,0,0,0,0,0,0,0,0,0,0,0,0,0,0,0,0,0,0,0,0,0,0,0,0,0,0,0,0,0,0,0,0,0,0,0,0,0,0,0,0,0,0,0,0,0,0,0,0,0,0,0,0,0,0,0,0,0,0,0,0,0,0,0,0,0,0,0,0,0,0,0,0,0,0,0,0,0,0,0,0,0,0,0,0,0,0,0,0,0,0,0,0,0,0,0,0,0,0,0,0,0,0,0,0,0,0,0,0,0,0,0,0,0,0,0,0,0,0,0,0,0,0,0,0,0,0,0,0,0,0,0,0,0,0,0,0,0,0,0,0,0,0,0,0,0,0,0,0,0,0,0,0,0,0,0,0,0,0,0,0,0,0,0,0,0,0,0,0,0,0,0,0,0,0,0,0,0,0,0,0,0,0,0,0,0,0,0,0,0,0,0,0,0,0,0,0,0,0,0,0,0,0,0,0,0,0,0,0,0,0,0,0,0,0,0,0,0,0,0,0,0,0,0,0,0,0,0,0,0,0,0,0,0,0,0,0,0,0,0,0,0,0,0,0,0,0,0,0,0,0,0,0,0,0,0,0,0,0,0,0,0,0,0,0,0,0,0,0,0,0,0,0,0,0,0,0,0,0,0,0,0,0,0,0,0,0,0,0,0,0,0,0,0,0,0,0,0,0,0,0,0,0,0,0,0,0,0,0,0,0,0,0,0,0,0,0,0,0,0,0,0,0,0,0,0,0,0,0,0,0,0,0,0,0,0,0,0,0,0,0,0,0,0,0,0,0,0,0,0,0,0,0,0,0,0,0,0,0,0,0,0,0,0,0,0,0,0,0,0,0,0,0,0,0,0,0,0,0,0,0,0,0,0,0,0,0,0,0,0,0,0,0,0,0,0,0,0,0,0,0,0,0,0,0,0,0,0,0,0,0,0,0,0,0,0,0,0,0,0,0,0,0,0,0,0,0,0,0,0,0,0,0,0,0,0,0
 </data>
 </layer>
 <layer id="3" name="Tile Layer 3" width="21" height="50">
 <data encoding="csv">
0,0,0,0,0,0,0,0,0,0,0,0,0,0,0,0,0,0,0,0,0,0,0,0,0,0,0,0,0,0,0,0,0,0,0,0,0,0,0,0,0,0,0,0,0,0,0,0,0,0,0,0,0,0,0,0,0,0,0,0,0,0,0,0,0,0,0,0,0,0,0,0,0,0,0,0,0,0,0,0,0,0,0,0,0,0,0,0,0,0,0,0,0,0,0,0,0,0,0,0,0,0,0,0,0,0,0,0,0,0,0,0,0,0,0,0,0,0,0,0,0,0,0,0,0,0,0,0,0,0,0,0,0,0,0,0,0,0,0,0,0,0,0,0,0,0,0,0,0,0,0,0,0,0,0,0,0,0,0,0,0,0,0,0,0,0,0,0,0,0,0,0,0,0,489,0,0,489,0,0,0,0,0,0,0,0,0,0,0,0,0,0,0,0,0,497,0,0,0,0,0,0,0,0,0,489,489,0,0,0,0,0,489,0,0,0,505,0,0,0,0,0,0,0,0,0,497,497,0,0,0,0,0,497,0,0,0,513,0,0,0,0,0,0,0,0,0,505,505,0,0,0,0,0,505,0,0,0,521,0,0,0,0,0,0,0,0,0,513,513,0,0,0,0,0,513,0,0,0,529,0,0,0,0,0,0,0,0,0,521,521,0,0,0,0,0,521,0,0,0,384,385,386,387,387,386,386,386,388,0,529,529,0,0,0,0,0,529,0,0,0,392,393,394,395,395,395,394,395,396,0,0,0,0,0,0,438,438,438,438,438,438,400,401,0,0,0,0,403,403,404,0,0,0,0,0,0,0,0,0,0,0,0,400,401,401,402,402,402,403,403,404,0,0,0,0,0,0,0,0,0,0,0,0,400,401,409,410,410,410,411,403,404,0,0,0,0,0,0,0,0,0,0,0,0,400,411,411,411,411,411,411,411,404,0,0,0,0,0,0,0,0,0,0,0,0,480,481,482,481,481,481,482,483,484,0,0,0,0,0,0,0,0,0,0,0,0,0,0,0,0,0,0,0,0,0,0,0,0,0,0,0,0,0,0,0,529,0,465,466,467,0,0,0,465,466,467,446,446,446,446,446,446,0,0,0,0,521,0,0,0,0,0,0,0,0,0,0,0,0,0,513,0,0,0,0,0,0,513,0,0,0,0,0,0,0,0,0,0,0,0,0,505,0,0,0,0,0,0,505,0,0,0,0,0,0,0,0,0,0,0,0,0,497,0,0,0,0,0,0,497,0,0,0,0,0,0,0,0,0,0,0,0,0,0,0,0,0,0,0,0,0,0,0,0,0,0,0,0,0,0,0,0,0,0,0,0,0,0,0,0,0,0,0,0,0,0,0,0,0,0,0,0,0,0,0,0,0,0,0,0,0,0,0,0,0,0,0,0,0,0,0,0,0,0,0,0,0,0,0,0,0,0,0,0,0,0,0,0,0,0,0,0,0,0,0,0,0,0,0,0,0,0,0,0,0,0,0,0,0,0,0,0,0,0,0,0,0,0,0,0,0,0,0,0,0,0,0,0,0,0,0,0,0,0,0,0,0,0,0,0,0,0,0,0,0,0,0,0,0,0,0,0,0,0,0,0,0,0,0,0,0,0,0,0,0,0,0,0,0,0,0,0,0,0,0,0,0,0,0,0,0,0,0,0,0,0,0,0,0,0,0,0,0,0,0,0,0,0,0,0,0,0,0,0,0,0,0,0,0,0,0,0,0,0,0,0,0,0,0,0,0,0,0,0,0,0,0,0,0,0,0,0,0,0,0,0,0,0,0,0,0,0,0,0,0,0,0,0,0,0,0,0,0,0,0,0,0,0,0,0,0,0,0,0,0,0,0,0,0,0,0,0,0,0,0,0,0,0,0,0,0,0,0,0,0,0,0,0,0,0,0,0,0,0,0,0,0,0,0,0,0,0,0,0,0,0,0,0,0,0,0,0,0,0,0,0,0,0,0,0,0,0,0,0,0,0,0,0,0,0,0,0,0,0,0,0,0,0,0,0,0,0,0,0,0,0,0,0,0,0,0,0,0,0,0,0,0,0,0,0,0,0,0,0,0,0,0,0,0,0,0,0,0,0,0,0,0,0,0,0,0,0,0,0,0,0,0,0,0,0,0,0,0,0,0,0,0,0,0,0,0,0,0,0,0,0,0,0,0,0,0,0,0,0,0,0,0,0,0,0,0,0,0,0,0,0,0,0,0,0,0,0,0,0,0,0,0,0,0,0,0,0,0,0,0,0,0,0,0,0,0,0,0,0,0,0,0,0,0,0,0,0,0,0,0,0,0,0,0,0,0,0,0,0,0,0,0,0,0,0,0,0,0,0,0,0,0,0,0,0,0,0,0,0,0,0,0,0,0
 </data>
 </layer>
</map>
