<?xml version = "1.0" encoding = "UTF-8"?>
<map version="1.2" tiledversion="1.2.4" orientation="orthogonal" renderorder="right-down" width="22" height="15" tilewidth="16" tileheight="16" infinite="0" nextlayerid="5" nextobjectid="1">
 <properties>
  <property name="tileset_id" type="int" value="28"/>
 </properties>
 <tileset firstgid="1" source="../autotiles/blank.tsx"/>
 <tileset firstgid="48" source="../autotiles/blank1.tsx"/>
 <tileset firstgid="96" source="../autotiles/blank2.tsx"/>
 <tileset firstgid="144" source="../autotiles/blank3.tsx"/>
 <tileset firstgid="192" source="../autotiles/blank4.tsx"/>
 <tileset firstgid="240" source="../autotiles/blank5.tsx"/>
 <tileset firstgid="288" source="../autotiles/blank6.tsx"/>
 <tileset firstgid="336" source="../autotiles/blank7.tsx"/>
 <tileset firstgid="384" source="../tilesets/unreality2.tsx"/>
 <layer id="1" name="Tile Layer 1" width="22" height="15">
 <data encoding="csv">
384,385,386,387,388,389,390,391,504,505,506,507,508,509,510,511,624,625,626,627,628,629,392,393,394,395,396,397,398,399,512,513,514,515,516,517,518,519,632,633,634,635,636,637,400,401,402,403,404,405,406,407,520,521,522,523,524,525,526,527,640,641,642,643,644,645,408,409,410,411,412,413,414,415,528,529,530,531,532,533,534,535,648,649,650,651,652,653,416,417,418,419,420,421,422,423,536,537,538,539,540,541,542,543,656,657,658,659,660,661,424,425,426,427,428,429,430,431,544,545,546,547,548,549,550,551,664,665,666,667,668,669,432,433,434,435,436,437,438,439,552,553,554,555,556,557,558,559,672,673,674,675,676,677,440,441,442,443,444,445,446,447,560,561,562,563,564,565,566,567,680,681,682,683,684,685,448,449,450,451,452,453,454,455,568,569,570,571,572,573,574,575,688,689,690,691,692,693,456,457,458,459,460,461,462,463,576,577,578,579,580,581,582,583,696,697,698,699,700,701,464,465,466,467,468,469,470,471,584,585,586,587,588,589,590,591,704,705,706,707,708,709,472,473,474,475,476,477,478,479,592,593,594,595,596,597,598,599,712,713,714,715,716,717,480,481,482,483,484,485,486,487,600,601,602,603,604,605,606,607,720,721,722,723,724,725,488,489,490,491,492,493,494,495,608,609,610,611,612,613,614,615,728,729,730,731,732,733,496,497,498,499,500,501,502,503,616,617,618,619,620,621,622,623,736,737,738,739,740,741
 </data>
 </layer>
 <layer id="2" name="Tile Layer 2" width="22" height="15">
 <data encoding="csv">
0,0,0,0,0,0,0,0,0,0,0,0,0,0,0,0,0,0,0,0,0,0,0,0,0,0,0,0,0,0,0,0,0,0,0,0,0,0,840,841,842,843,844,845,744,745,746,747,748,749,750,751,808,809,810,811,812,813,814,815,848,849,850,851,852,853,752,753,754,755,756,757,758,759,816,817,818,819,820,821,822,823,856,857,858,859,860,861,760,761,762,763,764,765,766,767,824,825,826,827,828,829,830,831,864,865,866,867,868,869,768,769,770,771,772,773,774,775,832,833,834,835,836,837,838,839,872,873,874,875,876,877,776,777,778,779,780,781,782,783,0,0,0,0,0,0,0,0,880,881,882,883,884,885,784,785,786,787,788,789,790,791,0,0,0,0,0,0,0,0,888,889,890,891,892,893,792,793,794,795,796,797,798,799,0,0,0,0,0,0,0,0,896,897,898,899,900,901,800,801,802,803,804,805,806,807,0,0,0,0,0,0,0,0,904,905,906,907,908,909,0,0,0,0,0,0,0,0,0,0,0,0,0,0,0,0,0,0,0,0,0,0,0,0,0,0,0,0,0,0,0,0,0,0,0,0,0,0,0,0,0,0,0,0,0,0,0,0,0,0,0,0,0,0,0,0,0,0,0,0,0,0,0,0,0,0,0,0,0,0,0,0,0,0,0,0,0,0,0,0,0,0,0,0,0,0,0,0,0,0,0,0,0,0,0,0,0,0,0,0,0,0,0,0,0,0,0,0,0,0
 </data>
 </layer>
 <layer id="3" name="Tile Layer 3" width="22" height="15">
 <data encoding="csv">
0,0,0,0,0,0,0,0,0,0,0,0,0,0,0,0,0,0,0,0,0,0,0,0,0,0,0,0,0,0,0,0,0,0,0,0,0,0,0,0,0,0,0,0,0,0,0,0,0,0,0,0,0,0,0,0,0,0,0,0,0,0,0,0,0,0,0,0,0,0,0,0,0,0,0,0,0,0,0,0,0,0,0,0,0,0,0,0,0,0,0,0,0,0,0,0,0,0,0,0,0,0,0,0,0,0,0,0,0,0,0,0,0,0,0,0,0,0,0,0,0,0,0,0,0,0,0,0,0,0,0,0,0,0,0,0,0,0,0,0,0,0,0,0,0,0,0,0,0,0,0,0,0,0,0,0,0,0,0,0,0,0,0,0,0,0,0,0,0,0,0,0,0,0,0,0,0,0,0,0,0,0,0,0,0,0,0,0,0,0,0,0,0,0,0,0,0,0,0,0,0,0,0,0,0,0,0,0,0,0,0,0,0,0,0,0,0,0,0,0,0,0,0,0,0,0,0,0,0,0,0,0,0,0,0,0,0,0,0,0,0,0,0,0,0,0,0,0,0,0,0,0,0,0,0,0,0,0,0,0,0,0,0,0,0,0,0,0,0,0,0,0,0,0,0,0,0,0,0,0,0,0,0,0,0,0,0,0,0,0,0,0,0,0,0,0,0,0,0,0,0,0,0,0,0,0,0,0,0,0,0,0,0,0,0,0,0,0,0,0,0,0,0,0,0,0,0,0,0,0
 </data>
 </layer>
</map>
