<?xml version="1.0" encoding="UTF-8"?>
<map version="1.2" tiledversion="1.2.4" orientation="orthogonal" renderorder="right-down" width="104" height="100" tilewidth="16" tileheight="16" infinite="0" nextlayerid="5" nextobjectid="1">
 <properties>
  <property name="tileset_id" type="int" value="4"/>
 </properties>
 <tileset firstgid="1" source="../autotiles/blank.tsx"/>
 <tileset firstgid="49" source="../autotiles/green_water.tsx"/>
 <tileset firstgid="241" source="../autotiles/green_grass1.tsx"/>
 <tileset firstgid="289" source="../autotiles/green_grass2.tsx"/>
 <tileset firstgid="337" source="../autotiles/green_dirt.tsx"/>
 <tileset firstgid="385" source="../autotiles/ruins_water1.tsx"/>
 <tileset firstgid="577" source="../autotiles/blank6.tsx"/>
 <tileset firstgid="625" source="../autotiles/blank7.tsx"/>
 <tileset firstgid="673" source="../tilesets/green.tsx"/>
 <layer id="1" name="Tile Layer 1" width="104" height="100">
  <data encoding="csv">
680,680,680,680,680,680,680,680,680,680,680,680,680,680,680,680,680,680,680,680,680,680,680,680,680,680,680,680,680,680,680,680,680,680,680,680,680,680,680,680,680,680,680,680,680,680,680,680,680,680,680,680,680,680,680,680,680,680,680,680,680,680,680,680,680,680,680,680,680,680,680,680,680,680,680,680,680,680,680,680,680,680,680,680,680,680,680,680,680,680,680,680,680,680,680,680,680,680,680,680,680,680,680,680,
680,680,680,680,680,680,680,680,680,680,680,680,680,680,680,680,680,680,680,680,680,680,680,680,680,680,680,680,680,680,680,680,680,680,680,680,680,680,680,680,680,680,680,680,680,680,680,680,680,680,680,680,680,680,680,680,680,680,680,680,680,680,680,680,680,680,680,680,680,680,680,680,680,680,680,680,680,680,680,680,680,680,680,680,680,680,680,680,680,680,680,680,680,680,680,680,680,680,680,680,680,680,680,680,
680,680,680,680,680,680,680,680,680,680,680,680,680,680,680,680,680,680,680,680,680,680,680,680,680,680,680,680,680,680,680,680,680,680,680,680,680,680,680,680,680,680,680,680,680,680,680,680,680,680,680,680,680,680,680,680,680,680,680,680,680,680,680,680,680,680,680,680,680,680,680,680,680,680,680,680,680,680,680,680,680,680,680,680,680,680,680,680,680,680,680,680,680,680,680,680,680,680,680,680,680,680,680,680,
680,680,680,680,680,680,680,680,680,680,680,680,680,680,680,680,680,680,680,680,680,680,680,680,680,680,680,680,680,680,680,680,680,680,680,680,680,680,680,680,680,680,680,680,680,680,680,680,680,680,680,680,680,680,680,680,680,680,680,680,680,680,680,680,680,680,680,680,680,680,680,680,680,680,680,680,680,680,680,680,680,680,680,680,680,680,680,680,680,680,680,680,680,680,680,680,680,680,680,680,680,680,680,680,
680,680,680,680,680,680,680,680,680,680,680,680,680,680,680,680,680,680,680,680,680,680,680,680,680,680,680,680,680,680,680,680,680,680,680,680,680,680,680,673,674,675,673,674,675,680,680,680,680,680,680,680,680,680,680,680,680,680,680,680,680,680,680,680,680,680,680,680,680,680,680,680,680,680,680,680,680,680,680,680,680,680,680,680,680,680,680,680,680,680,680,680,680,680,680,680,680,680,680,680,680,680,680,680,
680,680,680,680,680,680,680,680,680,680,680,680,680,680,680,680,680,680,680,680,680,680,680,680,680,674,675,673,674,680,680,680,680,680,680,680,680,683,680,680,680,683,681,682,683,680,680,680,680,680,680,680,680,680,680,680,680,680,680,680,680,680,680,680,680,680,680,680,680,680,680,680,680,680,680,680,680,680,680,680,680,680,680,680,680,680,680,680,680,680,680,680,680,680,680,680,680,680,680,680,680,680,680,680,
680,680,680,680,680,680,680,680,680,680,680,680,680,680,680,680,680,680,680,680,680,680,680,680,680,682,683,681,682,680,680,680,680,680,680,680,680,691,689,690,680,1197,1197,1197,1197,680,680,680,680,680,680,680,680,699,697,698,699,680,680,680,680,680,680,680,680,680,680,680,680,680,680,680,680,680,680,680,680,680,680,680,680,680,680,680,680,680,680,680,680,680,680,680,680,680,680,680,680,680,680,680,680,680,680,680,
680,680,680,680,680,680,680,680,680,680,680,680,680,680,680,680,680,680,680,680,680,680,680,680,680,680,691,689,690,680,680,680,680,680,680,680,680,699,697,680,680,680,680,699,697,698,699,697,698,680,680,680,680,675,673,674,675,673,674,680,680,680,680,680,680,680,680,680,680,680,680,680,680,680,680,680,680,680,680,680,680,680,680,680,680,680,680,680,680,680,680,680,680,680,680,680,680,680,680,680,680,680,680,680,
680,680,680,680,680,680,680,680,680,680,680,680,680,680,680,680,680,680,680,680,680,680,680,680,680,680,680,680,680,680,680,680,680,680,680,680,680,675,673,674,675,673,674,675,673,674,675,673,674,680,680,680,680,1197,681,682,683,681,682,683,680,680,680,680,680,680,680,680,680,680,680,680,680,680,680,680,680,680,680,680,680,680,680,680,680,680,680,680,680,680,680,680,680,680,680,680,680,680,680,680,680,680,680,680,
680,680,680,680,680,680,680,680,680,680,680,680,680,680,680,680,680,680,680,680,680,680,680,680,680,680,680,680,680,680,680,680,680,680,680,680,680,1197,681,682,683,681,682,683,681,682,683,681,682,680,680,680,680,1205,1197,1197,1197,1197,1197,1197,680,680,680,680,680,680,680,675,673,674,675,673,674,680,680,680,680,680,680,680,680,680,680,680,680,680,680,680,680,680,680,680,680,680,680,680,680,680,680,680,680,680,680,680,
680,680,680,680,680,680,680,680,680,680,680,680,680,680,680,680,680,680,680,680,680,680,680,680,680,680,680,680,680,680,680,680,680,680,680,680,680,1205,1197,680,680,1197,1197,1197,1197,1197,1197,1197,1197,680,680,680,680,1213,1205,1205,1205,1205,1205,1205,680,680,680,680,680,680,680,683,681,682,683,681,682,680,680,680,680,680,680,680,680,680,680,680,680,680,680,680,680,680,680,680,680,680,680,680,680,680,680,680,680,680,680,680,
680,680,680,680,680,680,680,680,680,680,680,680,680,680,680,680,680,680,680,680,680,680,680,680,680,680,680,680,680,680,680,680,680,680,680,680,699,697,1205,680,680,1205,1205,699,697,698,699,1205,1205,680,680,680,680,1221,1213,1213,1213,1213,1213,1213,680,680,680,680,680,680,680,1197,689,690,691,1197,1197,680,680,680,680,680,680,680,680,680,680,680,680,680,680,680,680,680,680,680,680,680,680,680,680,680,680,680,680,680,680,680,
680,680,680,680,680,680,680,680,680,680,680,680,680,680,680,680,680,680,680,680,680,680,680,680,680,680,680,680,680,680,680,680,680,680,680,680,675,673,674,680,680,1213,674,675,673,674,675,673,1213,680,680,680,680,1229,1221,1221,1221,1221,1221,1221,680,680,680,680,680,680,680,1205,1197,1197,1197,1205,1205,680,680,680,680,680,680,680,680,680,680,680,680,680,680,680,680,680,680,680,680,680,680,680,680,680,680,680,680,680,680,680,
680,680,680,680,680,680,680,680,680,680,680,680,680,680,680,680,680,680,680,691,689,690,691,680,680,680,680,680,680,680,680,680,680,680,680,680,683,681,682,680,680,1221,682,683,681,682,683,681,1221,680,680,680,680,1237,1229,1229,1229,1229,1229,1229,680,680,680,680,680,680,680,1213,1205,1205,1205,1213,1213,680,680,680,680,680,680,680,680,680,680,680,680,680,680,680,680,680,680,680,680,680,680,680,680,680,680,680,680,680,680,680,
680,680,680,680,680,680,680,680,680,680,680,680,680,680,680,680,680,680,698,699,697,698,699,697,680,680,680,680,680,680,698,699,697,698,699,680,1197,1197,1197,680,680,1229,1197,691,689,690,691,689,1229,680,680,680,680,680,1237,1237,1237,683,681,682,683,680,680,680,680,680,680,1221,1213,1213,1213,1221,1221,680,680,680,680,680,680,680,680,680,680,680,680,680,680,680,680,680,680,680,680,680,680,680,680,680,680,680,680,680,680,680,
680,680,680,680,680,680,680,680,680,680,680,680,680,680,680,680,680,680,674,675,673,674,675,673,674,675,673,680,680,680,674,675,673,674,675,673,1205,1205,1205,680,680,1237,1205,1197,1197,1197,1197,1197,1237,680,680,680,680,680,680,680,680,691,689,690,691,689,680,680,680,680,680,1229,1221,1221,1221,1229,1229,680,680,680,680,680,680,680,680,680,680,680,680,680,680,680,680,680,680,680,680,680,680,680,680,680,680,680,680,680,680,680,
680,680,680,680,680,680,680,680,680,680,680,680,680,680,680,682,680,680,682,683,681,682,683,681,682,683,681,680,680,680,682,683,681,682,683,681,1213,1213,1213,680,680,1245,1213,1205,1205,1205,1205,1205,680,680,680,680,680,680,680,680,680,1213,697,698,699,697,698,699,680,680,680,680,1229,1229,1229,680,680,680,680,680,680,680,680,680,680,680,680,680,680,680,680,680,680,680,680,680,680,680,680,680,680,680,680,680,680,680,680,680,
680,680,680,680,680,680,680,680,680,680,680,680,680,680,680,690,680,680,680,691,689,690,691,689,690,691,689,680,680,680,1197,691,689,690,691,689,1221,1221,1221,680,680,680,699,697,698,699,1213,1213,680,680,680,680,680,680,680,680,680,1221,1213,674,675,673,674,675,673,674,675,673,674,680,680,680,680,680,680,680,680,680,680,680,680,680,680,680,680,680,680,680,680,680,680,680,680,680,680,680,680,680,680,680,680,680,680,680,
680,680,680,680,680,680,680,680,680,680,680,680,680,680,680,698,680,680,698,674,680,680,680,697,698,699,680,680,680,680,1205,1197,1197,1197,1197,1197,1229,1229,1229,680,680,674,675,673,674,675,1221,1221,680,680,680,680,680,680,680,680,680,680,1221,1213,683,681,682,683,681,682,683,681,682,683,680,680,680,680,680,680,680,680,680,680,680,680,680,680,680,680,680,680,680,680,680,680,680,680,680,680,680,680,680,680,680,680,680,680,
680,680,680,680,680,680,680,680,680,680,680,680,680,680,673,674,675,673,674,675,674,680,680,680,674,680,680,680,680,680,1213,1205,1205,1205,1205,1205,1237,1237,1237,680,680,682,683,681,682,683,1229,1229,680,680,680,698,699,697,698,699,680,680,680,1221,1213,689,690,691,1213,690,691,689,690,691,680,680,680,680,680,680,680,680,680,680,680,680,680,680,680,680,680,680,680,680,680,680,680,680,680,680,680,680,680,680,680,680,680,680,
680,680,680,680,680,680,680,680,680,680,680,680,680,680,681,682,683,681,682,683,681,681,680,681,682,683,681,680,680,680,1221,1213,1213,1213,1213,1213,680,680,680,680,680,1213,1213,689,690,691,1237,1237,680,680,680,674,675,673,674,675,680,680,680,680,1221,1213,1213,1213,1221,1213,1213,1213,1213,1213,680,680,680,680,680,680,680,680,680,680,680,680,680,680,680,680,680,680,680,680,680,680,680,680,680,680,680,680,680,680,680,680,680,680,
680,680,680,680,680,680,680,680,680,680,680,680,680,680,689,690,691,689,690,691,689,690,691,689,690,691,689,690,680,680,1229,1221,1221,1221,1221,1221,680,680,680,680,680,1221,1221,1213,1213,1213,680,680,680,680,680,1213,1213,1213,1213,1213,680,680,680,680,680,1221,1221,1221,680,1221,1221,1221,1221,1221,680,680,680,680,680,680,680,680,680,680,680,680,680,680,680,680,680,680,680,680,680,680,680,680,680,680,680,680,680,680,680,680,680,680,
680,680,680,680,680,680,680,680,680,680,680,680,680,680,697,698,699,697,698,699,697,698,699,697,698,699,1213,1213,680,680,1237,1229,1229,1229,1229,1229,680,680,680,680,680,680,680,1221,1221,1221,680,680,680,680,680,1221,1221,1221,1221,1221,680,680,680,680,680,680,680,680,680,680,680,680,680,680,680,680,680,680,680,680,680,680,680,680,680,680,680,680,680,680,680,680,680,680,680,680,680,680,680,680,680,680,680,680,680,680,680,680,
680,680,680,680,680,680,680,680,680,680,680,680,680,680,673,674,675,673,674,675,673,674,675,1213,1213,1213,680,680,680,680,1245,1237,674,675,673,674,1178,680,680,680,680,680,680,680,680,680,680,680,680,680,680,680,680,680,680,680,680,673,674,680,680,680,680,680,680,680,680,680,680,680,680,680,680,680,680,680,680,680,680,680,680,680,680,680,680,680,680,680,680,680,680,680,680,680,680,680,680,680,680,680,680,680,680,680,
680,680,680,680,680,680,680,680,680,680,680,680,680,680,681,682,683,681,682,1213,1213,1213,1213,680,680,680,680,680,1177,682,683,691,682,683,681,682,683,680,680,680,680,680,680,680,680,1177,697,1178,680,680,1177,690,1178,680,680,680,680,1213,1213,673,680,680,1177,699,697,698,699,697,1178,680,680,680,680,680,680,680,680,680,680,680,680,680,680,680,680,680,680,680,680,680,680,680,680,680,680,680,680,680,680,680,680,680,680,680,
680,680,680,680,680,680,680,680,680,680,680,680,680,680,689,690,691,1213,1213,680,680,680,680,680,680,680,680,1177,689,690,691,689,690,691,689,690,691,1178,680,680,680,680,680,1177,690,691,689,690,680,1177,697,698,699,1178,680,680,680,1221,1221,1213,680,680,674,675,673,674,675,673,674,675,673,674,675,673,674,1178,680,680,680,680,680,680,680,680,680,680,680,680,680,680,680,680,680,680,680,680,680,680,680,680,680,680,680,680,
680,680,680,680,680,680,680,680,680,680,680,680,680,680,1213,1213,1213,680,680,680,680,680,680,680,680,1177,698,699,697,698,699,697,698,699,697,698,699,697,680,680,680,680,1177,697,698,699,697,698,680,681,673,674,675,673,674,1178,680,680,680,1221,680,680,1197,683,681,682,683,681,682,683,681,682,683,681,682,683,680,680,680,680,680,680,680,680,680,680,680,680,680,680,680,680,680,680,680,680,680,680,680,680,680,680,680,680,
680,680,680,680,680,680,680,680,680,680,680,680,680,680,680,680,680,680,680,680,680,680,680,680,680,673,674,675,673,674,675,673,674,675,673,674,675,673,680,680,680,680,675,673,674,675,673,674,1178,1213,681,682,683,681,682,683,681,1178,680,680,680,680,1205,1197,689,690,691,689,690,691,689,690,691,689,690,691,1178,680,680,680,680,680,680,675,680,680,680,680,680,680,680,680,680,680,680,680,680,680,680,680,680,680,680,680,
680,680,680,680,680,680,680,680,1177,698,1178,680,680,680,680,680,680,680,680,680,680,1177,681,682,680,681,682,683,681,682,683,681,682,683,681,682,683,681,1178,680,680,1177,683,681,682,683,681,682,683,1221,1213,690,691,689,690,691,689,673,691,1178,680,680,1213,1205,1197,698,699,697,698,699,697,698,699,697,698,699,697,680,680,680,680,680,682,683,681,680,680,680,680,680,680,680,680,680,680,680,680,680,680,680,680,680,680,680,
680,680,680,680,680,680,680,680,673,674,675,680,680,680,680,680,680,1177,691,689,690,691,689,690,680,689,690,691,689,690,691,689,690,691,689,690,691,689,690,691,689,690,691,689,690,691,689,690,691,1229,1221,1213,1213,1213,1213,699,697,698,699,697,680,680,1221,1213,1205,1197,675,673,674,675,673,674,675,673,674,675,673,680,680,680,680,689,690,691,689,680,680,680,680,680,680,680,680,680,680,680,680,680,680,680,680,680,680,680,
680,680,680,680,680,680,680,1177,681,682,683,680,680,680,680,1177,697,698,699,697,698,699,697,698,680,1213,698,699,697,698,699,697,698,699,697,698,699,697,698,699,697,698,699,697,698,699,697,698,699,697,1229,1221,1221,1221,1221,675,673,674,675,673,1178,680,1229,1221,1213,1205,1197,1197,682,683,681,682,683,681,682,683,1197,680,680,680,680,697,698,699,697,680,680,680,680,680,680,680,680,680,680,680,680,680,680,680,680,680,680,680,
680,680,680,680,680,680,680,691,689,690,680,680,680,680,680,675,673,674,675,673,674,675,673,674,675,680,1213,675,673,674,675,673,674,675,673,674,675,673,674,675,673,674,675,673,674,675,673,674,675,673,674,1229,1229,1229,1229,1213,681,682,683,681,682,680,673,1229,1221,1213,1205,1205,1197,691,689,690,691,689,690,691,1205,680,680,680,680,673,674,675,673,680,680,680,680,680,680,680,680,680,680,680,680,680,680,680,680,680,680,680,
680,680,680,680,680,680,680,699,697,698,699,697,680,680,680,683,681,682,683,681,682,683,681,682,683,681,680,1185,681,682,683,681,682,683,681,682,683,681,682,683,681,682,683,681,682,683,681,682,683,681,682,683,681,682,1237,1221,1213,1213,1213,689,690,680,1197,1237,1229,1221,1213,1213,1205,1197,1197,1197,1197,1197,1197,1197,690,680,680,680,680,681,682,683,681,680,680,680,680,680,680,680,680,680,680,680,680,680,680,680,680,680,680,680,
680,680,680,680,680,680,680,675,673,674,675,673,680,680,680,680,689,690,691,689,690,691,689,690,691,689,680,1193,689,690,691,689,690,691,689,690,691,689,690,691,689,690,691,689,690,691,689,690,691,689,690,691,689,690,691,1229,1221,1221,1221,1213,1213,680,1205,0,1237,1229,1221,1221,1213,1205,1205,1205,1205,1205,1205,1205,1197,680,680,680,691,689,690,691,689,680,680,680,680,680,680,680,680,680,680,680,680,680,680,680,680,680,680,680,
680,680,680,680,680,680,680,683,681,682,683,681,682,680,680,680,697,698,699,697,698,699,697,698,699,697,698,680,697,698,699,697,698,699,697,698,699,697,698,699,697,698,699,697,698,699,697,698,699,697,698,699,697,698,699,697,1229,1229,1229,698,699,680,1213,0,0,1237,1229,1229,1221,1213,1213,1213,1213,1213,1213,1213,1205,680,680,698,699,697,698,699,697,680,680,680,680,680,680,680,680,680,680,680,680,680,680,680,680,680,680,680,
680,680,680,680,680,680,680,691,689,690,691,689,690,680,680,680,673,674,675,673,674,675,673,674,675,673,674,680,674,674,675,673,674,675,673,674,675,673,674,675,673,674,675,673,674,675,673,674,675,673,674,675,673,674,675,673,674,675,673,674,675,673,1221,0,0,0,1237,1237,1229,1221,1221,1221,1221,1221,1221,1221,1213,680,680,674,675,673,674,675,673,674,680,680,680,680,680,680,680,680,680,680,680,680,680,680,680,680,680,680,
680,680,680,680,680,680,680,699,697,698,699,697,698,680,680,680,681,682,683,681,682,683,681,682,683,681,682,680,674,682,683,681,682,683,681,682,683,681,682,683,681,682,683,681,682,683,681,682,683,681,682,683,681,682,683,681,682,683,681,682,683,681,682,1178,680,680,0,0,1237,1229,1229,1229,1229,1229,1229,1229,1221,680,680,1197,683,681,682,683,681,682,680,680,680,680,680,680,680,680,680,680,680,680,680,680,680,680,680,680,
680,680,680,680,680,680,680,680,680,674,675,673,674,680,680,680,689,690,691,689,690,691,689,690,691,689,690,680,674,690,691,689,690,691,689,690,691,689,690,691,689,690,691,689,690,691,689,690,691,689,690,691,689,690,691,689,690,691,689,690,691,689,690,691,689,690,1178,680,0,1237,1237,1237,1237,1237,1237,1237,1229,680,680,1205,691,689,690,691,689,690,680,680,680,680,680,680,680,680,680,680,680,680,680,680,680,680,680,680,
680,680,680,680,680,680,680,680,680,682,683,681,682,680,680,680,697,698,699,697,698,699,697,698,699,697,698,680,1213,1213,699,697,698,699,697,698,699,697,698,699,697,698,699,697,698,699,697,698,699,697,698,699,697,698,699,697,698,699,697,698,699,697,698,699,697,698,699,697,1178,680,1177,698,699,697,1178,680,1237,680,680,1213,1197,697,698,699,697,698,680,680,680,680,680,680,680,680,680,680,680,680,680,680,680,680,680,680,
680,680,680,680,680,680,680,680,680,680,691,689,690,680,680,680,673,674,675,673,674,675,673,674,675,673,674,675,673,680,675,673,674,675,673,674,675,673,674,675,673,674,675,673,674,675,673,674,675,673,674,675,673,674,675,673,674,675,673,674,675,673,674,675,673,674,675,673,674,675,673,674,675,673,674,675,673,674,675,1221,1205,1197,674,675,1197,1197,680,680,680,680,680,680,680,680,680,680,680,680,680,680,680,680,680,680,
680,680,680,680,680,680,680,680,680,680,680,680,680,680,680,680,681,682,683,681,682,683,681,682,683,681,682,683,681,680,1213,681,682,683,681,682,683,681,682,683,681,682,683,681,682,683,681,682,683,681,682,683,681,682,683,681,682,683,681,682,683,681,682,683,681,682,683,681,682,683,681,682,683,681,682,683,681,682,683,681,1213,1205,1197,683,1205,1205,680,680,680,680,680,680,680,680,680,680,680,680,680,680,680,680,680,680,
680,680,680,680,680,680,680,680,680,680,680,680,691,689,690,680,689,690,691,689,690,691,689,690,691,689,690,691,689,690,680,689,690,691,689,690,691,689,690,691,689,690,691,689,690,691,689,690,691,689,690,691,689,690,691,689,690,691,689,690,691,689,690,691,689,690,691,689,690,691,689,690,691,689,690,691,689,690,691,689,690,1213,1205,1197,1213,1213,680,680,680,680,680,680,680,680,680,680,680,680,680,680,680,680,680,680,
680,680,680,680,680,680,680,680,680,680,680,680,699,697,698,699,697,698,699,697,698,699,697,698,699,697,698,699,697,698,680,697,698,699,697,698,699,697,698,699,697,698,699,697,698,699,697,698,699,697,698,699,697,698,699,697,698,699,697,698,699,697,698,699,697,698,699,697,698,699,697,698,699,697,698,699,697,698,699,697,698,699,697,1205,1221,1221,680,680,680,680,680,680,680,680,680,680,680,680,680,680,680,680,680,680,
680,680,680,680,680,680,680,680,680,680,680,674,675,673,674,675,673,674,675,673,674,675,673,674,675,673,674,675,673,674,680,673,674,675,673,674,675,673,674,675,673,674,675,673,674,675,673,674,675,673,674,675,673,674,675,673,674,675,673,674,675,673,674,675,673,674,675,673,674,675,673,674,675,673,674,675,673,674,675,673,674,675,673,674,1229,1229,673,674,675,680,680,680,680,680,680,680,680,680,680,680,680,680,680,680,
680,680,680,680,680,680,680,680,680,680,680,682,683,681,682,683,681,682,683,681,682,683,681,682,683,681,682,683,681,682,680,1213,682,683,681,682,683,681,682,683,681,682,683,681,682,683,681,682,683,681,682,683,681,682,683,681,682,683,681,682,683,681,682,683,681,682,683,681,682,683,681,682,683,681,682,683,681,682,683,681,682,683,681,682,1237,1237,681,682,683,680,680,680,680,680,680,680,680,680,680,680,680,680,680,680,
680,680,680,680,680,680,680,680,680,680,680,690,691,689,690,691,689,690,691,689,690,691,689,690,691,689,690,691,689,690,690,680,674,691,689,690,691,689,690,691,689,690,691,689,690,691,689,690,691,689,690,691,689,690,691,689,690,691,689,690,691,689,690,691,689,690,691,689,690,691,689,690,691,689,690,691,689,690,691,689,690,691,689,690,680,680,689,690,691,680,680,680,680,680,680,680,680,680,680,680,680,680,680,680,
680,680,680,680,680,680,680,680,680,680,680,698,699,697,698,699,697,698,699,697,698,699,697,698,699,697,698,699,697,698,690,680,698,699,697,698,699,697,698,699,697,698,699,697,698,699,697,698,699,697,698,699,697,698,699,697,698,699,697,698,699,697,698,699,697,698,699,697,698,699,697,698,699,697,698,699,697,698,699,697,698,699,697,698,699,680,697,698,699,680,680,680,680,680,680,680,680,680,680,680,680,680,680,680,
680,680,680,680,680,680,680,680,680,680,680,1197,675,673,674,675,673,674,675,673,674,675,673,674,675,673,674,675,673,674,675,680,1213,675,673,674,675,673,674,675,673,674,675,673,674,675,673,674,675,673,674,675,673,674,675,673,674,675,673,674,675,673,674,675,673,674,675,673,674,675,673,674,675,673,674,675,673,674,675,673,674,675,673,674,675,680,1197,1197,1197,680,680,680,680,680,680,680,680,680,680,680,680,680,680,680,
680,680,680,680,680,680,680,680,680,680,680,1205,683,681,682,683,681,682,683,681,682,683,681,682,683,681,682,683,681,682,683,680,680,683,681,682,683,681,682,683,681,682,683,681,682,683,681,682,683,681,682,683,681,682,683,681,682,683,681,682,683,681,682,683,681,682,683,681,682,683,681,682,683,681,682,683,681,682,683,681,682,683,681,682,683,680,1205,1205,1205,680,680,680,680,680,680,680,680,680,680,680,680,680,680,680,
680,680,680,680,680,680,680,680,680,680,680,1213,691,689,690,691,689,690,691,689,690,691,689,690,691,689,690,691,689,690,1197,680,680,691,689,690,691,689,690,691,689,690,691,689,690,691,689,690,691,689,690,691,689,690,691,689,690,691,689,690,691,689,690,691,689,690,691,689,690,691,689,690,691,689,690,691,689,680,680,689,690,691,689,690,691,680,1213,1213,1213,680,680,680,680,680,680,680,680,680,680,680,680,680,680,680,
680,680,680,680,680,680,680,680,680,680,680,1221,1197,697,698,699,697,698,699,697,698,699,697,698,699,697,698,699,697,1197,1205,680,698,699,697,698,699,697,698,699,697,698,699,697,698,699,697,698,699,697,698,699,697,698,699,697,698,699,697,698,699,697,698,699,697,698,699,697,698,699,697,698,699,697,698,699,697,680,680,697,698,699,697,698,699,680,1221,1221,1221,680,680,680,680,680,680,680,680,680,680,680,680,680,680,680,
680,680,680,680,680,680,680,680,680,680,680,1229,675,673,674,675,673,674,675,673,674,675,673,674,675,673,674,675,673,1205,675,680,1213,675,673,674,675,673,674,675,673,674,675,673,674,675,673,674,675,673,674,675,673,674,675,673,674,675,673,674,675,673,674,675,673,674,675,673,674,675,673,674,675,673,674,675,673,674,675,673,674,675,673,674,675,680,1229,1229,1229,680,680,680,680,680,680,680,680,680,680,680,680,680,680,680,
680,680,680,680,680,680,680,680,680,680,680,1237,683,681,682,683,681,682,683,681,682,683,681,682,683,681,682,683,1197,1213,683,681,680,1213,681,682,683,681,682,683,681,682,683,681,682,683,681,682,683,681,682,683,681,682,683,681,682,683,681,682,683,681,682,683,681,682,683,681,682,683,681,682,683,681,682,683,681,682,683,681,682,683,681,682,683,680,1237,1237,1237,680,680,680,680,680,680,680,680,680,680,680,680,680,680,680,
680,680,680,680,680,680,680,680,680,680,680,1245,1197,689,690,691,689,690,691,689,690,691,689,690,691,689,690,691,1205,690,691,689,690,680,1213,1213,691,689,690,691,689,690,691,689,690,691,689,690,691,689,690,691,689,690,691,689,690,691,689,690,691,689,690,691,689,690,691,689,690,691,689,690,691,689,690,691,689,690,691,689,690,691,689,690,691,680,680,680,680,680,680,680,680,680,680,680,680,680,680,680,680,680,680,680,
680,680,680,680,680,680,680,680,680,680,680,680,1205,1197,698,699,697,698,699,697,698,699,697,698,699,697,698,1197,1213,698,699,697,698,699,697,680,1213,1213,698,699,697,698,699,697,698,699,697,1213,1213,1213,1213,1213,1213,1213,1213,1213,698,699,697,698,699,697,698,699,697,698,699,697,698,699,697,698,699,697,698,699,697,698,699,697,698,699,697,698,699,680,680,680,680,698,699,697,680,680,680,680,680,680,680,680,680,680,680,680,
680,680,680,680,680,680,680,680,680,680,680,680,1213,1205,1197,675,673,674,675,673,674,675,673,674,675,673,674,1205,673,674,675,673,674,675,673,674,675,680,1213,675,673,674,675,1213,1213,1213,1213,680,675,673,674,675,673,674,675,1213,1213,1213,673,674,675,673,674,675,673,674,675,673,674,675,673,674,675,673,674,675,673,674,675,673,674,675,673,674,675,680,680,680,680,674,675,673,680,680,680,680,680,680,680,680,680,680,680,680,
680,680,680,680,680,680,680,680,680,680,680,680,1221,1213,1205,1197,681,682,683,681,682,683,681,682,683,681,682,1213,681,682,683,681,682,683,681,682,683,681,680,1213,1213,1213,1213,680,682,683,681,682,683,681,682,683,681,682,683,681,682,1213,1213,1213,683,681,682,683,681,682,683,681,682,683,681,682,683,681,682,683,681,682,683,681,682,683,681,682,683,680,680,680,680,682,683,681,680,680,680,680,680,680,680,680,680,680,680,680,
680,680,680,680,680,680,680,680,680,680,680,680,1229,1221,1213,1205,1197,1197,1197,1197,1197,691,689,690,691,689,1213,1221,689,690,691,689,690,691,689,690,691,689,690,691,689,690,691,689,690,691,689,690,691,689,690,691,689,690,691,689,690,691,689,680,1213,689,690,691,689,690,691,689,690,691,689,690,691,689,690,691,689,690,691,689,690,691,689,690,691,680,680,680,680,1197,1197,689,680,680,680,680,680,680,680,680,680,680,680,680,
680,680,680,680,680,680,680,680,680,680,680,680,1237,1229,1221,1213,1205,1205,1205,1205,1205,1197,1197,1197,699,697,674,1229,697,698,699,697,698,699,697,698,699,697,698,699,697,698,699,697,698,699,697,698,699,697,698,699,697,698,699,697,698,699,697,698,680,697,698,699,697,698,699,697,698,699,697,698,699,697,698,699,697,698,699,697,698,699,697,698,699,697,680,680,680,1205,1205,1197,680,680,680,680,680,680,680,680,680,680,680,680,
680,680,680,680,680,680,680,680,680,680,680,680,1245,1237,1229,1221,1213,1213,1213,1213,1213,1205,1205,1205,1197,673,1197,1237,673,674,675,673,674,675,673,674,675,673,674,675,673,674,675,673,674,675,673,674,675,673,674,675,673,674,675,673,674,675,673,674,675,1213,674,675,673,674,675,673,674,675,673,674,675,673,674,675,673,674,675,673,674,675,673,674,675,673,680,680,680,1213,1213,1205,680,680,680,680,680,680,680,680,680,680,680,680,
680,680,680,680,680,680,680,680,680,680,680,680,680,1245,1237,1229,1221,1221,1221,1221,1221,1213,1213,1213,1205,1197,1205,1245,681,682,683,681,682,683,681,682,683,681,682,683,681,682,683,681,682,683,681,682,683,681,682,683,681,682,683,681,682,683,681,682,683,680,682,683,681,682,683,681,682,683,681,682,683,681,682,683,681,682,683,681,682,683,681,682,683,681,682,680,680,1221,1221,1213,680,680,680,680,680,680,680,680,680,680,680,680,
680,680,680,680,680,680,680,680,680,680,680,680,680,680,1245,1237,1229,1229,1229,1229,1229,1221,1221,1221,1213,1205,1213,680,689,690,691,689,690,691,689,690,691,689,690,691,689,690,691,689,690,691,689,690,691,689,690,691,689,690,691,689,690,691,689,690,691,680,690,691,689,690,691,689,690,691,689,690,691,689,690,691,689,690,691,689,690,691,689,690,691,689,690,680,680,1229,1229,1221,680,680,680,680,680,680,680,680,680,680,680,680,
680,680,680,680,680,680,680,680,680,680,680,680,680,680,680,1245,1237,1237,1237,1237,1237,1229,1229,1229,1221,1213,1221,680,697,698,699,697,698,699,697,698,699,697,698,699,697,698,699,697,698,699,697,698,699,697,698,699,697,698,699,697,698,699,697,698,1213,680,698,699,697,698,699,697,698,699,697,698,699,697,698,699,697,698,699,697,698,699,697,698,699,697,698,680,680,1237,1237,1229,680,680,680,680,680,680,680,680,680,680,680,680,
680,680,680,680,680,680,680,680,680,680,680,680,680,680,680,680,1245,1245,1245,1245,1245,1237,1237,1237,1229,1221,1229,680,673,674,675,673,674,675,673,674,675,673,674,675,673,674,675,673,674,675,673,674,675,673,674,675,673,674,675,673,674,675,673,674,680,673,674,675,673,674,675,673,674,675,673,674,675,673,674,675,673,674,675,673,674,675,673,674,675,673,674,680,680,1245,1245,1237,680,680,680,680,680,680,680,680,680,680,680,680,
680,680,680,680,680,680,680,680,680,680,680,680,680,680,680,680,680,680,680,680,680,1245,1245,1245,1237,1229,1237,680,681,682,683,681,682,683,681,682,683,681,682,683,681,682,683,681,682,683,681,682,683,681,682,683,681,682,683,681,682,683,681,1213,680,681,682,683,681,682,683,681,682,683,681,682,683,681,682,683,681,682,683,681,682,683,681,682,683,1213,1213,680,689,690,680,1245,680,680,680,680,680,680,680,680,680,680,680,680,
680,680,680,680,680,680,680,680,680,680,680,680,680,680,680,680,680,680,680,680,680,680,680,680,1245,1237,1245,680,1213,690,691,689,690,691,689,690,691,689,690,691,689,690,691,689,690,691,689,690,691,689,690,691,689,690,691,689,690,691,689,680,691,689,690,691,689,690,691,689,690,691,689,690,691,689,690,691,689,690,691,689,690,691,689,690,1213,680,680,680,697,698,680,680,680,680,680,680,680,680,680,680,680,680,680,680,
680,680,680,680,680,680,680,680,680,680,680,680,680,680,680,680,680,680,680,680,680,680,680,680,680,1245,680,680,1221,1213,697,697,698,699,697,698,699,697,698,699,697,698,699,697,698,699,697,698,699,697,698,699,697,698,699,697,698,699,697,680,1213,697,698,699,697,698,699,697,698,699,697,698,699,697,698,699,697,698,699,697,698,699,697,1213,680,680,680,675,673,674,680,680,680,680,680,680,680,680,680,680,680,680,680,680,
680,680,680,680,680,680,680,680,680,680,680,680,680,680,680,680,680,680,680,680,680,680,680,680,680,680,680,680,1229,1221,1213,1213,674,675,673,674,675,673,674,675,673,674,675,673,674,675,673,674,675,673,674,675,673,674,675,673,674,675,673,674,680,1213,674,675,673,674,675,673,674,675,673,674,675,673,674,675,673,674,675,673,674,675,673,674,680,680,680,683,681,682,680,680,680,680,680,680,680,680,680,680,680,680,680,680,
680,680,680,680,680,680,680,680,680,680,680,680,680,680,680,680,680,680,680,680,680,680,680,680,680,680,680,680,1237,1229,1221,1221,1213,1213,681,682,683,681,682,683,681,682,683,681,682,683,681,673,1213,1213,1213,1213,681,682,683,681,682,683,681,682,683,680,1213,683,681,682,683,681,682,683,681,682,683,681,682,683,681,682,683,681,682,683,681,682,680,680,680,691,689,690,680,680,680,680,680,680,680,680,680,680,680,680,680,680,
680,680,680,680,680,680,680,680,680,680,680,680,680,680,680,680,680,680,680,680,680,680,680,680,680,680,680,680,1245,1237,1229,1229,1221,1221,689,690,691,689,690,691,689,690,691,689,690,691,673,673,1221,1221,1221,1221,1213,1213,1213,1213,690,1213,1213,1213,1213,680,1221,691,689,690,691,689,690,691,689,690,691,689,690,691,689,690,691,689,690,691,689,690,680,680,680,699,697,1197,680,680,680,680,680,680,680,680,680,680,680,680,680,680,
680,680,680,680,680,680,680,680,680,680,680,680,680,680,680,680,680,680,680,680,680,680,680,680,680,680,680,680,680,1245,1237,1237,1229,1229,1213,698,699,697,698,699,1213,1213,1213,1213,1213,1213,1221,1213,1229,1229,1229,1229,1221,1221,1221,1221,1213,1221,1221,1221,1221,680,680,1213,697,698,699,697,698,699,697,698,699,697,698,699,697,698,699,697,698,699,697,698,680,680,680,1197,1197,1205,680,680,680,680,680,680,680,680,680,680,680,680,680,680,
680,680,680,680,680,680,680,680,680,680,680,680,680,680,680,680,680,680,680,680,680,680,680,680,680,680,680,680,680,680,1245,1245,1237,1237,1221,1213,1213,1213,1213,1213,1221,1221,1221,1221,1221,1221,1229,1237,1237,1237,1237,1237,1229,1229,1229,1229,1221,1229,1229,1229,1229,680,680,1221,1213,674,675,673,674,675,673,674,675,673,674,675,673,674,675,673,674,675,673,674,680,680,680,1205,1205,1213,680,680,680,680,680,680,680,680,680,680,680,680,680,680,
680,680,680,680,680,680,680,680,680,680,680,680,680,680,680,680,680,680,680,680,680,680,680,680,680,680,680,680,680,680,680,680,1245,1245,1229,1221,1221,1221,1221,1221,1229,1229,1229,1229,1229,1229,1237,1245,1245,1245,1245,1245,1237,1237,1237,1237,1229,1237,1237,1237,1237,680,680,680,1221,1213,683,681,682,683,681,682,683,681,682,683,681,682,683,681,682,683,681,682,680,680,680,1213,689,690,680,680,680,680,680,680,680,680,680,680,680,680,680,680,
680,680,680,680,680,680,680,680,680,680,680,680,680,680,680,680,680,680,680,680,680,680,680,680,680,680,680,680,680,680,680,680,680,680,1237,1229,1229,1229,1229,1229,1237,1237,1237,1237,1237,1237,1245,680,680,680,680,680,1245,1245,1245,1245,1237,1245,1245,1245,1245,680,680,680,680,1221,691,689,690,691,689,690,691,689,690,691,689,690,691,689,690,691,689,690,680,680,680,1221,697,698,699,697,698,680,680,680,680,680,680,680,680,680,680,680,
680,680,680,680,680,680,680,680,680,680,680,680,680,680,680,680,680,680,680,680,680,680,680,680,680,680,680,680,680,680,680,680,680,680,1245,1237,1237,1237,1237,1237,1245,682,683,681,682,683,681,675,680,680,680,680,680,680,680,680,1245,680,680,680,680,680,680,680,680,680,1213,697,698,699,697,698,699,697,698,699,697,698,699,697,698,699,697,1213,680,680,680,1229,673,674,675,673,674,680,680,680,680,680,680,680,680,680,680,680,
680,680,680,680,680,680,680,680,680,680,680,680,680,680,680,680,680,680,680,680,680,680,680,680,680,680,680,680,680,680,680,680,680,680,680,1245,1245,1245,1245,691,689,690,691,689,690,691,689,690,680,680,690,691,689,690,680,680,680,680,680,680,680,680,680,680,680,680,1221,673,674,675,673,674,675,673,674,675,673,674,675,1213,674,675,1213,1221,680,680,680,680,681,682,683,681,682,680,680,680,680,680,680,680,680,680,680,680,
680,680,680,680,680,680,680,680,680,680,680,680,680,680,680,680,680,680,680,680,680,680,680,680,680,680,680,680,680,680,680,680,680,680,680,680,680,680,698,699,697,698,699,697,698,699,697,698,673,697,698,699,697,698,699,680,680,680,680,680,680,680,680,680,680,680,680,1213,1213,683,681,682,683,681,682,683,1213,682,1213,1221,1213,683,1221,1229,680,699,697,680,1197,690,691,689,690,680,680,680,680,680,680,680,680,680,680,680,
680,680,680,680,680,680,680,680,680,680,680,680,680,680,680,680,680,680,680,680,680,680,680,680,680,680,680,680,680,680,680,680,680,680,680,680,680,680,674,675,673,674,675,673,674,675,673,674,675,673,674,675,673,674,675,680,680,680,680,680,680,680,680,680,680,680,680,1221,1221,691,689,690,691,689,690,691,1221,1213,1221,1229,1221,691,1229,1237,680,675,673,680,1205,1197,1197,697,698,680,680,680,680,680,680,680,680,680,680,680,
680,680,680,680,680,680,680,680,680,680,680,680,680,680,680,680,680,680,680,680,680,680,680,680,680,680,680,680,680,680,680,680,680,680,680,680,680,680,682,683,681,682,683,681,682,683,681,682,683,681,682,683,681,682,683,680,680,680,680,680,680,680,680,680,680,680,680,1229,1229,1213,697,698,699,697,698,699,697,1221,1229,1237,698,699,1237,680,682,683,681,680,1213,1205,1205,1197,1197,680,680,680,680,680,680,680,680,680,680,680,
680,680,680,680,680,680,680,680,680,680,680,680,680,680,680,680,680,680,680,680,680,680,680,680,680,680,680,680,680,680,680,680,680,680,680,680,680,680,690,691,689,690,691,689,690,691,689,690,691,689,690,691,689,690,691,680,680,680,680,680,680,680,680,680,680,680,680,1237,1237,1221,1213,674,675,673,674,675,673,674,1237,680,674,675,680,680,690,691,1197,680,1221,1213,1213,1205,1205,680,680,680,680,680,680,680,680,680,680,680,
680,680,680,680,680,680,680,680,680,680,680,680,680,680,680,680,680,680,680,680,680,680,680,680,680,680,680,680,680,680,680,680,680,680,680,680,680,680,698,699,697,698,699,697,698,699,697,698,699,697,698,699,697,698,699,680,680,680,680,680,680,680,680,680,680,680,680,680,680,1229,1221,682,683,681,682,683,681,682,683,680,682,1213,680,680,1197,1197,1205,680,1229,1221,1221,1213,1213,680,680,680,680,680,680,680,680,680,680,680,
680,680,680,680,680,680,680,680,680,680,680,680,680,680,680,680,680,680,680,680,680,680,680,680,680,680,680,680,680,680,680,680,680,680,680,680,680,680,1197,1197,1197,674,675,673,674,675,673,674,675,673,674,675,1197,1197,1197,680,680,680,680,680,680,680,680,680,680,680,680,680,680,1237,1229,690,691,689,690,691,689,690,691,680,690,1221,680,680,1205,1205,1213,683,681,1229,1229,1221,1221,680,680,680,680,680,680,680,680,680,680,680,
680,680,680,680,680,680,680,680,680,680,680,680,680,680,680,680,680,680,680,680,680,680,680,680,680,680,680,680,680,680,680,680,680,680,680,680,680,680,1205,1205,1205,1197,1197,681,682,683,681,682,683,681,682,1197,1205,1205,1205,680,680,680,680,680,680,680,680,680,680,680,680,680,680,680,1237,1213,699,697,698,699,697,698,699,697,698,1229,680,680,1213,1213,1221,691,689,690,1237,1229,1229,680,680,680,680,680,680,680,680,680,680,680,
680,680,680,680,680,680,680,680,680,680,680,680,680,680,680,680,680,680,680,680,680,680,680,680,680,680,680,680,680,680,680,680,680,680,680,680,680,680,1213,1213,1213,1205,1205,1197,1197,1197,1197,1197,1197,1197,1197,1205,1213,1213,1213,680,680,680,680,680,680,680,680,680,680,680,680,680,680,680,680,1221,1213,1213,1213,1213,673,674,675,1213,1213,680,680,680,1221,1221,1229,699,697,698,1245,1237,1237,680,680,680,680,680,680,680,680,680,680,680,
680,680,680,680,680,680,680,680,680,680,680,680,680,680,680,680,680,680,680,680,680,680,680,680,680,680,680,680,680,680,680,680,680,680,680,680,680,680,1221,1221,1221,1213,1213,1205,1205,1205,1205,1205,1205,1205,1205,1213,1221,1221,1221,680,680,680,680,680,680,680,680,680,680,680,680,680,680,680,680,1229,1221,1221,1221,1221,1213,1213,1213,1221,1221,680,680,680,1229,1229,1237,675,673,674,680,1245,1245,680,680,680,680,680,680,680,680,680,680,680,
680,680,680,680,680,680,680,680,680,680,680,680,680,680,680,680,680,680,680,680,680,680,680,680,680,680,680,680,680,680,680,680,680,680,680,680,680,680,1229,1229,1229,1221,1221,1213,1213,1213,1213,1213,1213,1213,1213,1221,1229,1229,1229,680,680,680,680,680,680,680,680,680,680,680,680,680,680,680,680,1237,1229,1229,1229,1229,1221,1221,1221,1229,1229,680,680,680,1237,1237,1245,683,681,682,680,680,680,680,680,680,680,680,680,680,680,680,680,680,
680,680,680,680,680,680,680,680,680,680,680,680,680,680,680,680,680,680,680,680,680,680,680,680,680,680,680,680,680,680,680,680,680,680,680,680,680,680,1237,1237,1237,1229,1229,1221,1221,1221,1221,1221,1221,1221,1221,1229,1237,1237,1237,680,680,680,680,680,680,680,680,680,680,680,680,680,680,680,680,680,1237,1237,1237,1237,1229,1229,1229,1237,1237,680,680,680,1245,1245,690,691,689,690,680,680,680,680,680,680,680,680,680,680,680,680,680,680,
680,680,680,680,680,680,680,680,680,680,680,680,680,680,680,680,680,680,680,680,680,680,680,680,680,680,680,680,680,680,680,680,680,680,680,680,680,680,680,680,680,1237,1237,1229,1229,1229,1229,1229,1229,1229,1229,1237,680,680,680,680,680,680,680,680,680,680,680,680,680,680,680,680,680,680,680,680,680,680,680,680,1237,1237,1237,680,680,680,680,680,680,680,698,699,697,698,680,680,680,680,680,680,680,680,680,680,680,680,680,680,
680,680,680,680,680,680,680,680,680,680,680,680,680,680,680,680,680,680,680,680,680,680,680,680,680,680,680,680,680,680,680,680,680,680,680,680,680,680,680,680,680,680,680,1237,1237,1237,1237,1237,1237,1237,1237,680,680,680,680,680,680,680,680,680,680,680,680,680,680,680,680,680,680,680,680,680,680,680,680,680,680,680,680,680,680,680,680,680,680,680,1197,675,673,1197,680,680,680,680,680,680,680,680,680,680,680,680,680,680,
680,680,680,680,680,680,680,680,680,680,680,680,680,680,680,680,680,680,680,680,680,680,680,680,680,680,680,680,680,680,680,680,680,680,680,680,680,680,680,680,680,680,680,680,680,680,680,680,680,680,680,680,680,680,680,680,680,680,680,680,680,680,680,680,680,680,680,680,680,680,680,680,680,680,680,680,680,680,680,680,680,680,680,680,680,680,1205,1197,1197,1205,680,680,680,680,680,680,680,680,680,680,680,680,680,680,
680,680,680,680,680,680,680,680,680,680,680,680,680,680,680,680,680,680,680,680,680,680,680,680,680,680,680,680,680,680,680,680,680,680,680,680,680,680,680,680,680,680,680,680,680,680,680,680,680,680,680,680,680,680,680,680,680,680,680,680,680,680,680,680,680,680,680,680,680,680,680,680,680,680,680,680,680,680,680,680,680,680,680,680,680,680,1213,1205,1205,1213,680,680,680,680,680,680,680,680,680,680,680,680,680,680,
680,680,680,680,680,680,680,680,680,680,680,680,680,680,680,680,680,680,680,680,680,680,680,680,680,680,680,680,680,680,680,680,680,680,680,680,680,680,680,680,680,680,680,680,680,680,680,680,680,680,680,680,680,680,680,680,680,680,680,680,680,680,680,680,680,680,680,680,680,680,680,680,680,680,680,680,680,680,680,680,680,680,680,680,680,680,1221,1213,1213,1221,680,680,680,680,680,680,680,680,680,680,680,680,680,680,
680,680,680,680,680,680,680,680,680,680,680,680,680,680,680,680,680,680,680,680,680,680,680,680,680,680,680,680,680,680,680,680,680,680,680,680,680,680,680,680,680,680,680,680,680,680,680,680,680,680,680,680,680,680,680,680,680,680,680,680,680,680,680,680,680,680,680,680,680,680,680,680,680,680,680,680,680,680,680,680,680,680,680,680,680,680,1229,1221,1221,1229,680,680,680,680,680,680,680,680,680,680,680,680,680,680,
680,680,680,680,680,680,680,680,680,680,680,680,680,680,680,680,680,680,680,680,680,680,680,680,680,680,680,680,680,680,680,680,680,680,680,680,680,680,680,680,680,680,680,680,680,680,680,680,680,680,680,680,680,680,680,680,680,680,680,680,680,680,680,680,680,680,680,680,680,680,680,680,680,680,680,680,680,680,680,680,680,680,680,680,680,680,1237,1229,1229,1237,680,680,680,680,680,680,680,680,680,680,680,680,680,680,
680,680,680,680,680,680,680,680,680,680,680,680,680,680,680,680,680,680,680,680,680,680,680,680,680,680,680,680,680,680,680,680,680,680,680,680,680,680,680,680,680,680,680,680,680,680,680,680,680,680,680,680,680,680,680,680,680,680,680,680,680,680,680,680,680,680,680,680,680,680,680,680,680,680,680,680,680,680,680,680,680,680,680,680,680,680,1245,1237,1237,1245,680,680,680,680,680,680,680,680,680,680,680,680,680,680,
680,680,680,680,680,680,680,680,680,680,680,680,680,680,680,680,680,680,680,680,680,680,680,680,680,680,680,680,680,680,680,680,680,680,680,680,680,680,680,680,680,680,680,680,680,680,680,680,680,680,680,680,680,680,680,680,680,680,680,680,680,680,680,680,680,680,680,680,680,680,680,680,680,680,680,680,680,680,680,680,680,680,680,680,680,680,680,1245,1245,680,680,680,680,680,680,680,680,680,680,680,680,680,680,680,
680,680,680,680,680,680,680,680,680,680,680,680,680,680,680,680,680,680,680,680,680,680,680,680,680,680,680,680,680,680,680,680,680,680,680,680,680,680,680,680,680,680,680,680,680,680,680,680,680,680,680,680,680,680,680,680,680,680,680,680,680,680,680,680,680,680,680,680,680,680,680,680,680,680,680,680,680,680,680,680,680,680,680,680,680,680,680,680,680,680,680,680,680,680,680,680,680,680,680,680,680,680,680,680,
680,680,680,680,680,680,680,680,680,680,680,680,680,680,680,680,680,680,680,680,680,680,680,680,680,680,680,680,680,680,680,680,680,680,680,680,680,680,680,680,680,680,680,680,680,680,680,680,680,680,680,680,680,680,680,680,680,680,680,680,680,680,680,680,680,680,680,680,680,680,680,680,680,680,680,680,680,680,680,680,680,680,680,680,680,680,680,680,680,680,680,680,680,680,680,680,680,680,680,680,680,680,680,680,
680,680,680,680,680,680,680,680,680,680,680,680,680,680,680,680,680,680,680,680,680,680,680,680,680,680,680,680,680,680,680,680,680,680,680,680,680,680,680,680,680,680,680,680,680,680,680,680,680,680,680,680,680,680,680,680,680,680,680,680,680,680,680,680,680,680,680,680,680,680,680,680,680,680,680,680,680,680,680,680,680,680,680,680,680,680,680,680,680,680,680,680,680,680,680,680,680,680,680,680,680,680,680,680,
680,680,680,680,680,680,680,680,680,680,680,680,680,680,680,680,680,680,680,680,680,680,680,680,680,680,680,680,680,680,680,680,680,680,680,680,680,680,680,680,680,680,680,680,680,680,680,680,680,680,680,680,680,680,680,680,680,680,680,680,680,680,680,680,680,680,680,680,680,680,680,680,680,680,680,680,680,680,680,680,680,680,680,680,680,680,680,680,680,680,680,680,680,680,680,680,680,680,680,680,680,680,680,680
</data>
 </layer>
 <layer id="2" name="Tile Layer 2" width="104" height="100">
  <data encoding="csv">
0,0,0,0,0,0,0,0,0,0,0,0,0,0,0,0,0,0,0,0,0,0,0,0,0,0,0,0,0,0,0,0,0,0,0,0,0,0,0,1038,1039,0,0,0,0,0,0,0,0,0,0,0,0,0,0,0,0,0,0,0,0,0,0,0,0,0,0,0,0,0,0,0,0,0,0,0,0,0,0,0,0,0,0,0,0,0,0,0,0,0,0,0,0,0,0,0,0,0,0,0,0,0,0,0,
0,0,0,0,0,0,0,0,0,0,0,0,0,0,0,0,0,0,0,0,0,0,0,0,0,0,0,0,0,0,0,0,0,0,0,0,0,0,0,1038,1039,0,0,0,0,0,0,0,0,0,0,0,0,0,0,0,0,0,0,0,0,0,0,0,0,0,0,0,0,0,0,0,0,0,0,0,0,0,0,0,0,0,0,0,0,0,0,0,0,0,0,0,0,0,0,0,0,0,0,0,0,0,0,0,
0,0,0,0,0,0,0,0,0,0,0,0,0,0,0,0,0,0,0,0,0,0,0,0,0,0,0,0,0,0,0,0,0,0,0,0,0,0,0,1038,1039,0,0,0,0,0,0,0,0,0,0,0,0,0,0,0,0,0,0,0,0,0,0,0,0,0,0,0,0,0,0,0,0,0,0,0,0,0,0,0,0,0,0,0,0,0,0,0,0,0,0,0,0,0,0,0,0,0,0,0,0,0,0,0,
0,0,0,0,0,0,0,0,0,0,0,0,0,0,0,0,0,0,0,0,0,0,0,0,0,0,0,0,0,0,0,0,0,0,0,0,0,0,0,1038,1039,0,0,0,0,0,0,0,0,0,0,0,0,0,0,0,0,0,0,0,0,0,0,0,0,0,0,0,0,0,0,0,0,0,0,0,0,0,0,0,0,0,0,0,0,0,0,0,0,0,0,0,0,0,0,0,0,0,0,0,0,0,0,0,
0,0,0,0,0,0,0,0,0,0,0,0,0,0,0,0,0,0,0,0,0,0,0,0,0,0,0,0,0,0,0,0,0,0,0,0,0,0,0,1046,1047,0,0,0,0,0,0,0,0,0,0,0,0,0,0,0,0,0,0,0,0,0,0,0,0,0,0,0,0,0,0,0,0,0,0,0,0,0,0,0,0,0,0,0,0,0,0,0,0,0,0,0,0,0,0,0,0,0,0,0,0,0,0,0,
0,0,0,0,0,0,0,0,0,0,0,0,0,0,0,0,0,0,0,0,0,0,0,0,0,0,0,0,0,0,0,0,0,0,0,0,0,0,0,1054,1055,0,0,0,0,0,0,0,0,0,0,0,0,0,0,0,0,0,0,0,0,0,0,0,0,0,0,0,0,0,0,0,0,0,0,0,0,0,0,0,0,0,0,0,0,0,0,0,0,0,0,0,0,0,0,0,0,0,0,0,0,0,0,0,
0,0,0,0,0,0,0,0,0,0,0,0,0,0,0,0,0,0,0,0,0,0,0,0,0,0,0,0,0,0,0,0,0,0,0,0,0,0,0,1038,1039,1161,1161,1161,1161,0,0,0,0,0,0,0,0,0,0,0,0,0,0,0,0,0,0,0,0,0,0,0,0,0,0,0,0,0,0,0,0,0,0,0,0,0,0,0,0,0,0,0,0,0,0,0,0,0,0,0,0,0,0,0,0,0,0,0,
0,0,0,0,0,0,0,0,0,0,0,0,0,0,0,0,0,0,0,0,0,0,0,0,0,1161,0,0,0,0,0,0,0,0,0,0,0,0,0,1038,1039,0,0,0,0,0,0,0,0,0,0,0,0,0,0,0,0,0,0,0,0,0,0,0,0,0,0,0,0,0,0,0,0,0,0,0,0,0,0,0,0,0,0,0,0,0,0,0,0,0,0,0,0,0,0,0,0,0,0,0,0,0,0,0,
0,0,0,0,0,0,0,0,0,0,0,0,0,0,0,0,0,0,0,0,0,0,0,0,0,0,1161,1161,1161,0,0,0,0,0,0,0,0,0,0,1054,1055,0,0,0,0,0,0,0,0,0,0,0,0,1161,0,0,0,0,0,0,0,0,0,0,0,0,0,0,0,0,0,0,0,0,0,0,0,0,0,0,0,0,0,0,0,0,0,0,0,0,0,0,0,0,0,0,0,0,0,0,0,0,0,0,
0,0,0,0,0,0,0,0,0,0,0,0,0,0,0,0,0,0,0,0,0,0,0,0,0,0,0,0,0,0,0,0,0,0,0,0,0,1161,0,1038,1039,0,0,0,0,0,0,0,0,0,0,0,0,0,1161,1161,1161,1161,1161,1161,0,0,0,0,0,0,0,0,0,0,0,0,0,0,0,0,0,0,0,0,0,0,0,0,0,0,0,0,0,0,0,0,0,0,0,0,0,0,0,0,0,0,0,0,
0,0,0,0,0,0,0,0,0,0,0,0,0,0,0,0,0,0,0,0,0,0,0,0,0,0,0,0,0,0,0,0,0,0,0,0,0,0,1161,1046,1047,1161,1161,1161,1161,1161,1161,1161,1161,0,0,0,0,0,0,0,0,0,0,0,0,0,0,0,0,0,0,0,0,0,0,0,0,0,0,0,0,0,0,0,0,0,0,0,0,0,0,0,0,0,0,0,0,0,0,0,0,0,0,0,0,0,0,0,
0,0,0,0,0,0,0,0,0,0,0,0,0,0,0,0,0,0,0,0,0,0,0,0,0,0,0,0,0,0,0,0,0,0,0,0,0,0,0,1054,1055,0,0,0,0,0,0,0,0,0,0,0,0,0,0,0,0,0,0,0,0,0,0,0,0,0,0,1161,0,0,0,1161,1161,0,0,0,0,0,0,0,0,0,0,0,0,0,0,0,0,0,0,0,0,0,0,0,0,0,0,0,0,0,0,0,
0,0,0,0,0,0,0,0,0,0,0,0,0,0,0,0,0,0,0,0,0,0,0,0,0,0,0,0,0,0,0,0,0,0,0,0,0,0,0,1038,1039,0,0,0,0,0,0,0,0,0,0,0,0,0,0,0,0,0,0,0,0,0,0,0,0,0,0,0,1161,1161,1161,0,0,0,0,0,0,0,0,0,0,0,0,0,0,0,0,0,0,0,0,0,0,0,0,0,0,0,0,0,0,0,0,0,
0,0,0,0,0,0,0,0,0,0,0,0,0,0,0,0,0,0,0,0,0,0,0,0,0,0,0,0,0,0,0,0,0,0,0,0,0,0,0,1038,1047,0,0,0,0,0,0,0,0,0,0,0,0,0,0,0,0,0,0,0,0,0,0,0,0,0,0,0,0,0,0,0,0,0,0,0,0,0,0,0,0,0,0,0,0,0,0,0,0,0,0,0,0,0,0,0,0,0,0,0,0,0,0,0,
0,0,0,0,0,0,0,0,0,0,0,0,0,0,0,0,0,0,0,943,944,0,0,0,0,0,0,0,0,0,0,0,0,0,0,0,1161,1161,1161,1038,1055,0,1161,0,0,0,0,0,0,0,0,0,0,0,0,0,0,943,944,0,0,0,0,0,0,0,0,0,0,0,0,0,0,0,0,0,0,0,0,0,0,0,0,0,0,0,0,0,0,0,0,0,0,0,0,0,0,0,0,0,0,0,0,0,
0,0,0,0,0,0,0,0,0,0,0,0,0,0,0,0,0,0,0,0,0,0,0,0,0,0,0,0,0,0,0,0,0,0,0,0,0,0,0,1038,1039,0,0,1161,1161,1161,1161,1161,0,0,0,0,0,0,0,0,0,0,0,0,0,0,0,0,0,0,0,0,0,0,0,0,0,0,0,0,0,0,0,0,0,0,0,0,0,0,0,0,0,0,0,0,0,0,0,0,0,0,0,0,0,0,0,0,
0,0,0,0,0,0,0,0,0,0,0,0,0,0,0,0,0,0,0,0,0,0,0,0,927,928,0,0,0,0,0,0,0,0,0,0,0,0,0,1046,1047,0,0,0,0,0,0,0,0,0,0,0,0,0,0,0,0,1161,0,0,0,0,0,0,0,0,0,0,0,0,0,0,0,0,0,0,0,0,0,0,0,0,0,0,0,0,0,0,0,0,0,0,0,0,0,0,0,0,0,0,0,0,0,0,
0,0,0,0,0,0,0,0,0,0,0,0,0,0,0,0,0,0,1161,0,0,0,0,0,0,0,0,0,0,0,1161,0,0,0,0,0,0,0,0,1038,1055,0,0,0,0,0,0,0,0,0,0,0,0,0,0,0,0,0,1161,0,0,0,0,0,0,0,0,0,0,0,0,0,0,0,0,0,0,0,0,0,0,0,0,0,0,0,0,0,0,0,0,0,0,0,0,0,0,0,0,0,0,0,0,0,
0,0,0,0,0,0,0,0,0,0,0,0,0,0,0,0,0,0,0,0,1161,1161,1161,0,0,0,1161,0,0,0,0,1161,1161,1161,1161,1161,0,0,0,1038,1039,0,0,0,0,0,0,0,0,0,0,0,0,0,0,0,0,0,0,1161,927,928,0,0,0,0,0,0,943,944,0,0,0,0,0,0,0,0,0,0,0,0,0,0,0,0,0,0,0,0,0,0,0,0,0,0,0,0,0,0,0,0,0,0,
0,0,0,0,0,0,0,0,0,0,0,0,0,0,0,0,0,0,943,944,0,0,0,1161,0,1161,0,0,0,0,0,0,0,0,0,0,0,0,0,1046,1047,0,0,0,0,0,0,0,0,0,0,0,0,0,0,0,0,0,0,0,1161,0,0,0,1161,0,0,0,0,0,0,0,0,0,0,0,0,0,0,0,0,0,0,0,0,0,0,0,0,0,0,0,0,0,0,0,0,0,0,0,0,0,0,0,
0,0,0,0,0,0,0,0,0,0,0,0,0,0,0,943,944,0,0,0,0,0,0,0,943,944,0,0,0,0,0,0,0,0,0,0,0,0,0,1054,1055,1161,1161,0,0,0,0,0,0,0,0,0,927,928,0,0,0,0,0,0,0,1161,1161,1161,0,1161,1161,1161,1161,1161,0,0,0,0,0,0,0,0,0,0,0,0,0,0,0,0,0,0,0,0,0,0,0,0,0,0,0,0,0,0,0,0,0,0,
0,0,0,0,0,0,0,0,0,0,0,0,0,0,0,0,943,944,0,0,0,927,928,0,0,0,0,0,0,0,0,0,0,0,0,0,0,0,0,1038,1039,0,0,1161,1161,1161,0,0,0,0,0,1161,1161,1161,1161,1161,0,0,0,0,0,0,0,0,0,0,0,0,0,0,0,0,0,0,0,0,0,0,0,0,0,0,0,0,0,0,0,0,0,0,0,0,0,0,0,0,0,0,0,0,0,0,0,0,
0,0,0,0,0,0,0,0,0,0,0,0,0,0,0,0,0,0,943,944,0,0,0,0,927,928,1161,1161,0,0,0,0,0,0,0,0,0,0,0,1046,1047,0,0,0,0,0,0,0,0,0,0,0,0,0,0,0,0,0,0,0,0,0,0,0,0,0,0,0,0,0,0,0,0,0,0,0,0,0,0,0,0,0,0,0,0,0,0,0,0,0,0,0,0,0,0,0,0,0,0,0,0,0,0,0,
0,0,0,0,0,0,0,0,0,0,0,0,0,0,0,943,944,0,0,0,0,0,0,1161,1161,1161,0,0,0,0,0,1177,928,0,0,0,0,0,0,1038,1039,0,0,0,0,0,0,0,0,0,0,0,0,0,0,0,0,0,0,0,0,0,0,0,0,0,0,0,0,0,0,0,0,0,0,0,0,0,0,0,0,0,0,0,0,0,0,0,0,0,0,0,0,0,0,0,0,0,0,0,0,0,0,0,
0,0,0,0,0,0,0,0,0,0,0,0,0,0,0,0,0,0,0,1161,1161,1161,1161,0,0,0,0,0,0,0,0,0,0,0,0,0,0,0,0,1038,1039,0,0,0,0,0,0,0,0,0,0,0,0,0,0,0,0,0,0,0,0,0,0,0,0,0,0,0,0,0,0,0,0,0,0,0,0,0,0,0,0,0,0,0,0,0,0,0,0,0,0,0,0,0,0,0,0,0,0,0,0,0,0,0,
0,0,0,0,0,0,0,0,0,0,0,0,0,0,0,0,0,1161,1161,0,0,0,0,0,0,0,0,0,927,928,0,0,0,0,0,943,944,0,0,1046,1047,0,0,0,0,0,0,0,0,0,0,0,0,0,0,0,0,0,0,0,0,0,943,944,0,0,0,0,0,0,0,0,0,0,0,0,0,0,0,0,0,0,0,0,0,0,0,0,0,0,0,0,0,0,0,0,0,0,0,0,0,0,0,0,
0,0,0,0,0,0,0,0,0,0,0,0,0,0,1161,1161,1161,0,0,0,0,0,0,0,0,0,0,0,0,0,0,0,0,0,0,0,0,0,0,1054,1055,0,0,0,0,943,944,0,0,0,927,928,0,0,0,0,0,0,0,0,0,0,0,0,0,0,927,928,0,0,0,0,0,927,928,0,0,0,0,0,0,0,0,0,0,0,0,0,0,0,0,0,0,0,0,0,0,0,0,0,0,0,0,0,
0,0,0,0,0,0,0,0,0,0,0,0,0,0,0,0,0,0,0,0,0,0,0,0,0,927,928,0,0,943,944,0,0,0,0,0,0,0,0,1038,1039,0,0,0,0,0,0,0,0,1185,0,0,0,943,944,0,0,0,0,0,0,0,0,0,0,0,0,0,0,0,0,0,0,0,0,0,0,0,0,0,0,0,0,0,0,0,0,0,0,0,0,0,0,0,0,0,0,0,0,0,0,0,0,0,
0,0,0,0,0,0,0,0,0,0,0,0,0,0,0,0,0,0,0,0,0,0,0,0,0,0,0,0,0,0,0,927,928,0,0,0,0,927,928,1038,1039,0,0,0,0,0,0,0,0,1193,1185,0,0,0,0,0,0,0,0,0,0,0,0,0,0,0,0,0,0,0,0,0,0,0,0,927,928,0,0,0,0,0,0,0,0,0,0,0,0,0,0,0,0,0,0,0,0,0,0,0,0,0,0,0,
0,0,0,0,0,0,0,0,0,0,0,0,0,0,0,0,0,0,0,0,0,0,0,0,0,0,943,944,0,0,0,0,0,0,943,944,0,0,0,1038,1039,927,928,0,0,0,0,0,0,1178,1193,1189,1189,1189,1185,0,0,0,0,0,0,0,0,0,0,0,0,0,0,0,0,0,0,0,0,0,0,0,0,0,0,0,0,0,0,0,0,0,0,0,0,0,0,0,0,0,0,0,0,0,0,0,0,0,
0,0,0,0,0,0,0,0,0,0,0,0,0,0,0,0,0,943,944,0,0,927,928,1089,1090,1189,1092,1093,0,0,0,0,0,0,0,0,0,0,1061,1062,1063,1064,0,0,0,0,927,928,0,0,1178,0,0,0,1193,0,0,943,944,0,0,0,0,0,0,0,0,0,0,0,0,0,0,0,0,0,0,0,0,0,0,0,0,0,0,0,0,0,0,0,0,0,0,0,0,0,0,0,0,0,0,0,0,0,
0,0,0,0,0,0,0,0,0,0,1161,0,0,0,0,927,928,0,1102,1103,1104,0,0,1097,1098,1099,1189,1101,0,0,927,928,0,0,0,0,0,0,1069,1070,1071,1072,0,1089,1090,1091,1092,1093,0,0,0,1178,0,0,0,1189,0,0,0,0,0,0,0,0,0,0,0,0,0,0,0,927,928,0,0,0,0,0,0,0,0,0,0,0,0,0,0,0,0,0,0,0,0,0,0,0,0,0,0,0,0,0,0,0,
0,0,0,0,0,0,0,0,0,0,0,0,0,0,0,0,0,0,1110,1111,1112,0,0,1105,1106,1107,1108,1109,0,0,0,1089,1090,1091,1092,943,944,0,0,0,0,0,0,1097,1098,1099,1100,1101,0,0,0,0,0,0,1178,0,1189,1189,1189,0,0,0,1189,0,0,0,0,0,0,0,0,0,0,0,0,0,0,0,0,0,0,0,0,0,0,0,0,0,0,0,0,0,0,0,0,0,0,0,0,0,0,0,0,0,
0,0,0,0,0,0,0,0,0,0,0,0,0,0,0,1161,0,0,1118,1119,1120,0,0,1113,1114,1115,1116,1117,0,0,0,1097,1098,1099,1100,1101,0,0,0,0,943,944,0,1105,1106,1107,1108,1109,0,0,0,0,0,927,928,1178,0,0,0,1189,1189,0,0,0,0,0,0,0,0,0,0,0,0,0,0,0,0,0,0,0,0,0,0,0,0,0,0,0,0,0,0,0,0,0,0,0,0,0,0,0,0,0,0,0,
0,0,0,0,0,0,0,0,0,0,0,0,0,0,0,0,0,0,1126,1127,1128,0,0,1121,1122,1123,1124,1125,0,0,0,1105,1106,1107,1108,1109,0,0,0,0,0,0,0,1113,1114,1115,1116,1117,0,0,0,0,943,944,1089,1090,1178,1092,1177,0,0,1178,0,0,0,0,0,0,0,0,0,0,0,0,0,0,0,0,0,0,0,0,0,0,0,0,0,0,0,0,0,0,0,0,0,0,0,0,0,0,0,0,0,0,
0,0,0,0,0,0,0,0,0,0,0,0,0,0,0,0,0,0,1134,1135,1136,0,0,0,1130,1131,1132,0,0,0,0,1113,1114,1115,1116,1117,0,0,0,0,0,0,0,1121,1122,1123,1124,1125,1089,1090,1091,1092,1093,0,1097,1098,1099,1100,1101,943,944,0,1178,0,0,0,0,0,0,0,0,0,0,0,0,0,0,0,0,0,0,0,0,0,0,0,0,0,0,0,0,0,0,0,0,0,0,0,0,0,0,0,0,0,
0,0,0,0,0,0,0,0,0,0,0,0,0,0,0,0,0,0,0,0,0,0,0,0,0,1102,1103,1104,0,0,0,1121,1122,1123,1124,1125,0,0,0,0,0,0,0,0,1130,1131,1132,1133,1097,1098,1099,1100,1101,0,1105,1106,1107,1108,1109,0,0,0,0,0,0,0,0,0,0,0,0,0,0,0,0,0,0,0,0,1185,0,0,0,0,0,0,0,0,0,0,0,0,0,0,0,0,0,0,0,0,0,0,0,0,
0,0,0,0,0,0,0,1161,1161,0,0,0,0,0,0,0,0,927,928,0,0,0,0,0,0,1110,1111,1112,0,0,0,0,1130,1131,1132,0,0,0,0,0,0,0,927,928,0,0,0,0,1105,1106,1107,1108,1109,0,1113,1114,1115,1116,1117,0,943,944,0,0,0,0,0,0,0,0,0,0,0,1090,1091,1092,1093,0,0,1193,0,0,0,0,0,0,0,0,0,0,0,0,0,0,0,0,0,0,0,0,0,0,0,0,
0,0,0,0,0,0,0,0,0,0,0,0,0,0,0,0,0,0,0,0,0,0,0,0,0,1118,1119,1120,1189,1189,0,0,0,0,0,0,0,0,0,0,0,0,0,0,0,0,0,0,1113,1114,1115,1116,1117,0,1121,1122,1123,1124,1125,0,0,0,0,0,0,0,0,0,0,0,0,0,1097,1098,1099,1100,1101,0,0,0,1185,0,0,0,0,0,0,0,0,0,0,0,0,0,0,0,0,0,0,0,0,0,0,0,
0,0,0,0,0,0,0,0,0,1161,0,0,0,0,0,0,0,0,0,0,1089,1090,1091,1092,1093,1126,1127,1128,0,0,0,0,927,928,0,0,0,0,0,0,0,0,0,0,0,927,928,0,1121,1122,1123,1124,1125,0,0,1130,1131,1132,1133,0,0,0,0,0,0,0,0,0,0,0,0,0,1105,1106,1107,1108,1109,0,0,1178,1193,1185,0,0,1186,1189,0,0,0,0,0,0,0,0,0,0,0,0,0,0,0,0,0,0,
0,0,0,0,0,0,0,0,0,0,1161,1161,1161,0,0,0,0,927,928,0,1097,1098,1099,1100,1101,1134,1135,1136,1090,1091,1189,1093,0,0,0,1123,0,0,0,0,1089,1090,1091,1092,1093,0,0,0,0,1130,1131,1132,1133,0,0,0,0,0,0,0,0,0,0,0,0,0,0,0,0,0,0,0,1113,1114,1115,1116,1117,0,0,0,1178,1193,1185,0,1194,0,0,0,0,0,0,0,0,0,0,0,0,0,0,0,0,0,0,0,
0,0,0,0,0,0,0,0,0,0,0,0,0,0,0,0,0,0,0,0,1105,1106,1107,1108,1109,0,0,1097,1098,1099,1100,1101,0,0,1130,1131,1132,0,0,0,1097,1098,1099,1100,1101,0,0,0,0,0,0,0,0,0,0,0,0,0,0,0,0,0,0,0,0,0,0,0,0,0,0,0,1121,1122,1123,1124,1125,0,0,0,0,1178,1193,1189,0,0,0,0,0,0,0,0,0,0,0,0,0,0,0,0,0,0,0,0,
0,0,0,0,0,0,0,0,0,0,0,0,0,0,0,0,0,0,0,0,1113,1114,1115,1116,1117,0,0,1105,1106,1107,1108,1109,0,1089,1090,1091,1092,1093,0,0,1105,1106,1107,1108,1109,0,0,0,0,0,0,0,0,0,0,0,0,0,0,0,0,0,0,0,0,0,0,0,0,0,0,0,1129,1130,1131,1132,1133,0,0,0,0,0,0,1178,0,0,0,0,0,0,0,0,0,0,0,0,0,0,0,0,0,0,0,0,
0,0,0,0,0,0,0,0,0,0,0,0,0,0,0,0,0,0,0,0,1121,1122,1123,1124,1125,0,0,1113,1114,1115,1116,1117,0,1097,1098,1099,1100,1101,0,0,1113,1114,1115,1116,1117,0,0,0,0,0,0,0,0,0,0,0,927,928,0,0,0,0,0,0,0,0,0,0,0,0,0,0,0,0,0,0,0,0,0,0,0,0,0,0,0,0,0,0,0,0,0,0,0,0,0,0,0,0,0,0,0,0,0,0,
0,0,0,0,0,0,0,0,0,0,0,0,0,927,928,0,0,0,0,0,0,1130,1131,1132,0,0,0,1121,1122,1123,1124,1189,0,1105,1106,1107,1108,1109,0,0,1121,1122,1123,1124,1125,0,0,0,0,0,0,0,0,0,0,0,0,0,0,0,0,0,0,0,0,0,0,0,0,0,0,0,0,0,0,0,0,0,0,0,0,0,0,0,0,0,0,0,0,0,0,0,0,0,0,0,0,0,0,0,0,0,0,0,
0,0,0,0,0,0,0,0,0,0,0,0,0,0,0,0,0,0,0,0,0,0,0,0,0,0,0,0,1130,1131,1132,680,0,1113,1114,1115,1116,1117,0,0,0,1130,1131,1132,1133,0,927,928,0,0,0,0,927,928,0,0,0,0,0,0,0,0,0,0,0,0,0,0,0,0,0,0,0,0,0,0,0,0,0,0,0,0,0,0,1178,0,0,0,0,0,0,0,0,0,0,0,0,0,0,0,0,0,0,0,
0,0,0,0,0,0,0,0,0,0,0,0,0,0,1102,1103,1104,0,0,0,0,0,0,0,0,0,0,0,0,0,0,680,0,1121,1122,1123,1124,1125,0,0,0,0,0,0,0,0,0,0,0,0,0,0,0,0,0,0,0,0,0,0,0,0,0,0,0,0,0,0,0,0,0,0,0,0,0,0,0,0,0,0,0,0,0,0,0,0,0,0,0,0,0,0,0,0,0,0,0,0,0,0,0,0,0,0,
0,0,0,0,0,0,0,0,0,0,0,0,0,0,1110,1111,1112,0,0,0,0,0,0,0,0,0,0,0,0,0,0,680,1189,1129,1130,1131,1132,1133,0,0,0,0,0,0,0,0,0,0,1089,1090,1091,1092,1093,0,0,0,0,0,0,0,0,0,0,0,0,0,0,0,0,0,0,0,0,0,0,0,0,0,0,0,0,0,0,0,0,0,0,0,0,0,0,0,0,0,0,0,0,0,0,0,0,0,0,0,
0,0,0,0,0,0,0,0,0,0,0,0,0,0,1118,1119,1120,0,0,0,0,0,0,0,0,0,0,0,0,0,0,0,0,0,0,0,0,0,0,0,0,0,0,1102,1103,1104,0,0,1097,1098,1099,1100,1101,0,0,0,0,0,0,0,0,0,0,0,0,0,0,0,0,0,0,0,0,0,0,0,0,0,0,0,0,0,0,0,0,0,0,0,0,0,0,0,0,0,0,0,0,0,0,0,0,0,0,0,
0,0,0,0,0,0,0,0,0,0,0,0,0,0,1126,1127,1128,1089,1090,1091,1092,1093,0,0,0,927,928,0,0,0,1189,0,0,0,0,0,0,1089,1090,1091,1092,1093,0,1110,1111,1112,0,0,1105,1106,1107,1108,1109,0,0,0,0,0,0,0,0,0,0,0,0,0,0,0,0,0,0,0,0,0,0,0,0,1189,1189,0,0,0,0,0,0,0,0,0,0,0,0,0,0,0,0,0,0,0,0,0,0,0,0,0,
0,0,0,0,0,0,0,0,0,0,0,0,0,0,1134,1135,1136,1097,1098,1099,1100,1101,0,0,0,0,0,0,0,1189,0,680,0,0,0,0,0,1097,1098,1099,1100,1101,0,1118,1119,1120,0,0,1113,1114,1115,1116,1117,0,0,0,0,0,0,0,0,0,0,0,0,0,0,0,0,0,0,0,0,0,0,0,0,0,0,0,0,0,0,0,0,0,0,0,0,0,0,0,0,0,0,0,0,0,0,0,0,0,0,0,
0,0,0,0,0,0,0,0,0,0,0,0,0,0,0,0,0,1105,1106,1107,1108,1109,0,0,0,0,0,0,0,0,0,0,1189,896,0,0,0,1105,1106,1107,1108,1109,0,1126,1127,1128,0,0,1121,1122,1123,1124,1125,0,0,0,0,0,0,0,0,0,0,0,0,0,0,0,0,0,0,0,0,0,0,0,0,0,0,0,0,0,0,0,0,0,0,0,0,0,0,0,0,0,0,0,0,0,0,0,0,0,0,0,
0,0,0,0,0,0,0,0,0,0,0,0,0,0,0,0,0,1113,1114,1115,1116,1117,0,0,0,0,927,928,1189,0,0,0,0,1189,0,0,0,1113,1114,1115,1116,1117,0,1134,1135,1136,0,0,0,1130,1131,1132,1133,0,0,0,0,0,0,0,0,0,0,0,0,0,0,0,0,0,0,0,0,0,0,0,0,0,0,0,0,0,0,0,0,0,0,0,0,0,0,0,0,0,0,0,0,0,0,0,0,0,0,0,
0,0,0,0,0,0,0,0,0,0,0,0,0,0,0,0,0,1121,1122,1123,1124,1125,0,1089,1090,1091,1092,1093,0,0,927,928,0,0,1189,1189,0,1121,1122,1123,1124,1125,1089,1093,1093,1093,1093,0,0,1104,0,0,0,0,0,0,0,0,0,0,0,0,0,0,0,0,0,0,0,0,0,0,0,0,0,0,0,0,0,0,0,0,0,0,0,0,0,0,0,0,0,0,0,0,0,0,0,0,0,0,0,0,0,0,
0,0,0,0,0,0,0,0,0,0,0,0,0,0,0,0,0,0,1130,1131,1132,0,0,1097,1098,1099,1100,1189,0,0,0,0,0,0,0,0,1189,1189,1130,1131,1132,1133,1097,1093,1093,1093,1093,1189,1189,1189,1189,1189,1189,1189,1189,1189,0,0,0,0,0,0,0,0,0,0,0,0,0,0,0,0,0,0,0,0,0,0,0,0,0,0,0,0,0,0,0,0,0,0,0,0,0,0,0,0,0,0,0,0,0,0,0,0,
0,0,0,0,0,0,0,0,0,0,0,0,0,0,0,0,0,0,0,0,0,0,0,1105,1106,1107,1108,1109,0,0,0,0,0,0,0,0,0,0,1189,0,0,0,1093,1189,1189,1189,1189,0,0,0,1089,1090,1091,1092,1093,0,1189,1189,0,0,0,1089,1090,1091,1092,1093,0,0,0,0,0,0,0,0,0,0,0,0,0,0,0,0,0,0,0,0,0,0,0,0,0,0,0,0,0,0,0,0,0,0,0,0,0,0,
0,0,0,0,0,0,0,0,0,0,0,0,0,0,0,0,0,0,0,0,0,0,0,1113,1114,1115,1116,1117,1102,1103,1104,0,0,0,0,0,0,0,0,1189,1189,1189,1189,1093,1093,1093,1093,0,0,0,1097,1098,1099,1100,1101,0,0,0,1189,1189,0,1097,1098,1099,1100,1101,0,0,0,0,0,1089,1090,1091,1092,1093,0,0,0,0,0,0,0,0,0,0,0,0,0,0,0,0,0,0,0,0,0,0,0,0,0,0,0,0,
0,0,0,0,0,0,0,0,0,0,0,0,0,0,0,0,0,0,0,0,0,0,0,1121,1122,1123,1124,1125,1110,1111,1112,0,0,0,0,927,928,0,0,0,0,0,1121,1122,1093,1093,1093,0,0,1136,1105,1106,1107,1108,1109,0,0,0,0,0,1189,1105,1106,1107,1108,1109,0,0,0,0,1089,1097,1098,1099,1100,1101,0,0,0,0,0,0,0,0,0,0,0,0,0,0,0,0,0,0,0,0,0,0,0,0,0,0,0,0,
0,0,0,0,0,0,0,0,0,0,0,0,0,0,0,0,0,0,0,0,0,0,0,0,1130,1131,1132,0,1118,1119,1120,0,0,1089,1090,1091,1092,1093,0,0,0,0,0,1093,1093,1093,0,0,0,0,1113,1114,1115,1116,1117,0,0,0,0,0,0,1113,1114,1115,1116,1117,0,0,0,0,1097,1105,1106,1107,1108,1109,0,0,0,0,0,0,0,0,0,0,0,0,0,0,0,0,0,0,0,0,0,0,0,0,0,0,0,0,
0,0,0,0,0,0,0,0,0,0,0,0,0,0,0,0,0,0,0,0,0,0,0,0,0,0,0,0,1126,1127,1128,0,0,1097,1098,1099,1100,1101,0,0,0,0,0,1089,1090,1091,1092,1093,1102,1103,1121,1122,1123,1124,1125,1091,0,0,0,0,0,1189,1122,1123,1124,1125,0,0,0,0,0,1113,1114,1115,1116,1117,0,0,0,0,0,0,0,0,0,0,0,0,0,0,0,0,0,0,0,0,0,0,0,0,0,0,0,0,
0,0,0,0,0,0,0,0,0,0,0,0,0,0,0,0,0,0,0,0,0,0,0,0,0,0,0,0,1134,1135,1136,0,0,1105,1106,1107,1108,1109,0,0,0,0,0,1097,1098,1099,1100,1101,1110,1111,1112,1130,1131,1132,1098,1099,1100,1101,0,0,0,0,1130,1131,1132,0,0,0,0,0,0,0,1122,1123,1124,1125,0,0,0,0,0,0,0,0,0,0,0,0,0,0,0,0,0,0,0,0,0,0,0,0,0,0,0,0,
0,0,0,0,0,0,0,0,0,0,0,0,0,0,0,0,0,0,0,0,0,0,0,0,0,0,0,0,0,1089,1090,1091,1092,1113,1114,1115,1116,1117,0,0,0,0,0,1105,1106,1107,1108,1109,1118,1119,1120,0,0,1105,1106,1107,1108,1109,0,0,0,0,0,0,0,0,0,0,0,1089,1090,1091,1130,1131,1132,0,0,0,0,0,0,0,0,0,0,0,0,0,0,0,0,0,0,0,0,0,0,0,0,0,0,0,0,0,
0,0,0,0,0,0,0,0,0,0,0,0,0,0,0,0,0,0,0,0,0,0,0,0,0,0,0,0,0,1097,1098,1099,1100,1121,1122,1123,1124,1125,0,0,0,0,0,1113,1114,1115,1116,1117,1126,1127,1128,0,0,1113,1114,1115,1116,1117,0,0,1189,0,0,0,0,0,0,0,0,1097,1098,1099,1100,1101,0,0,0,0,0,0,0,0,0,0,0,0,1148,1149,1150,1148,1149,1150,1151,1148,1149,1150,1151,1148,1149,1150,1151,1148,1149,1150,
0,0,0,0,0,0,0,0,0,0,0,0,0,0,0,0,0,0,0,0,0,0,0,0,0,0,0,0,0,1105,1106,1107,1108,0,1130,1131,1132,0,0,0,0,0,0,1121,1122,1123,1124,1125,1134,1135,1136,0,0,0,1122,1123,1124,1125,0,0,0,0,0,927,928,0,0,0,0,1105,1106,1107,1108,1109,0,0,0,0,0,0,0,0,0,0,0,0,0,0,0,0,0,0,0,0,0,0,0,0,0,0,0,0,0,0,
0,0,0,0,0,0,0,0,0,0,0,0,0,0,0,0,0,0,0,0,0,0,0,0,0,0,0,0,0,1113,1114,1115,1116,1117,0,0,0,0,0,927,928,0,0,0,1130,1131,1132,0,0,0,0,0,0,0,1130,1131,1132,927,928,1189,0,0,0,0,0,0,1102,1103,1104,1113,1114,1115,1116,1117,0,0,0,0,0,0,0,0,0,0,0,1189,1189,0,0,0,0,0,0,0,0,0,0,0,0,0,0,0,0,0,
0,0,0,0,0,0,0,0,0,0,0,0,0,0,0,0,0,0,0,0,0,0,0,0,0,0,0,0,1189,1121,1122,1123,1124,1125,0,0,0,0,0,0,0,0,0,0,0,0,0,0,0,0,0,0,0,0,0,0,0,0,0,0,0,0,0,0,0,0,1110,1111,1112,0,1122,1123,1124,1125,0,0,0,0,0,0,0,0,0,0,1189,0,0,0,0,0,0,0,0,0,0,0,0,0,0,0,0,0,0,0,
0,0,0,0,0,0,0,0,0,0,0,0,0,0,0,0,0,0,0,0,0,0,0,0,0,0,0,0,0,1189,1130,1131,1132,0,0,0,0,0,0,0,0,0,0,0,0,0,0,0,0,0,0,0,0,0,0,0,0,0,0,0,1189,0,0,0,0,0,1118,1119,1120,0,1130,1131,1132,0,0,0,0,0,0,0,0,0,0,1189,0,0,0,0,0,0,0,0,0,0,0,0,0,0,0,0,0,0,0,0,
0,0,0,0,0,0,0,0,0,0,0,0,0,0,0,0,0,0,0,0,0,0,0,0,0,0,0,0,0,0,1189,1189,0,0,0,0,0,0,0,0,0,0,0,0,0,0,0,0,0,0,0,0,0,0,0,0,0,0,0,0,0,1189,0,0,0,0,1126,1127,1128,0,0,0,0,0,0,0,0,0,0,0,0,0,0,0,0,0,0,0,0,0,0,0,0,0,0,0,0,0,0,0,0,0,0,0,
0,0,0,0,0,0,0,0,0,0,0,0,0,0,0,0,0,0,0,0,0,0,0,0,0,0,0,0,0,0,0,0,1189,1189,0,0,0,0,0,0,0,0,0,0,0,0,0,0,1189,1189,1189,1189,0,0,0,0,0,0,0,0,0,0,1189,0,0,0,1134,1135,1136,0,0,0,0,0,0,0,0,0,0,1089,1090,1091,1092,1093,0,0,0,0,0,0,0,0,0,0,0,0,0,0,0,0,0,0,0,0,
0,0,0,0,0,0,0,0,0,0,0,0,0,0,0,0,0,0,0,0,0,0,0,0,0,0,0,0,0,0,0,0,0,0,0,0,0,0,0,0,0,0,0,0,1029,1030,1031,1032,0,0,0,0,1189,1189,1189,1189,0,1189,1189,1189,1189,0,0,0,0,0,0,0,0,0,0,0,0,0,1089,1090,1091,1092,1093,1097,1098,1099,1100,1101,0,0,0,0,0,0,0,0,0,0,0,0,0,0,0,0,0,0,0,0,
0,0,0,0,0,0,0,0,0,0,0,0,0,0,0,0,0,0,0,0,0,0,0,0,0,0,0,0,0,0,0,0,0,0,1189,0,0,0,0,0,1189,1189,1189,1189,1189,1189,0,1189,0,0,0,0,0,0,0,0,1189,0,0,0,0,0,0,1189,0,0,0,1089,1090,1091,1092,1093,0,0,1097,1098,1099,1100,1101,1105,1106,1107,1108,1109,0,0,0,0,0,0,0,0,0,0,0,0,0,0,0,0,0,0,0,0,
0,0,0,0,0,0,0,0,0,0,0,0,0,0,0,0,0,0,0,0,0,0,0,0,0,0,0,0,0,0,0,0,0,0,0,1189,1189,1189,1189,1189,1089,1090,1091,1092,1093,0,0,0,0,0,0,0,0,0,0,0,0,0,0,0,0,0,0,0,1189,0,0,1097,1098,1099,1100,1101,0,0,1105,1106,1107,1108,1109,1113,1114,1115,1116,1117,0,0,0,0,0,0,0,0,0,0,0,0,0,0,0,0,0,0,0,0,
0,0,0,0,0,0,0,0,0,0,0,0,0,0,0,0,0,0,0,0,0,0,0,0,0,0,0,0,0,0,0,0,0,0,0,0,0,0,0,0,1097,1098,1099,1100,1101,0,0,0,0,1089,1090,1091,1092,1093,0,0,0,0,0,0,0,0,0,0,0,1189,0,1105,1106,1107,1108,1109,0,0,1113,1114,1115,1116,1117,1121,1122,1123,1124,1125,0,0,0,0,0,0,0,0,0,0,0,0,0,0,0,0,0,0,0,0,
0,0,0,0,0,0,0,0,0,0,0,0,0,0,0,0,0,0,0,0,0,0,0,0,0,0,0,0,0,0,0,0,0,0,0,0,0,0,0,0,1105,1106,1107,1108,1109,0,0,0,0,1097,1098,1099,1100,1101,0,0,0,0,0,0,0,0,0,0,0,0,0,1113,1114,1115,1116,1117,0,0,1121,1122,1123,1124,1125,0,1130,1131,1132,0,0,0,0,0,0,0,0,0,0,0,0,0,0,0,0,0,0,0,0,0,
0,0,0,0,0,0,0,0,0,0,0,0,0,0,0,0,0,0,0,0,0,0,0,0,0,0,0,0,0,0,0,0,0,0,0,0,0,0,0,0,1113,1114,1115,1116,1117,0,0,1092,0,1105,1106,1107,1108,1109,0,0,0,0,0,0,0,0,0,0,0,0,1189,1121,1122,1123,1124,1125,1091,1092,0,1130,1131,1132,0,0,0,0,0,1189,0,0,0,0,0,0,0,0,0,0,0,0,0,0,0,0,0,0,0,0,
0,0,0,0,0,0,0,0,0,0,0,0,0,0,0,0,0,0,0,0,0,0,0,0,0,0,0,0,0,0,0,0,0,0,0,0,0,0,0,0,1121,1122,1123,1124,1125,0,0,0,0,1113,1114,1115,1116,1117,0,0,0,0,0,0,0,0,0,0,0,0,0,0,1130,1131,1132,1118,1099,1100,1101,0,0,0,0,1189,0,0,1189,0,0,0,0,0,0,0,0,0,0,0,0,0,0,0,0,0,0,0,0,0,
0,0,0,0,0,0,0,0,0,0,0,0,0,0,0,0,0,0,0,0,0,0,0,0,0,0,0,0,0,0,0,0,0,0,0,0,0,0,0,0,0,1130,1131,1132,1089,1090,1091,1092,1093,1121,1122,1123,1124,1125,0,0,0,0,0,0,0,0,0,0,0,0,0,1189,1189,0,1105,1106,1107,1108,1109,0,1189,0,1189,0,1189,0,0,0,0,0,0,0,0,0,0,0,0,0,0,0,0,0,0,0,0,0,0,0,
0,0,0,0,0,0,0,0,0,0,0,0,0,0,0,0,0,0,0,0,0,0,0,0,0,0,0,0,0,0,0,0,0,0,0,0,0,0,0,0,0,0,0,0,1097,1098,1099,1100,1101,0,1130,1131,1132,0,0,0,0,0,0,0,0,0,0,0,0,0,0,0,0,0,1113,1114,1115,1116,1117,1103,1104,1189,0,0,0,0,0,0,0,0,0,0,0,0,0,0,0,0,0,0,0,0,0,0,0,0,0,0,
0,0,0,0,0,0,0,0,0,0,0,0,0,0,0,0,0,0,0,0,0,0,0,0,0,0,0,0,0,0,0,0,0,0,0,0,0,0,0,0,0,0,0,0,1105,1106,1107,1108,1109,0,0,0,0,0,0,0,0,0,0,0,0,0,0,0,0,0,0,0,0,1189,1121,1122,1123,1124,1125,1111,1112,0,0,0,0,0,0,0,0,0,0,0,0,0,0,0,0,0,0,0,0,0,0,0,0,0,0,0,
0,0,0,0,0,0,0,0,0,0,0,0,0,0,0,0,0,0,0,0,0,0,0,0,0,0,0,0,0,0,0,0,0,0,0,0,0,0,0,0,0,0,0,0,1113,1114,1115,1116,1117,0,0,0,0,0,0,0,0,0,0,0,0,0,0,0,0,0,0,0,0,0,0,1130,1131,1132,1118,1119,1120,0,0,0,0,0,0,0,0,0,0,0,0,0,0,0,0,0,0,0,0,0,0,0,0,0,0,0,
0,0,0,0,0,0,0,0,0,0,0,0,0,0,0,0,0,0,0,0,0,0,0,0,0,0,0,0,0,0,0,0,0,0,0,0,0,0,0,0,0,0,0,0,1121,1122,1123,1124,1125,0,0,0,0,0,0,0,0,0,0,0,0,0,0,0,0,0,0,0,0,0,0,0,0,0,1126,1127,1128,0,0,0,0,0,0,0,0,0,0,0,0,0,0,0,0,0,0,0,0,0,0,0,0,0,0,0,
0,0,0,0,0,0,0,0,0,0,0,0,0,0,0,0,0,0,0,0,0,0,0,0,0,0,0,0,0,0,0,0,0,0,0,0,0,0,1189,1189,1189,0,0,0,0,1130,1131,1132,0,0,0,0,1189,1189,1189,0,0,0,0,0,0,0,0,0,0,0,0,0,0,0,0,0,0,0,1134,1135,1136,0,0,0,0,0,0,0,0,0,0,0,0,0,0,0,0,0,0,0,0,0,0,0,0,0,0,0,
0,0,0,0,0,0,0,0,0,0,0,0,0,0,0,0,0,0,0,0,0,0,0,0,0,0,0,0,0,0,0,0,0,0,0,0,0,0,0,0,0,1189,1189,0,0,0,0,1029,1030,1031,1032,1189,0,0,0,0,0,0,0,0,0,0,0,0,0,0,0,0,0,0,0,0,0,0,0,0,0,0,0,0,0,0,0,0,0,0,0,0,0,0,0,0,0,0,0,0,0,0,0,0,0,0,0,0,
0,0,0,0,0,0,0,0,0,0,0,0,0,0,0,0,0,0,0,0,0,0,0,0,0,0,0,0,0,0,0,0,0,0,0,0,0,0,0,0,0,0,0,1189,1189,1189,1189,1189,1189,1189,1189,0,0,0,0,0,0,0,0,0,0,0,0,0,0,0,0,0,0,0,0,0,0,0,0,0,0,0,0,0,0,0,0,0,0,0,0,0,0,0,0,0,0,0,0,0,0,0,0,0,0,0,0,0,
0,0,0,0,0,0,0,0,0,0,0,0,0,0,0,0,0,0,0,0,0,0,0,0,0,0,0,0,0,0,0,0,0,0,0,0,0,0,0,0,0,0,0,0,0,0,0,0,0,0,0,0,0,0,0,0,0,0,0,0,0,0,0,0,0,0,0,0,0,0,0,0,0,0,0,0,0,0,0,0,0,0,0,0,0,0,0,0,0,0,0,0,0,0,0,0,0,0,0,0,0,0,0,0,
0,0,0,0,0,0,0,0,0,0,0,0,0,0,0,0,0,0,0,0,0,0,0,0,0,0,0,0,0,0,0,0,0,0,0,0,0,0,0,0,0,0,0,0,0,0,0,0,0,0,0,0,0,0,0,0,0,0,0,0,0,0,0,0,0,0,0,0,0,0,0,0,0,0,0,0,0,0,0,0,0,0,0,0,0,0,0,0,0,0,0,0,0,0,0,0,0,0,0,0,0,0,0,0,
0,0,0,0,0,0,0,0,0,0,0,0,0,0,0,0,0,0,0,0,0,0,0,0,0,0,0,0,0,0,0,0,0,0,0,0,0,0,0,0,0,0,0,0,0,0,0,0,0,0,0,0,0,0,0,0,0,0,0,0,0,0,0,0,0,0,0,0,0,0,0,0,0,0,0,0,0,0,0,0,0,0,0,0,0,0,0,0,0,0,0,0,0,0,0,0,0,0,0,0,0,0,0,0,
0,0,0,0,0,0,0,0,0,0,0,0,0,0,0,0,0,0,0,0,0,0,0,0,0,0,0,0,0,0,0,0,0,0,0,0,0,0,0,0,0,0,0,0,0,0,0,0,0,0,0,0,0,0,0,0,0,0,0,0,0,0,0,0,0,0,0,0,0,0,0,0,0,0,0,0,0,0,0,0,0,0,0,0,0,0,0,0,0,0,0,0,0,0,0,0,0,0,0,0,0,0,0,0,
0,0,0,0,0,0,0,0,0,0,0,0,0,0,0,0,0,0,0,0,0,0,0,0,0,0,0,0,0,0,0,0,0,0,0,0,0,0,0,0,0,0,0,0,0,0,0,0,0,0,0,0,0,0,0,0,0,0,0,0,0,0,0,0,0,0,0,0,0,0,0,0,0,0,0,0,0,0,0,0,0,0,0,0,0,0,0,0,0,0,0,0,0,0,0,0,0,0,0,0,0,0,0,0,
0,0,0,0,0,0,0,0,0,0,0,0,0,0,0,0,0,0,0,0,0,0,0,0,0,0,0,0,0,0,0,0,0,0,0,0,0,0,0,0,0,0,0,0,0,0,0,0,0,0,0,0,0,0,0,0,0,0,0,0,0,0,0,0,0,0,0,0,0,0,0,0,0,0,0,0,0,0,0,0,0,0,0,0,0,0,0,0,0,0,0,0,0,0,0,0,0,0,0,0,0,0,0,0,
0,0,0,0,0,0,0,0,0,0,0,0,0,0,0,0,0,0,0,0,0,0,0,0,0,0,0,0,0,0,0,0,0,0,0,0,0,0,0,0,0,0,0,0,0,0,0,0,0,0,0,0,0,0,0,0,0,0,0,0,0,0,0,0,0,0,0,0,0,0,0,0,0,0,0,0,0,0,0,0,0,0,0,0,0,0,0,0,0,0,0,0,0,0,0,0,0,0,0,0,0,0,0,0,
0,0,0,0,0,0,0,0,0,0,0,0,0,0,0,0,0,0,0,0,0,0,0,0,0,0,0,0,0,0,0,0,0,0,0,0,0,0,0,0,0,0,0,0,0,0,0,0,0,0,0,0,0,0,0,0,0,0,0,0,0,0,0,0,0,0,0,0,0,0,0,0,0,0,0,0,0,0,0,0,0,0,0,0,0,0,0,0,0,0,0,0,0,0,0,0,0,0,0,0,0,0,0,0,
0,0,0,0,0,0,0,0,0,0,0,0,0,0,0,0,0,0,0,0,0,0,0,0,0,0,0,0,0,0,0,0,0,0,0,0,0,0,0,0,0,0,0,0,0,0,0,0,0,0,0,0,0,0,0,0,0,0,0,0,0,0,0,0,0,0,0,0,0,0,0,0,0,0,0,0,0,0,0,0,0,0,0,0,0,0,0,0,0,0,0,0,0,0,0,0,0,0,0,0,0,0,0,0,
0,0,0,0,0,0,0,0,0,0,0,0,0,0,0,0,0,0,0,0,0,0,0,0,0,0,0,0,0,0,0,0,0,0,0,0,0,0,0,0,0,0,0,0,0,0,0,0,0,0,0,0,0,0,0,0,0,0,0,0,0,0,0,0,0,0,0,0,0,0,0,0,0,0,0,0,0,0,0,0,0,0,0,0,0,0,0,0,0,0,0,0,0,0,0,0,0,0,0,0,0,0,0,0,
0,0,0,0,0,0,0,0,0,0,0,0,0,0,0,0,0,0,0,0,0,0,0,0,0,0,0,0,0,0,0,0,0,0,0,0,0,0,0,0,0,0,0,0,0,0,0,0,0,0,0,0,0,0,0,0,0,0,0,0,0,0,0,0,0,0,0,0,0,0,0,0,0,0,0,0,0,0,0,0,0,0,0,0,0,0,0,0,0,0,0,0,0,0,0,0,0,0,0,0,0,0,0,0,
0,0,0,0,0,0,0,0,0,0,0,0,0,0,0,0,0,0,0,0,0,0,0,0,0,0,0,0,0,0,0,0,0,0,0,0,0,0,0,0,0,0,0,0,0,0,0,0,0,0,0,0,0,0,0,0,0,0,0,0,0,0,0,0,0,0,0,0,0,0,0,0,0,0,0,0,0,0,0,0,0,0,0,0,0,0,0,0,0,0,0,0,0,0,0,0,0,0,0,0,0,0,0,0,
0,0,0,0,0,0,0,0,0,0,0,0,0,0,0,0,0,0,0,0,0,0,0,0,0,0,0,0,0,0,0,0,0,0,0,0,0,0,0,0,0,0,0,0,0,0,0,0,0,0,0,0,0,0,0,0,0,0,0,0,0,0,0,0,0,0,0,0,0,0,0,0,0,0,0,0,0,0,0,0,0,0,0,0,0,0,0,0,0,0,0,0,0,0,0,0,0,0,0,0,0,0,0,0,
0,0,0,0,0,0,0,0,0,0,0,0,0,0,0,0,0,0,0,0,0,0,0,0,0,0,0,0,0,0,0,0,0,0,0,0,0,0,0,0,0,0,0,0,0,0,0,0,0,0,0,0,0,0,0,0,0,0,0,0,0,0,0,0,0,0,0,0,0,0,0,0,0,0,0,0,0,0,0,0,0,0,0,0,0,0,0,0,0,0,0,0,0,0,0,0,0,0,0,0,0,0,0,0,
0,0,0,0,0,0,0,0,0,0,0,0,0,0,0,0,0,0,0,0,0,0,0,0,0,0,0,0,0,0,0,0,0,0,0,0,0,0,0,0,0,0,0,0,0,0,0,0,0,0,0,0,0,0,0,0,0,0,0,0,0,0,0,0,0,0,0,0,0,0,0,0,0,0,0,0,0,0,0,0,0,0,0,0,0,0,0,0,0,0,0,0,0,0,0,0,0,0,0,0,0,0,0,0,
0,0,0,0,0,0,0,0,0,0,0,0,0,0,0,0,0,0,0,0,0,0,0,0,0,0,0,0,0,0,0,0,0,0,0,0,0,0,0,0,0,0,0,0,0,0,0,0,0,0,0,0,0,0,0,0,0,0,0,0,0,0,0,0,0,0,0,0,0,0,0,0,0,0,0,0,0,0,0,0,0,0,0,0,0,0,0,0,0,0,0,0,0,0,0,0,0,0,0,0,0,0,0,0
</data>
 </layer>
 <layer id="3" name="Tile Layer 3" width="104" height="100">
  <data encoding="csv">
0,0,0,0,0,0,0,0,0,0,0,0,0,0,0,0,0,0,0,0,0,0,0,0,0,0,0,0,0,0,0,0,0,0,0,0,0,0,0,0,0,0,0,0,0,0,0,0,0,0,0,0,0,0,0,0,0,0,0,0,0,0,0,0,0,0,0,0,0,0,0,0,0,0,0,0,0,0,0,0,0,0,0,0,0,0,0,0,0,0,0,0,0,0,0,0,0,0,0,0,0,0,0,0,
0,0,0,0,0,0,0,0,0,0,0,0,0,0,0,0,0,0,0,0,0,0,0,0,0,0,0,0,0,0,0,0,0,0,0,0,0,0,0,0,0,0,0,0,0,0,0,0,0,0,0,0,0,0,0,0,0,0,0,0,0,0,0,0,0,0,0,0,0,0,0,0,0,0,0,0,0,0,0,0,0,0,0,0,0,0,0,0,0,0,0,0,0,0,0,0,0,0,0,0,0,0,0,0,
0,0,0,0,0,0,0,0,0,0,0,0,0,0,0,0,0,0,0,0,0,0,0,0,0,0,0,0,0,0,0,0,0,0,0,0,0,0,0,0,0,0,0,0,0,0,0,0,0,0,0,0,0,0,0,0,0,0,0,0,0,0,0,0,0,0,0,0,0,0,0,0,0,0,0,0,0,0,0,0,0,0,0,0,0,0,0,0,0,0,0,0,0,0,0,0,0,0,0,0,0,0,0,0,
0,0,0,0,0,0,0,0,0,0,0,0,0,0,0,0,0,0,0,0,0,0,0,0,0,0,0,0,0,0,0,0,0,0,0,0,0,0,0,0,0,0,0,0,0,0,0,0,0,0,0,0,0,0,0,0,0,0,0,0,0,0,0,0,0,0,0,0,0,0,0,0,0,0,0,0,0,0,0,0,0,0,0,0,0,0,0,0,0,0,0,0,0,0,0,0,0,0,0,0,0,0,0,0,
0,0,0,0,0,0,0,0,0,0,0,0,0,0,0,0,0,0,0,0,0,0,0,0,0,0,0,0,0,0,0,0,0,0,0,0,0,0,0,0,0,0,0,0,0,0,0,0,0,0,0,0,0,0,0,0,0,0,0,0,0,0,0,0,0,0,0,0,0,0,0,0,0,0,0,0,0,0,0,0,0,0,0,0,0,0,0,0,0,0,0,0,0,0,0,0,0,0,0,0,0,0,0,0,
0,0,0,0,0,0,0,0,0,0,0,0,0,0,0,0,0,0,0,0,0,0,0,0,0,0,0,0,0,0,0,0,0,0,0,0,0,0,0,0,0,0,0,0,0,0,0,0,0,0,0,0,0,0,0,0,0,0,0,0,0,0,0,0,0,0,0,0,0,0,0,0,0,0,0,0,0,0,0,0,0,0,0,0,0,0,0,0,0,0,0,0,0,0,0,0,0,0,0,0,0,0,0,0,
0,0,0,0,0,0,0,0,0,0,0,0,0,0,0,0,0,0,0,0,0,0,0,0,0,0,0,0,0,0,0,0,0,0,0,0,0,0,0,0,0,0,0,0,0,0,0,0,0,0,0,0,0,0,0,0,0,0,0,0,0,0,0,0,0,0,0,0,0,0,0,0,0,0,0,0,0,0,0,0,0,0,0,0,0,0,0,0,0,0,0,0,0,0,0,0,0,0,0,0,0,0,0,0,
0,0,0,0,0,0,0,0,0,0,0,0,0,0,0,0,0,0,0,0,0,0,0,0,0,0,0,0,0,0,0,0,0,0,0,0,0,0,0,0,0,0,0,0,0,0,0,0,0,0,0,0,0,0,0,0,0,0,0,0,0,0,0,0,0,0,0,0,0,0,0,0,0,0,0,0,0,0,0,0,0,0,0,0,0,0,0,0,0,0,0,0,0,0,0,0,0,0,0,0,0,0,0,0,
0,0,0,0,0,0,0,0,0,0,0,0,0,0,0,0,0,0,0,0,0,0,0,0,0,0,0,0,0,0,0,0,0,0,0,0,0,0,0,0,0,0,0,0,0,0,0,0,0,0,0,0,0,0,0,0,0,0,0,0,0,0,0,0,0,0,0,0,0,0,0,0,0,0,0,0,0,0,0,0,0,0,0,0,0,0,0,0,0,0,0,0,0,0,0,0,0,0,0,0,0,0,0,0,
0,0,0,0,0,0,0,0,0,0,0,0,0,0,0,0,0,0,0,0,0,0,0,0,0,0,0,0,0,0,0,0,0,0,0,0,0,0,0,0,0,0,0,0,0,0,0,0,0,0,0,0,0,0,0,0,0,0,0,0,0,0,0,0,0,0,0,0,0,0,0,0,0,0,0,0,0,0,0,0,0,0,0,0,0,0,0,0,0,0,0,0,0,0,0,0,0,0,0,0,0,0,0,0,
0,0,0,0,0,0,0,0,0,0,0,0,0,0,0,0,0,0,0,0,0,0,0,0,0,0,0,0,0,0,0,0,0,0,0,0,0,0,0,0,0,0,0,0,0,0,0,0,0,0,0,0,0,0,0,0,0,0,0,0,0,0,0,0,0,0,0,0,0,0,0,0,0,0,0,0,0,0,0,0,0,0,0,0,0,0,0,0,0,0,0,0,0,0,0,0,0,0,0,0,0,0,0,0,
0,0,0,0,0,0,0,0,0,0,0,0,0,0,0,0,0,0,0,0,0,0,0,0,0,0,0,0,0,0,0,0,0,0,0,0,0,0,0,0,0,0,0,0,0,0,0,0,0,0,0,0,0,0,0,0,0,0,0,0,0,0,0,0,0,0,0,0,0,0,0,0,0,0,0,0,0,0,0,0,0,0,0,0,0,0,0,0,0,0,0,0,0,0,0,0,0,0,0,0,0,0,0,0,
0,0,0,0,0,0,0,0,0,0,0,0,0,0,0,0,0,0,0,0,0,0,0,0,0,0,0,0,0,0,0,0,0,0,0,0,0,0,0,0,0,0,0,0,0,0,0,0,0,0,0,0,0,0,0,0,0,0,0,0,0,0,0,0,0,0,0,0,0,0,0,0,0,0,0,0,0,0,0,0,0,0,0,0,0,0,0,0,0,0,0,0,0,0,0,0,0,0,0,0,0,0,0,0,
0,0,0,0,0,0,0,0,0,0,0,0,0,0,0,0,0,0,0,0,0,0,0,0,0,0,0,0,0,0,0,0,0,0,0,0,0,0,0,0,0,0,0,0,0,0,0,0,0,0,0,0,0,0,0,0,0,0,0,0,0,0,0,0,0,0,0,0,0,0,0,0,0,0,0,0,0,0,0,0,0,0,0,0,0,0,0,0,0,0,0,0,0,0,0,0,0,0,0,0,0,0,0,0,
0,0,0,0,0,0,0,0,0,0,0,0,0,0,0,0,0,0,0,0,0,0,0,0,0,0,0,0,0,0,0,0,0,0,0,0,0,0,0,0,0,0,0,0,0,0,0,0,0,0,0,0,0,0,0,0,0,0,0,0,0,0,0,0,0,0,0,0,0,0,0,0,0,0,0,0,0,0,0,0,0,0,0,0,0,0,0,0,0,0,0,0,0,0,0,0,0,0,0,0,0,0,0,0,
0,0,0,0,0,0,0,0,0,0,0,0,0,0,0,0,0,0,0,0,0,0,0,0,0,0,0,0,0,0,0,0,0,0,0,0,0,0,0,0,0,0,0,0,0,0,0,0,0,0,0,0,0,0,0,0,0,0,0,0,0,0,0,0,0,0,0,0,0,0,0,0,0,0,0,0,0,0,0,0,0,0,0,0,0,0,0,0,0,0,0,0,0,0,0,0,0,0,0,0,0,0,0,0,
0,0,0,0,0,0,0,0,0,0,0,0,0,0,0,0,0,0,0,0,0,0,0,0,0,0,0,0,0,0,0,0,0,0,0,0,0,0,0,0,0,0,0,0,0,0,0,0,0,0,0,0,0,0,0,0,0,0,0,0,0,0,0,0,0,0,0,0,0,0,0,0,0,0,0,0,0,0,0,0,0,0,0,0,0,0,0,0,0,0,0,0,0,0,0,0,0,0,0,0,0,0,0,0,
0,0,0,0,0,0,0,0,0,0,0,0,0,0,0,0,0,0,0,0,0,0,0,0,0,0,0,0,0,0,0,0,0,0,0,0,0,0,0,0,0,0,0,0,0,0,0,0,0,0,0,0,0,0,0,0,0,0,0,0,0,0,0,0,0,0,0,0,0,0,0,0,0,0,0,0,0,0,0,0,0,0,0,0,0,0,0,0,0,0,0,0,0,0,0,0,0,0,0,0,0,0,0,0,
0,0,0,0,0,0,0,0,0,0,0,0,0,0,0,0,0,0,0,0,0,0,0,0,0,0,0,0,0,0,0,0,0,0,0,0,0,0,0,0,0,0,0,0,0,0,0,0,0,0,0,0,0,0,0,0,0,0,0,0,0,0,0,0,0,0,0,0,0,0,0,0,0,0,0,0,0,0,0,0,0,0,0,0,0,0,0,0,0,0,0,0,0,0,0,0,0,0,0,0,0,0,0,0,
0,0,0,0,0,0,0,0,0,0,0,0,0,0,0,0,0,0,0,0,0,0,0,0,0,0,0,0,0,0,0,0,0,0,0,0,0,0,0,0,0,0,0,0,0,0,0,0,0,0,0,0,0,0,0,0,0,0,0,0,0,0,0,0,0,0,0,0,0,0,0,0,0,0,0,0,0,0,0,0,0,0,0,0,0,0,0,0,0,0,0,0,0,0,0,0,0,0,0,0,0,0,0,0,
0,0,0,0,0,0,0,0,0,0,0,0,0,0,0,0,0,0,0,0,0,0,0,0,0,0,0,0,0,0,0,0,0,0,0,0,0,0,0,0,0,0,0,0,0,0,0,0,0,0,0,0,0,0,0,0,0,0,0,0,0,0,0,0,0,0,0,0,0,0,0,0,0,0,0,0,0,0,0,0,0,0,0,0,0,0,0,0,0,0,0,0,0,0,0,0,0,0,0,0,0,0,0,0,
0,0,0,0,0,0,0,0,0,0,0,0,0,0,0,0,0,0,0,0,0,0,0,0,0,0,0,0,0,0,0,0,0,0,0,0,0,0,0,0,0,0,0,0,0,0,0,0,0,0,0,0,0,0,0,0,0,0,0,0,0,0,0,0,0,0,0,0,0,0,0,0,0,0,0,0,0,0,0,0,0,0,0,0,0,0,0,0,0,0,0,0,0,0,0,0,0,0,0,0,0,0,0,0,
0,0,0,0,0,0,0,0,0,0,0,0,0,0,0,0,0,0,0,0,0,0,0,0,0,0,0,0,0,0,0,0,0,0,0,0,0,0,0,0,0,0,0,0,0,0,0,0,0,0,0,0,0,0,0,0,0,0,0,0,0,0,0,0,0,0,0,0,0,0,0,0,0,0,0,0,0,0,0,0,0,0,0,0,0,0,0,0,0,0,0,0,0,0,0,0,0,0,0,0,0,0,0,0,
0,0,0,0,0,0,0,0,0,0,0,0,0,0,0,0,0,0,0,0,0,0,0,0,0,0,0,0,0,0,0,927,0,0,0,0,0,0,0,0,0,0,0,0,0,0,0,0,0,0,0,0,0,0,0,0,0,0,0,0,0,0,0,0,0,0,0,0,0,0,0,0,0,0,0,0,0,0,0,0,0,0,0,0,0,0,0,0,0,0,0,0,0,0,0,0,0,0,0,0,0,0,0,0,
0,0,0,0,0,0,0,0,0,0,0,0,0,0,0,0,0,0,0,0,0,0,0,0,0,0,0,0,0,0,0,0,0,0,0,0,0,0,0,0,0,0,0,0,0,0,0,0,0,0,0,0,0,0,0,0,0,0,0,0,0,0,0,0,0,0,0,0,0,0,0,0,0,0,0,0,0,0,0,0,0,0,0,0,0,0,0,0,0,0,0,0,0,0,0,0,0,0,0,0,0,0,0,0,
0,0,0,0,0,0,0,0,0,0,0,0,0,0,0,0,0,0,0,0,0,0,0,0,0,0,0,0,0,0,0,0,0,0,0,0,0,0,0,0,0,0,0,0,0,0,0,0,0,0,0,0,0,0,0,0,0,0,0,0,0,0,0,0,0,0,0,0,0,0,0,0,0,0,0,0,0,0,0,0,0,0,0,0,0,0,0,0,0,0,0,0,0,0,0,0,0,0,0,0,0,0,0,0,
0,0,0,0,0,0,0,0,0,0,0,0,0,0,0,0,0,0,0,0,0,0,0,0,0,0,0,0,0,0,0,0,0,0,0,0,0,0,0,0,0,0,0,0,0,0,0,0,0,0,0,0,0,0,0,0,0,0,0,0,0,0,1185,0,0,0,0,0,0,0,0,0,0,0,0,0,0,0,0,0,0,0,0,0,0,0,0,0,0,0,0,0,0,0,0,0,0,0,0,0,0,0,0,0,
0,0,0,0,0,0,0,0,0,0,0,0,0,0,0,0,0,0,0,0,0,0,0,0,0,0,0,0,0,0,0,0,0,0,0,0,0,0,0,0,0,0,0,0,0,0,0,0,0,0,0,0,0,0,0,0,0,0,0,0,0,0,1193,1185,0,0,0,0,0,0,0,0,0,0,0,0,0,0,0,0,0,0,0,0,0,0,0,0,0,0,0,0,0,0,0,0,0,0,0,0,0,0,0,0,
0,0,0,0,0,0,0,0,0,0,0,0,0,0,0,0,0,0,0,0,0,0,0,0,0,0,0,0,0,0,0,0,0,0,0,0,0,0,0,0,0,680,0,0,0,0,0,0,0,0,0,0,0,0,0,0,0,0,0,0,0,0,0,1193,1189,0,0,0,0,0,0,0,0,0,0,0,0,0,0,0,0,0,0,0,0,0,0,0,0,0,0,0,0,0,0,0,0,0,0,0,0,0,0,0,
0,0,0,0,0,0,0,0,0,0,0,0,0,0,0,0,0,0,0,0,0,0,0,0,0,0,0,0,0,0,0,0,0,0,0,0,0,0,680,0,0,0,0,0,0,0,0,0,0,0,0,0,0,0,0,0,0,0,0,0,0,0,0,0,0,1185,0,0,0,0,0,0,0,0,0,0,0,0,0,0,0,0,0,0,0,0,0,0,0,0,0,0,0,0,0,0,0,0,0,0,0,0,0,0,
0,0,0,0,0,0,0,0,0,0,0,0,0,0,0,0,0,0,0,0,0,0,0,0,0,0,0,0,0,0,0,0,0,0,0,0,0,0,0,0,0,0,0,0,0,0,0,0,0,1102,1103,1104,0,0,0,0,0,0,0,0,0,0,0,0,0,1193,1189,1189,0,0,0,0,0,0,0,0,1189,0,0,0,0,0,0,0,0,0,0,0,0,0,0,0,0,0,0,0,0,0,0,0,0,0,0,0,
0,0,0,0,0,0,0,0,0,0,0,0,0,0,0,0,0,0,0,0,0,0,0,0,0,0,0,0,0,0,0,0,0,0,0,0,0,0,0,0,0,0,0,0,0,0,0,0,0,1110,1111,1112,0,0,0,0,0,0,0,0,0,0,0,0,0,0,0,0,1189,0,0,0,0,0,0,0,0,0,0,0,0,0,0,0,0,0,0,0,0,0,0,0,0,0,0,0,0,0,0,0,0,0,0,0,
0,0,0,0,0,0,0,0,0,0,0,0,0,0,0,0,0,0,0,0,0,0,0,0,0,0,0,1089,1090,1091,1092,1093,0,0,0,0,0,0,0,0,0,0,0,0,0,0,0,0,0,1118,1119,1120,0,0,0,0,0,0,0,0,0,0,0,0,0,0,0,0,0,1189,1189,1189,1189,1189,1189,1189,0,0,0,0,0,0,0,0,0,0,0,0,0,0,0,0,0,0,0,0,0,0,0,0,0,0,0,0,
0,0,0,0,0,0,0,0,0,0,0,0,0,0,0,0,0,0,0,0,0,1102,1103,1104,0,0,0,1097,1098,1099,1100,1101,0,0,0,0,0,0,0,0,0,0,0,0,0,0,0,0,0,1126,1127,1128,0,0,0,0,0,0,0,0,0,0,0,680,0,0,0,0,0,0,0,0,0,0,0,0,1189,0,0,0,0,0,0,0,0,0,0,0,0,0,0,0,0,0,0,0,0,0,0,0,0,0,0,0,
0,0,0,0,0,0,0,0,0,0,0,0,0,0,0,0,0,0,0,0,0,1110,1111,1112,0,0,0,1105,1106,1107,1108,1109,0,0,0,0,0,0,0,0,0,0,0,0,0,0,0,0,0,1134,1135,1136,0,0,0,0,0,0,0,0,0,0,0,680,680,0,0,0,0,0,0,0,0,0,0,0,0,0,0,0,0,0,0,0,0,0,0,0,0,0,0,0,0,0,0,0,0,0,0,0,0,0,0,0,
0,0,0,0,0,0,0,0,0,0,0,0,0,0,0,0,0,0,0,0,0,1118,1119,1120,0,0,0,1113,1114,1115,1116,1117,0,1089,1090,1091,1092,1093,0,0,0,0,0,0,0,0,0,0,0,0,0,0,1102,1103,1104,0,0,0,0,0,0,0,0,680,680,680,0,0,0,0,0,0,0,0,0,0,0,0,0,0,0,0,0,0,0,0,0,0,0,0,0,0,0,0,0,0,0,0,0,0,0,0,0,0,
0,0,0,0,0,0,0,0,0,0,0,0,0,0,0,0,0,0,0,0,0,1126,1127,1128,0,0,0,680,1122,1123,1124,1125,0,1097,1098,1099,1100,1101,0,0,0,0,0,0,0,0,0,0,0,0,0,0,1110,1111,1112,0,0,0,0,0,0,0,0,0,0,0,680,680,0,0,0,0,0,0,0,0,0,0,0,0,0,0,0,0,0,0,0,0,0,0,0,0,0,0,0,0,0,0,0,0,0,0,0,0,
0,0,0,0,0,0,0,0,0,0,0,0,0,0,0,0,0,0,0,0,0,1134,1135,1136,0,0,0,680,1130,1131,1132,1133,0,1105,1106,1107,1108,1109,0,0,0,0,0,0,0,0,0,0,0,0,0,0,1118,1119,1120,0,0,0,0,0,0,0,0,0,0,0,0,0,680,0,0,0,0,0,0,0,0,0,0,0,0,0,0,0,0,0,0,0,0,0,0,0,0,0,0,0,0,0,0,0,0,0,0,0,
0,0,0,0,0,0,0,0,0,0,0,0,0,0,0,0,0,0,0,0,0,0,0,0,0,0,0,680,0,0,0,0,0,1113,1114,1115,1116,1102,1103,1104,0,0,0,0,0,0,0,0,0,0,0,0,1126,1127,1128,0,0,0,0,0,0,0,0,0,0,0,0,0,0,0,0,0,0,0,0,0,0,0,0,0,0,0,0,0,0,0,0,0,0,0,0,0,0,0,0,0,0,0,0,0,0,0,0,0,
0,0,0,0,0,0,0,0,0,0,0,0,0,0,0,0,0,0,1102,1103,1104,0,0,0,0,0,0,0,0,0,0,0,0,1121,1122,1123,1124,1110,1111,1112,0,0,0,0,0,0,0,0,0,0,0,0,1134,1135,1136,0,0,0,0,0,0,0,0,0,0,0,0,0,0,0,0,0,0,0,0,0,0,0,0,0,0,0,0,0,0,0,0,0,0,0,0,0,0,0,0,0,0,0,0,0,0,0,0,0,
0,0,0,0,0,0,0,0,0,0,0,0,0,0,0,0,0,0,1110,1111,1112,0,0,0,0,0,0,0,0,0,1092,1089,1090,1091,1092,1093,1132,1118,1119,1120,0,0,0,0,0,0,0,0,0,0,0,0,0,0,0,0,0,0,0,0,0,0,0,0,0,0,0,0,0,0,0,0,0,0,0,0,0,0,0,0,0,0,0,0,0,0,0,0,0,0,0,0,0,0,0,0,0,0,0,0,0,0,0,0,
0,0,0,0,0,0,0,0,0,0,0,0,0,0,0,0,0,0,1118,1119,1120,0,0,1102,1103,1104,0,0,0,0,680,1097,1098,1099,1100,1101,0,1126,1127,1128,0,0,0,0,0,0,0,0,0,0,0,0,0,0,0,0,0,0,0,0,0,0,0,0,0,0,0,0,0,0,0,0,0,0,0,0,0,0,0,0,0,0,0,0,0,0,0,0,0,0,0,0,0,0,0,0,0,0,0,0,0,0,0,0,
0,0,0,0,0,0,0,0,0,0,0,0,0,0,0,0,0,0,1126,1127,1128,0,0,1110,1111,1112,0,0,0,0,680,1105,1106,1107,1108,1109,0,1134,1135,1136,0,0,0,0,0,0,0,0,0,0,0,0,0,0,0,0,0,0,0,0,0,0,0,0,0,0,0,0,0,0,0,0,0,0,0,0,0,0,0,0,0,0,0,0,0,0,0,0,0,0,0,0,0,0,0,0,0,0,0,0,0,0,0,0,
0,0,0,0,0,0,0,0,0,0,0,0,0,0,0,0,0,0,1134,1135,1136,0,0,1118,1119,1120,1089,1090,1091,1092,680,1113,1114,1115,1116,1117,0,0,0,1102,1103,1104,0,0,0,0,0,0,0,0,0,0,0,0,0,0,0,0,0,0,0,0,0,0,0,0,0,0,0,0,0,0,0,0,0,0,0,0,0,0,0,0,0,0,0,0,0,0,0,0,0,0,0,0,0,0,0,0,0,0,0,0,0,0,
0,0,0,0,0,0,0,0,0,0,0,0,0,0,0,0,0,0,0,0,0,0,0,1126,1127,1128,1097,1098,1099,1100,680,1125,1122,1123,1124,1125,0,0,0,1110,1111,1112,0,0,0,0,0,0,0,0,0,0,0,0,0,0,0,0,0,0,0,0,0,0,0,0,0,0,0,0,0,0,0,0,0,0,0,0,0,0,0,0,0,0,0,0,0,0,0,0,0,0,0,0,0,0,0,0,0,0,0,0,0,0,
0,0,0,0,0,0,0,0,0,0,0,0,0,0,0,0,0,0,0,0,0,0,0,1134,1135,1136,1105,1106,1107,1108,1109,680,1130,1131,1132,1133,0,0,0,1118,1119,1120,0,0,0,0,0,0,0,0,0,0,0,0,0,0,0,0,0,0,0,0,0,0,0,0,0,0,0,0,0,0,0,0,0,0,0,0,0,0,0,0,0,0,0,0,0,0,0,0,0,0,0,0,0,0,0,0,0,0,0,0,0,0,
0,0,0,0,0,0,0,0,0,0,0,0,0,0,0,0,0,0,0,0,0,0,0,0,0,0,1113,1114,1115,1116,1117,680,0,0,0,0,0,0,0,1126,1127,1128,0,0,0,0,0,0,0,0,0,0,0,0,0,0,0,0,0,0,0,0,0,0,0,0,0,0,0,0,0,0,0,0,0,0,0,0,0,0,0,0,0,0,0,0,0,0,0,0,0,0,0,0,0,0,0,0,0,0,0,0,0,0,
0,0,0,0,0,0,0,0,0,0,0,0,0,0,0,0,0,0,0,0,1089,1090,1091,1092,1093,0,1121,1122,1123,1124,1125,680,0,0,1089,1090,1091,1092,1093,1134,1135,1136,0,0,0,0,0,1102,1103,1104,0,0,0,0,0,0,0,0,0,0,0,0,0,0,0,0,0,0,0,0,0,0,0,0,0,0,0,0,0,0,0,0,0,0,0,0,0,0,0,0,0,0,0,0,0,0,0,0,0,0,0,0,0,0,
0,0,0,0,0,0,0,0,0,0,0,0,0,0,0,0,0,0,0,0,1097,1098,1099,1100,1101,0,1129,1130,1131,1132,1133,0,0,0,1097,1098,1099,1100,1101,0,0,0,0,0,0,0,0,1110,1111,1112,0,0,0,0,0,0,0,0,0,0,0,0,0,0,0,0,0,0,0,0,0,0,0,0,0,0,0,0,0,0,0,0,0,0,0,0,0,0,0,0,0,0,0,0,0,0,0,0,0,0,0,0,0,0,
0,0,0,0,0,0,0,0,0,0,0,0,0,0,0,0,0,0,0,0,1105,1106,1107,1108,1109,0,0,0,0,0,0,0,0,0,1105,1106,1107,1108,1109,0,0,0,0,0,0,0,0,1118,1119,1120,0,0,0,0,0,0,0,0,0,0,0,0,0,0,0,0,0,0,0,0,0,0,0,0,0,0,0,0,0,0,0,0,0,0,0,0,0,0,0,0,0,0,0,0,0,0,0,0,0,0,0,0,0,0,
0,0,0,0,0,0,0,0,0,0,0,0,0,0,0,0,0,0,0,0,1113,1114,1115,1116,1117,0,0,0,0,0,0,680,0,0,1113,1114,1115,1116,1117,0,0,0,0,0,0,0,0,1126,1127,1128,0,0,0,0,0,0,0,0,0,0,0,0,0,0,0,0,0,0,0,0,0,0,0,0,0,0,0,0,0,0,0,0,0,0,0,0,0,0,0,0,0,0,0,0,0,0,0,0,0,0,0,0,0,0,
0,0,0,0,0,0,0,0,0,0,0,0,0,0,0,0,0,0,0,0,1121,1122,1123,1124,1125,0,0,0,0,0,0,0,0,0,1121,1122,1123,1124,1125,0,0,0,0,0,0,0,0,1134,1135,1136,0,0,0,0,0,0,0,0,0,0,0,0,0,0,0,0,0,0,0,0,0,0,0,0,0,0,0,0,0,0,0,0,0,0,0,0,0,0,0,0,0,0,0,0,0,0,0,0,0,0,0,0,0,0,
0,0,0,0,0,0,0,0,0,0,0,0,0,0,0,0,0,0,0,0,1129,1130,1131,1132,1133,0,0,0,0,0,0,0,0,0,1129,1130,1131,1132,1133,0,0,0,0,0,0,1089,1090,1091,1092,1093,0,0,1089,1090,1091,1092,1093,0,0,0,0,0,0,0,0,0,0,0,0,0,0,0,0,0,0,0,0,0,0,0,0,0,0,0,0,0,0,0,0,0,0,0,0,0,0,0,0,0,0,0,0,0,0,0,
0,0,0,0,0,0,0,0,0,0,0,0,0,0,0,0,0,0,0,0,0,0,0,0,0,0,0,0,0,0,1089,1090,1091,1092,1093,0,0,0,0,0,0,0,0,0,0,1097,1098,1099,1100,1101,0,0,1097,1098,1099,1100,1101,0,0,0,0,0,0,0,0,0,0,0,0,0,0,0,0,0,0,0,0,0,0,0,0,0,0,0,0,0,0,0,0,0,0,0,0,0,0,0,0,0,0,0,0,0,0,0,
0,0,0,0,0,0,0,0,0,0,0,0,0,0,0,0,0,0,0,0,0,0,0,0,0,0,0,0,0,0,1097,1098,1099,1100,1101,0,0,0,0,680,1090,1091,1092,1093,0,1105,1106,1107,1108,1109,0,0,1105,1106,1107,1108,1109,0,0,0,0,0,0,0,0,0,0,0,0,0,0,0,0,0,0,0,0,0,0,0,0,0,0,0,0,0,0,0,0,0,0,0,0,0,0,0,0,0,0,0,0,0,0,0,
0,0,0,0,0,0,0,0,0,0,0,0,0,0,0,0,0,0,0,0,0,0,0,0,0,0,0,0,0,0,1105,1106,1107,1108,1109,0,0,0,0,1097,1098,1099,1100,1101,0,1113,1114,1115,1116,1117,0,0,1113,1114,1115,1116,1117,0,0,0,0,0,0,0,0,0,0,0,0,0,0,0,0,0,0,0,0,0,0,0,0,0,0,0,0,0,0,0,0,0,0,0,0,0,0,0,0,0,0,0,0,0,0,0,
0,0,0,0,0,0,0,0,0,0,0,0,0,0,0,0,0,0,0,0,0,0,0,0,0,0,0,0,0,0,1113,1114,1115,1116,1117,0,0,0,0,1105,1106,1107,1108,1109,0,1121,1122,1123,1124,1125,0,0,1121,1122,1123,1124,1125,0,0,0,0,0,0,0,0,0,0,0,0,0,0,0,0,0,0,0,0,0,0,0,0,0,0,0,0,0,0,0,0,0,0,0,0,0,0,0,0,0,0,0,0,0,0,0,
0,0,0,0,0,0,0,0,0,0,0,0,0,0,0,0,0,0,0,0,0,0,0,0,0,0,0,0,0,0,1121,1122,1123,1124,1125,0,0,0,0,1113,1114,1115,1116,1117,0,1129,1130,1131,1132,1133,0,0,1129,1130,1131,1132,1133,1090,1091,1092,1093,0,0,0,0,0,0,0,0,0,0,0,0,0,0,0,0,0,0,0,0,0,0,0,0,0,0,0,0,0,0,0,0,0,0,0,0,0,0,0,0,0,0,0,
0,0,0,0,0,0,0,0,0,0,0,0,0,0,0,0,0,0,0,0,0,0,0,0,0,0,0,0,0,0,1129,1130,1131,1132,1133,0,0,0,0,1121,1122,1123,1124,1125,0,0,0,0,0,0,0,0,0,0,0,0,1097,1098,1099,1100,1101,0,0,0,0,0,0,0,0,0,0,0,0,0,0,0,0,0,0,0,0,0,0,0,0,0,0,0,0,0,0,0,0,0,0,0,0,0,0,0,0,0,0,0,
0,0,0,0,0,0,0,0,0,0,0,0,0,0,0,0,0,0,0,0,0,0,0,0,0,0,0,0,0,0,0,0,0,0,0,0,0,0,0,1129,1130,1131,1132,1133,0,0,0,0,0,0,0,0,0,0,1090,0,1105,1106,1107,1108,1109,0,0,0,0,0,0,0,0,0,0,0,0,0,0,0,0,0,0,0,0,0,0,0,0,0,0,0,0,0,0,0,0,0,0,0,0,0,0,0,0,0,0,0,
0,0,0,0,0,0,0,0,0,0,0,0,0,0,0,0,0,0,0,0,0,0,0,0,0,0,0,0,0,0,0,0,0,0,0,0,0,0,0,0,0,0,0,0,0,0,0,0,0,0,0,0,0,0,0,0,1113,1114,1115,1116,1117,0,0,0,0,0,0,0,0,0,0,0,0,0,0,0,0,0,0,0,0,0,0,0,0,0,0,0,0,0,0,0,0,0,0,0,0,0,0,0,0,0,0,0,
0,0,0,0,0,0,0,0,0,0,0,0,0,0,0,0,0,0,0,0,0,0,0,0,0,0,0,0,0,0,0,0,0,0,0,0,0,0,0,0,0,0,0,0,0,0,0,0,0,0,0,0,0,0,0,0,1121,1122,1123,1124,1125,0,0,0,0,0,0,0,0,0,0,0,1092,0,0,0,0,0,0,0,0,0,0,0,0,0,0,0,0,0,0,0,0,0,0,0,0,0,0,0,0,0,0,0,
0,0,0,0,0,0,0,0,0,0,0,0,0,0,0,0,0,0,0,0,0,0,0,0,0,0,0,0,0,0,0,0,0,1101,0,0,1089,1090,1091,1092,1093,0,0,0,0,0,1089,1090,1091,1092,1093,0,0,0,0,0,1129,1130,1131,1132,1133,0,0,0,0,0,0,0,0,0,0,0,0,0,0,0,0,0,0,0,0,0,0,0,0,0,0,0,0,0,0,0,0,0,0,0,0,0,0,0,0,0,0,0,
0,0,0,0,0,0,0,0,0,0,0,0,0,0,0,0,0,0,0,0,0,0,0,0,0,0,0,0,0,0,0,0,0,1109,0,0,1097,1098,1099,1100,1101,0,0,0,0,0,1097,1098,1099,1100,1101,0,1089,1090,1091,1092,1093,0,0,0,0,0,0,0,0,0,0,0,0,0,0,0,0,0,0,0,0,0,0,0,0,0,0,0,0,0,0,0,0,0,0,0,0,0,0,0,0,0,0,0,0,0,0,0,
0,0,0,0,0,0,0,0,0,0,0,0,0,0,0,0,0,0,0,0,0,0,0,0,0,0,0,0,0,0,0,0,0,0,0,0,1105,1106,1107,1108,1109,0,0,0,0,0,1105,1106,1107,1108,1109,0,1097,1098,1099,1100,1101,0,0,0,0,0,0,0,0,0,0,0,0,0,0,0,0,0,0,0,0,0,0,0,0,0,0,0,0,0,0,0,0,0,0,0,0,0,0,0,0,0,0,0,0,0,0,0,
0,0,0,0,0,0,0,0,0,0,0,0,0,0,0,0,0,0,0,0,0,0,0,0,0,0,0,0,0,0,0,0,0,0,0,0,1113,1114,1115,1116,1117,0,0,0,0,0,1113,1114,1115,1116,1117,0,1105,1106,1107,1108,1109,0,1148,1149,1150,1151,0,0,0,0,0,0,0,0,0,0,0,0,0,0,0,0,0,0,0,0,0,0,0,0,0,0,0,0,0,0,0,0,0,0,0,0,0,0,0,0,0,0,
0,0,0,0,0,0,0,0,0,0,0,0,0,0,0,0,0,0,0,0,0,0,0,0,0,0,0,0,0,0,0,0,0,0,0,0,1121,1122,1123,1124,1125,0,0,0,0,0,1121,1122,1123,1124,1125,0,1113,1114,1115,1116,1117,0,0,0,0,0,0,0,0,0,0,0,0,0,0,0,0,0,0,0,0,0,0,0,0,0,0,0,0,0,0,0,0,0,0,0,0,0,0,0,0,0,0,0,0,0,0,0,
0,0,0,0,0,0,0,0,0,0,0,0,0,0,0,0,0,0,0,0,0,0,0,0,0,0,0,0,0,0,0,0,0,0,0,0,1129,1130,1131,1132,1133,0,0,0,0,0,1129,1130,1131,1132,1133,0,1121,1122,1123,1124,1125,0,0,0,0,0,0,0,0,0,0,0,0,0,0,0,0,0,0,0,0,0,0,0,0,0,0,0,0,0,0,0,0,0,0,0,0,0,0,0,0,0,0,0,0,0,0,0,
0,0,0,0,0,0,0,0,0,0,0,0,0,0,0,0,0,0,0,0,0,0,0,0,0,0,0,0,0,0,0,0,0,0,0,0,0,0,0,0,0,0,0,0,0,0,0,0,0,0,0,0,1129,1130,1131,1132,1133,0,0,0,0,0,0,0,0,0,0,0,0,0,0,0,0,0,0,0,0,0,0,0,0,0,0,0,0,0,0,0,0,0,0,0,0,0,0,0,0,0,0,0,0,0,0,0,
0,0,0,0,0,0,0,0,0,0,0,0,0,0,0,0,0,0,0,0,0,0,0,0,0,0,0,0,0,0,0,0,0,0,0,0,0,0,0,0,0,0,0,0,0,0,0,680,0,0,0,0,0,0,0,0,0,0,0,0,0,0,0,0,0,0,0,0,0,0,0,0,0,0,0,0,0,0,0,0,0,0,0,0,0,0,0,0,0,0,0,0,0,0,0,0,0,0,0,0,0,0,0,0,
0,0,0,0,0,0,0,0,0,0,0,0,0,0,0,0,0,0,0,0,0,0,0,0,0,0,0,0,0,0,0,0,0,0,0,0,0,0,0,0,0,0,0,0,1037,1038,1039,1040,0,0,0,0,0,0,0,0,0,0,0,0,0,0,0,0,0,0,0,0,0,0,0,0,0,0,0,0,0,0,0,0,0,0,0,0,0,0,0,0,0,0,0,0,0,0,0,0,0,0,0,0,0,0,0,0,
0,0,0,0,0,0,0,0,0,0,0,0,0,0,0,0,0,0,0,0,0,0,0,0,0,0,0,0,0,0,0,0,0,0,0,0,0,0,0,0,0,0,0,0,680,1038,1039,0,0,0,0,0,0,0,0,0,0,0,0,0,0,0,0,0,0,0,0,0,0,0,0,0,0,0,0,0,0,0,0,0,0,0,0,0,0,0,0,0,0,0,0,0,0,0,0,0,0,0,0,0,0,0,0,0,
0,0,0,0,0,0,0,0,0,0,0,0,0,0,0,0,0,0,0,0,0,0,0,0,0,0,0,0,0,0,0,0,0,0,0,0,0,0,0,0,0,0,0,0,0,1046,1047,0,0,0,0,0,0,0,0,0,0,0,0,0,0,0,0,0,0,0,0,0,0,0,0,0,0,0,0,0,0,0,0,0,0,0,0,0,0,0,0,0,0,0,0,0,0,0,0,0,0,0,0,0,0,0,0,0,
0,0,0,0,0,0,0,0,0,0,0,0,0,0,0,0,0,0,0,0,0,0,0,0,0,0,0,0,0,0,0,0,0,0,0,0,0,0,0,0,0,0,0,0,0,1054,1055,0,0,0,0,0,0,0,0,0,0,0,0,0,0,0,0,0,0,0,0,0,0,0,0,0,0,0,0,0,0,0,0,0,0,0,0,0,0,0,0,0,0,0,0,0,0,0,0,0,0,0,0,0,0,0,0,0,
0,0,0,0,0,0,0,0,0,0,0,0,0,0,0,0,0,0,0,0,0,0,0,0,0,0,0,0,0,0,0,0,0,0,0,0,0,0,0,0,0,0,0,0,1061,1062,1063,1064,0,0,0,0,0,0,0,0,0,0,0,0,0,0,0,0,0,0,0,0,0,0,0,1090,0,0,0,0,0,0,0,0,0,0,0,0,0,0,0,0,0,0,0,0,0,0,0,0,0,0,0,0,0,0,0,0,
0,0,0,0,0,0,0,0,0,0,0,0,0,0,0,0,0,0,0,0,0,0,0,0,0,0,0,0,0,0,0,0,0,0,0,0,0,0,0,0,0,0,0,0,1069,1070,1071,1072,0,0,0,0,0,0,0,0,0,0,0,0,0,0,0,0,0,0,0,0,0,0,0,1098,0,0,0,0,0,0,0,0,0,0,0,0,0,0,0,0,0,0,0,0,0,0,0,0,0,0,0,0,0,0,0,0,
0,0,0,0,0,0,0,0,0,0,0,0,0,0,0,0,0,0,0,0,0,0,0,0,0,0,0,0,0,0,0,0,0,0,0,0,0,0,0,0,0,0,0,0,0,0,0,0,0,0,0,0,0,0,0,0,0,0,0,0,0,0,0,0,0,0,0,0,0,0,0,0,0,0,0,0,0,0,0,0,0,0,0,0,0,0,0,0,0,0,0,0,0,0,0,0,0,0,0,0,0,0,0,0,
0,0,0,0,0,0,0,0,0,0,0,0,0,0,0,0,0,0,0,0,0,0,0,0,0,0,0,0,0,0,0,0,0,0,0,0,0,0,0,0,0,0,0,0,0,0,0,0,0,0,0,0,0,0,0,0,0,0,0,0,0,0,0,0,0,0,0,0,0,0,0,0,0,0,1102,0,0,0,0,0,0,0,0,0,0,0,0,0,0,0,0,0,0,0,0,0,0,0,0,0,0,0,0,0,
0,0,0,0,0,0,0,0,0,0,0,0,0,0,0,0,0,0,0,0,0,0,0,0,0,0,0,0,0,0,0,0,0,0,0,0,0,0,0,0,0,0,0,0,0,0,0,0,0,0,0,0,0,0,0,0,0,0,0,0,0,0,0,0,0,0,0,0,0,0,0,0,0,0,1110,0,0,0,0,0,0,0,0,0,0,0,0,0,0,0,0,0,0,0,0,0,0,0,0,0,0,0,0,0,
0,0,0,0,0,0,0,0,0,0,0,0,0,0,0,0,0,0,0,0,0,0,0,0,0,0,0,0,0,0,0,0,0,0,0,0,0,0,0,0,0,0,0,0,0,0,0,0,0,0,0,0,0,0,0,0,0,0,0,0,0,0,0,0,0,0,0,0,0,0,0,0,0,0,0,0,0,0,0,0,0,0,0,0,0,0,0,0,0,0,0,0,0,0,0,0,0,0,0,0,0,0,0,0,
0,0,0,0,0,0,0,0,0,0,0,0,0,0,0,0,0,0,0,0,0,0,0,0,0,0,0,0,0,0,0,0,0,0,0,0,0,0,0,0,0,0,0,0,0,0,0,0,0,0,0,0,0,0,0,0,0,0,0,0,0,0,0,0,0,0,0,0,0,0,0,0,0,0,0,0,0,0,0,0,0,0,0,0,0,0,0,0,0,0,0,0,0,0,0,0,0,0,0,0,0,0,0,0,
0,0,0,0,0,0,0,0,0,0,0,0,0,0,0,0,0,0,0,0,0,0,0,0,0,0,0,0,0,0,0,0,0,0,0,0,0,0,0,0,0,0,0,0,0,0,0,0,0,0,0,0,0,0,0,0,0,0,0,0,0,0,0,0,0,0,0,0,0,0,0,0,0,0,0,0,0,0,0,0,0,0,0,0,0,0,0,0,0,0,0,0,0,0,0,0,0,0,0,0,0,0,0,0,
0,0,0,0,0,0,0,0,0,0,0,0,0,0,0,0,0,0,0,0,0,0,0,0,0,0,0,0,0,0,0,0,0,0,0,0,0,0,0,0,0,0,0,0,0,0,0,0,0,0,680,0,0,0,0,0,0,0,0,0,0,0,0,0,0,0,0,0,0,0,0,0,0,0,0,0,0,0,0,0,0,0,0,0,0,0,0,0,0,0,0,0,0,0,0,0,0,0,0,0,0,0,0,0,
0,0,0,0,0,0,0,0,0,0,0,0,0,0,0,0,0,0,0,0,0,0,0,0,0,0,0,0,0,0,0,0,0,0,0,0,0,0,0,0,0,0,0,0,0,0,0,1037,1038,1039,1040,0,0,0,0,0,0,0,0,0,0,0,0,0,0,0,0,0,0,0,0,0,0,0,0,0,0,0,0,0,0,0,0,0,0,0,0,0,0,0,0,0,0,0,0,0,0,0,0,0,0,0,0,0,
0,0,0,0,0,0,0,0,0,0,0,0,0,0,0,0,0,0,0,0,0,0,0,0,0,0,0,0,0,0,0,0,0,0,0,0,0,0,0,0,0,0,0,0,0,0,0,0,1038,1039,0,0,0,0,0,0,0,0,0,0,0,0,0,0,0,0,0,0,0,0,0,0,0,0,0,0,0,0,0,0,0,0,0,0,0,0,0,0,0,0,0,0,0,0,0,0,0,0,0,0,0,0,0,0,
0,0,0,0,0,0,0,0,0,0,0,0,0,0,0,0,0,0,0,0,0,0,0,0,0,0,0,0,0,0,0,0,0,0,0,0,0,0,0,0,0,0,0,0,0,0,0,0,1046,1047,0,0,0,0,0,0,0,0,0,0,0,0,0,0,0,0,0,0,0,0,0,0,0,0,0,0,0,0,0,0,0,0,0,0,0,0,0,0,0,0,0,0,0,0,0,0,0,0,0,0,0,0,0,0,
0,0,0,0,0,0,0,0,0,0,0,0,0,0,0,0,0,0,0,0,0,0,0,0,0,0,0,0,0,0,0,0,0,0,0,0,0,0,0,0,0,0,0,0,0,0,0,0,1054,1055,0,0,0,0,0,0,0,0,0,0,0,0,0,0,0,0,0,0,0,0,0,0,0,0,0,0,0,0,0,0,0,0,0,0,0,0,0,0,0,0,0,0,0,0,0,0,0,0,0,0,0,0,0,0,
0,0,0,0,0,0,0,0,0,0,0,0,0,0,0,0,0,0,0,0,0,0,0,0,0,0,0,0,0,0,0,0,0,0,0,0,0,0,0,0,0,0,0,0,0,0,0,0,1038,1039,0,0,0,0,0,0,0,0,0,0,0,0,0,0,0,0,0,0,0,0,0,0,0,0,0,0,0,0,0,0,0,0,0,0,0,0,0,0,0,0,0,0,0,0,0,0,0,0,0,0,0,0,0,0,
0,0,0,0,0,0,0,0,0,0,0,0,0,0,0,0,0,0,0,0,0,0,0,0,0,0,0,0,0,0,0,0,0,0,0,0,0,0,0,0,0,0,0,0,0,0,0,0,1046,1047,0,0,0,0,0,0,0,0,0,0,0,0,0,0,0,0,0,0,0,0,0,0,0,0,0,0,0,0,0,0,0,0,0,0,0,0,0,0,0,0,0,0,0,0,0,0,0,0,0,0,0,0,0,0,
0,0,0,0,0,0,0,0,0,0,0,0,0,0,0,0,0,0,0,0,0,0,0,0,0,0,0,0,0,0,0,0,0,0,0,0,0,0,0,0,0,0,0,0,0,0,0,0,1054,1055,0,0,0,0,0,0,0,0,0,0,0,0,0,0,0,0,0,0,0,0,0,0,0,0,0,0,0,0,0,0,0,0,0,0,0,0,0,0,0,0,0,0,0,0,0,0,0,0,0,0,0,0,0,0,
0,0,0,0,0,0,0,0,0,0,0,0,0,0,0,0,0,0,0,0,0,0,0,0,0,0,0,0,0,0,0,0,0,0,0,0,0,0,0,0,0,0,0,0,0,0,0,0,1038,1039,0,0,0,0,0,0,0,0,0,0,0,0,0,0,0,0,0,0,0,0,0,0,0,0,0,0,0,0,0,0,0,0,0,0,0,0,0,0,0,0,0,0,0,0,0,0,0,0,0,0,0,0,0,0,
0,0,0,0,0,0,0,0,0,0,0,0,0,0,0,0,0,0,0,0,0,0,0,0,0,0,0,0,0,0,0,0,0,0,0,0,0,0,0,0,0,0,0,0,0,0,0,0,1046,1047,0,0,0,0,0,0,0,0,0,0,0,0,0,0,0,0,0,0,0,0,0,0,0,0,0,0,0,0,0,0,0,0,0,0,0,0,0,0,0,0,0,0,0,0,0,0,0,0,0,0,0,0,0,0,
0,0,0,0,0,0,0,0,0,0,0,0,0,0,0,0,0,0,0,0,0,0,0,0,0,0,0,0,0,0,0,0,0,0,0,0,0,0,0,0,0,0,0,0,0,0,0,0,1054,1055,0,0,0,0,0,0,0,0,0,0,0,0,0,0,0,0,0,0,0,0,0,0,0,0,0,0,0,0,0,0,0,0,0,0,0,0,0,0,0,0,0,0,0,0,0,0,0,0,0,0,0,0,0,0,
0,0,0,0,0,0,0,0,0,0,0,0,0,0,0,0,0,0,0,0,0,0,0,0,0,0,0,0,0,0,0,0,0,0,0,0,0,0,0,0,0,0,0,0,0,0,0,0,1038,1039,0,0,0,0,0,0,0,0,0,0,0,0,0,0,0,0,0,0,0,0,0,0,0,0,0,0,0,0,0,0,0,0,0,0,0,0,0,0,0,0,0,0,0,0,0,0,0,0,0,0,0,0,0,0,
0,0,0,0,0,0,0,0,0,0,0,0,0,0,0,0,0,0,0,0,0,0,0,0,0,0,0,0,0,0,0,0,0,0,0,0,0,0,0,0,0,0,0,0,0,0,0,0,1046,1047,0,0,0,0,0,0,0,0,0,0,0,0,0,0,0,0,0,0,0,0,0,0,0,0,0,0,0,0,0,0,0,0,0,0,0,0,0,0,0,0,0,0,0,0,0,0,0,0,0,0,0,0,0,0,
0,0,0,0,0,0,0,0,0,0,0,0,0,0,0,0,0,0,0,0,0,0,0,0,0,0,0,0,0,0,0,0,0,0,0,0,0,0,0,0,0,0,0,0,0,0,0,0,1054,1055,0,0,0,0,0,0,0,0,0,0,0,0,0,0,0,0,0,0,0,0,0,0,0,0,0,0,0,0,0,0,0,0,0,0,0,0,0,0,0,0,0,0,0,0,0,0,0,0,0,0,0,0,0,0,
0,0,0,0,0,0,0,0,0,0,0,0,0,0,0,0,0,0,0,0,0,0,0,0,0,0,0,0,0,0,0,0,0,0,0,0,0,0,0,0,0,0,0,0,0,0,0,0,1038,1039,0,0,0,0,0,0,0,0,0,0,0,0,0,0,0,0,0,0,0,0,0,0,0,0,0,0,0,0,0,0,0,0,0,0,0,0,0,0,0,0,0,0,0,0,0,0,0,0,0,0,0,0,0,0,
0,0,0,0,0,0,0,0,0,0,0,0,0,0,0,0,0,0,0,0,0,0,0,0,0,0,0,0,0,0,0,0,0,0,0,0,0,0,0,0,0,0,0,0,0,0,0,0,1046,1047,0,0,0,0,0,0,0,0,0,0,0,0,0,0,0,0,0,0,0,0,0,0,0,0,0,0,0,0,0,0,0,0,0,0,0,0,0,0,0,0,0,0,0,0,0,0,0,0,0,0,0,0,0,0,
0,0,0,0,0,0,0,0,0,0,0,0,0,0,0,0,0,0,0,0,0,0,0,0,0,0,0,0,0,0,0,0,0,0,0,0,0,0,0,0,0,0,0,0,0,0,0,0,1054,1055,0,0,0,0,0,0,0,0,0,0,0,0,0,0,0,0,0,0,0,0,0,0,0,0,0,0,0,0,0,0,0,0,0,0,0,0,0,0,0,0,0,0,0,0,0,0,0,0,0,0,0,0,0,0,
0,0,0,0,0,0,0,0,0,0,0,0,0,0,0,0,0,0,0,0,0,0,0,0,0,0,0,0,0,0,0,0,0,0,0,0,0,0,0,0,0,0,0,0,0,0,0,0,1038,1039,0,0,0,0,0,0,0,0,0,0,0,0,0,0,0,0,0,0,0,0,0,0,0,0,0,0,0,0,0,0,0,0,0,0,0,0,0,0,0,0,0,0,0,0,0,0,0,0,0,0,0,0,0,0
</data>
 </layer>
</map>
