<?xml version = "1.0" encoding = "UTF-8"?>
<map version="1.2" tiledversion="1.2.4" orientation="orthogonal" renderorder="right-down" width="45" height="18" tilewidth="16" tileheight="16" infinite="0" nextlayerid="5" nextobjectid="1">
 <properties>
  <property name="tileset_id" type="int" value="11"/>
 </properties>
 <tileset firstgid="1" source="../autotiles/blank.tsx"/>
 <tileset firstgid="48" source="../autotiles/black.tsx"/>
 <tileset firstgid="96" source="../autotiles/blue_interior.tsx"/>
 <tileset firstgid="144" source="../autotiles/red_walkway.tsx"/>
 <tileset firstgid="192" source="../autotiles/blank4.tsx"/>
 <tileset firstgid="240" source="../autotiles/blank5.tsx"/>
 <tileset firstgid="288" source="../autotiles/blank6.tsx"/>
 <tileset firstgid="336" source="../autotiles/blank7.tsx"/>
 <tileset firstgid="384" source="../tilesets/factory in.tsx"/>
 <layer id="1" name="Tile Layer 1" width="45" height="18">
 <data encoding="csv">
48,48,48,48,48,48,48,48,48,48,48,48,48,48,48,48,48,48,48,48,48,48,48,48,48,48,48,48,48,48,48,48,48,48,48,48,48,48,48,48,48,48,48,48,48,52,76,76,76,76,76,76,76,76,76,76,76,76,76,76,76,76,76,76,76,76,76,76,76,76,76,76,76,76,76,76,76,76,76,76,76,76,76,76,76,76,76,56,48,48,72,384,385,386,387,388,389,390,391,384,385,386,387,388,389,390,391,384,385,386,387,388,389,390,391,384,385,386,387,388,389,390,391,384,385,386,387,388,389,390,391,384,64,48,48,72,392,393,394,395,396,397,398,399,392,393,394,395,396,397,398,399,392,393,394,395,396,397,398,399,392,393,394,395,396,397,398,399,392,393,394,395,396,397,398,399,392,64,48,48,72,400,401,402,403,404,405,406,407,400,401,402,403,404,405,406,407,400,401,402,403,404,405,406,407,400,401,402,403,404,405,406,407,400,401,402,403,404,405,406,407,400,64,48,48,72,408,409,410,411,412,413,414,415,408,409,410,411,412,413,414,415,408,409,410,411,412,413,414,415,408,409,410,411,412,413,414,415,408,409,410,411,412,413,414,415,408,64,48,48,72,416,417,418,419,420,421,422,423,416,417,418,419,420,421,422,423,416,417,418,548,549,421,422,423,416,417,418,419,420,421,422,423,416,417,418,419,420,421,422,423,416,64,48,48,72,424,425,426,427,428,429,430,431,424,425,426,427,428,429,430,431,424,425,426,556,557,429,430,431,424,425,426,427,428,429,430,431,424,425,426,427,428,429,430,431,424,64,48,48,72,432,433,434,435,436,437,438,439,432,433,434,435,436,437,438,439,432,433,434,435,436,437,438,439,432,433,434,435,436,437,438,439,432,433,434,435,436,437,438,439,432,64,48,48,72,440,441,442,443,444,445,446,447,440,441,442,443,444,445,446,447,440,441,442,443,444,445,446,447,440,441,442,443,444,445,446,447,440,441,442,443,444,445,446,447,440,64,48,48,72,448,449,450,451,452,453,454,455,448,449,450,451,452,453,454,455,448,449,450,451,452,453,454,455,448,449,450,451,452,453,454,455,448,449,450,451,452,453,454,455,448,64,48,48,72,456,457,458,459,460,461,462,463,456,457,458,459,460,461,462,463,456,457,458,459,460,461,462,463,456,457,458,459,460,461,462,463,456,457,458,459,460,461,462,463,456,64,48,48,72,464,465,466,467,468,469,470,471,464,465,466,467,468,469,470,471,464,465,466,467,468,469,470,471,464,465,466,467,468,469,470,471,464,465,466,467,468,469,470,471,464,64,48,48,72,472,473,474,475,476,477,478,479,472,473,474,475,476,477,478,479,472,473,474,475,476,477,478,479,472,473,474,475,476,477,478,479,472,473,474,475,476,477,478,479,472,64,48,48,50,68,68,68,68,68,68,68,68,68,68,68,68,68,68,68,68,68,68,68,68,68,68,68,68,68,68,68,68,68,68,68,68,68,68,68,68,68,68,68,68,68,49,48,48,48,48,48,48,48,48,48,48,48,48,48,48,48,48,48,48,48,48,48,48,48,48,48,48,48,48,48,48,48,48,48,48,48,48,48,48,48,48,48,48,48,48,48,48,48,48,48,48,48,48,48,48,48,48,48,48,48,48,48,48,48,48,48,48,48,48,48,48,48,48,48,48,48,48,48,48,48,48,48,48,48,48,48,48,48,48,48,48,48,48,48,48,48,48,48,48,48,48,48,48,48,48,48,48,48,48,48,48,48,48,48,48,48,48,48,48,48,48,48,48,48,48,48,48,48,48,48,48,48,48,48,48,48,48,48
 </data>
 </layer>
 <layer id="2" name="Tile Layer 2" width="45" height="18">
 <data encoding="csv">
0,0,0,0,0,0,0,0,0,0,0,0,0,0,0,0,0,0,0,0,0,0,0,0,0,0,0,0,0,0,0,0,0,0,0,0,0,0,0,0,0,0,0,0,0,0,0,0,0,0,0,0,0,0,0,0,0,0,0,0,0,0,0,0,0,0,0,0,0,0,0,0,0,0,0,0,0,0,0,0,0,0,0,0,0,0,0,0,0,0,0,0,0,0,0,0,0,0,0,0,0,0,0,0,0,0,0,0,0,0,0,0,0,0,0,0,0,0,0,0,0,0,0,0,0,0,0,0,0,0,0,0,0,0,0,0,0,0,0,0,0,0,0,0,0,0,0,0,0,0,0,0,0,0,0,0,0,0,0,0,0,0,0,0,0,0,0,0,0,0,0,0,0,0,0,0,0,0,0,0,0,0,0,0,0,0,0,0,0,0,0,0,0,0,0,0,0,0,0,0,0,0,0,0,0,0,0,0,0,0,0,0,0,0,0,0,0,0,0,0,0,0,0,0,0,0,0,0,0,0,0,0,0,0,0,0,0,0,0,0,0,0,0,0,0,0,0,0,0,0,0,0,0,0,0,0,0,0,0,0,0,0,0,0,0,0,0,0,0,0,0,0,0,0,0,0,0,0,0,0,0,0,0,0,0,0,0,0,0,0,0,0,0,0,0,0,0,0,574,575,0,0,0,574,575,0,0,0,0,0,574,575,0,0,0,0,0,0,0,0,0,0,0,0,0,0,0,0,0,0,0,0,0,0,0,0,0,0,0,0,0,0,0,582,583,574,575,0,582,583,0,0,0,0,0,582,583,0,0,0,0,507,508,504,505,506,507,508,504,505,506,507,508,504,505,506,507,508,509,0,0,0,0,0,0,0,0,0,590,591,582,583,0,590,591,0,0,0,0,0,590,591,0,0,0,0,515,516,512,513,514,515,516,512,513,514,515,516,512,513,514,515,516,517,0,0,0,0,0,0,0,0,0,598,599,590,591,0,598,599,0,0,0,0,0,598,599,0,0,0,0,0,0,0,0,0,0,0,0,0,0,0,0,0,0,0,0,0,0,0,0,0,0,0,0,0,0,0,0,0,598,599,0,0,0,0,0,0,0,0,0,0,0,0,0,0,0,0,0,0,0,0,0,0,0,0,0,0,0,0,0,0,0,0,0,0,0,0,0,0,0,0,0,0,0,0,0,0,0,0,0,0,0,0,0,0,0,0,0,0,0,507,508,504,505,506,507,508,504,505,506,507,508,504,505,506,507,508,509,0,0,0,0,0,0,0,0,0,0,0,0,0,0,0,0,0,0,0,0,0,0,0,0,0,0,0,515,516,512,513,514,515,516,512,513,514,515,516,512,513,514,515,516,517,0,0,0,0,0,0,0,0,0,0,0,0,0,0,0,0,0,0,0,0,0,0,0,0,0,0,0,0,0,0,0,0,0,0,0,0,0,0,0,0,0,0,0,0,0,0,480,481,0,0,0,0,0,0,0,0,0,0,0,0,0,0,0,0,0,0,0,0,0,0,0,0,0,0,0,0,0,0,0,0,0,0,0,0,0,0,0,0,0,0,0,0,0,0,0,0,0,0,0,0,0,0,0,0,0,0,0,0,0,0,0,0,0,0,0,0,0,0,0,0,0,0,0,0,0,0,0,0,0,0,0,0,0,0,0,0,0,0,0,0,0,0,0,0,0,0,0,0,0,0,0,0,0,0,0,0,0,0,0,0,0,0,0,0,0,0,0,0,0,0,0,0,0,0,0,0,0,0,0,0,0,0,0,0,0,0,0,0,0,0,0,0,0,0,0,0,0,0,0,0,0,0,0,0,0,0
 </data>
 </layer>
 <layer id="3" name="Tile Layer 3" width="45" height="18">
 <data encoding="csv">
0,0,0,0,0,0,0,0,0,0,0,0,0,0,0,0,0,0,0,0,0,0,0,0,0,0,0,0,0,0,0,0,0,0,0,0,0,0,0,0,0,0,0,0,0,0,0,0,0,0,0,0,0,0,0,0,0,0,0,0,0,0,0,0,0,0,0,0,0,0,0,0,0,0,0,0,0,0,0,0,0,0,0,0,0,0,0,0,0,0,0,0,0,0,0,0,0,0,0,0,0,0,0,0,0,0,0,0,0,0,0,0,0,0,0,0,0,0,0,0,0,0,0,0,0,0,0,0,0,0,0,0,0,0,0,0,0,0,0,0,0,0,0,0,0,0,0,0,0,0,0,0,0,0,0,0,0,0,0,0,0,0,0,0,0,0,0,0,0,0,0,0,0,0,0,0,0,0,0,0,0,0,0,0,0,0,0,0,0,0,0,0,0,0,0,0,0,524,523,523,523,523,523,523,523,0,0,0,0,0,0,0,0,0,0,0,0,0,0,0,0,0,0,0,0,0,0,0,0,0,0,0,0,0,0,0,0,0,0,0,0,0,541,0,0,0,0,0,0,541,0,0,0,0,0,0,0,0,0,0,0,0,0,0,0,0,0,0,0,0,0,523,524,525,523,524,523,524,523,524,525,524,523,524,523,524,523,525,0,0,0,0,0,0,525,524,523,524,523,524,523,525,523,524,523,524,523,524,525,524,523,524,0,0,0,0,0,0,533,0,0,0,0,0,0,533,0,0,0,0,0,0,533,0,0,0,0,0,0,533,0,0,0,0,0,0,533,0,0,0,0,0,0,533,0,0,0,0,0,0,0,0,0,541,0,0,0,0,0,0,541,0,0,0,0,0,0,541,0,0,0,0,0,0,541,0,0,0,0,0,0,541,0,0,0,0,0,0,541,0,0,0,0,0,0,0,0,0,541,0,0,0,0,0,0,541,0,0,0,0,0,0,541,0,0,0,0,0,0,541,0,0,0,0,0,0,541,0,0,0,0,0,0,541,0,0,0,0,0,0,0,0,0,541,0,0,0,0,0,0,541,0,0,0,0,0,0,541,0,0,0,0,0,0,541,0,0,0,0,0,0,541,0,0,0,0,0,0,541,0,0,0,0,0,0,0,0,0,541,0,0,0,0,0,0,541,0,0,0,0,0,0,541,0,0,0,0,0,0,541,0,0,0,0,0,0,541,0,0,0,0,0,0,541,0,0,0,0,0,0,0,0,0,541,0,0,0,0,0,0,541,0,0,0,0,0,0,541,0,0,0,0,0,0,541,0,0,0,0,0,0,541,0,0,0,0,0,0,541,0,0,0,0,0,0,0,0,0,541,0,0,0,0,0,0,541,0,0,0,0,0,0,541,0,0,0,0,0,0,541,0,0,0,0,0,0,541,0,0,0,0,0,0,541,0,0,0,0,0,0,0,0,0,0,0,0,0,0,0,0,0,0,0,0,0,0,0,0,0,0,0,0,0,0,0,0,0,0,0,0,0,0,0,0,0,0,0,0,0,0,0,0,0,0,0,0,0,0,0,0,0,0,0,0,0,0,0,0,0,0,0,0,0,0,0,0,0,0,0,0,0,0,0,0,0,0,0,0,0,0,0,0,0,0,0,0,0,0,0,0,0,0,0,0,0,0,0,0,0,0,0,0,0,0,0,0,0,0,0,0,0,0,0,0,0,0,0,0,0,0,0,0,0,0,0,0,0,0,0,0,0,0,0,0,0,0,0,0,0,0,0,0,0,0,0,0,0,0,0,0,0,0,0,0,0,0,0,0,0,0,0,0,0,0,0,0,0,0,0,0,0,0,0,0,0,0,0,0,0,0
 </data>
 </layer>
</map>
